MODULE MainModule
VAR speeddata Work:= [100,20,5000,1000];
PERS tooldata custom_tool1 := [TRUE, [[-144.18,-154.4,34.77], [0.707107,0.5,-0.5,0]], [0.1,[0.10,0.00,0.00],[1,0,0,0],0,0,0]];
PROC Main()
ConfL \Off;
ConfJ \Off;
SetDO Stavbar_Gripper_close, 0;
SetDO Stavbar_Gripper_open, 1;
MoveJ [[25,450,138.8],[-0.174713,0.907209,0.375778,0.072368],[0,-1,-1,0],[0,9E9,9E9,9E9,9E9,9E9]],v150,z20,custom_tool1\WObj:=WObj0;
MoveL [[25,550,38.8],[-0.174713,0.907209,0.375778,0.072368],[0,-1,-1,0],[0,9E9,9E9,9E9,9E9,9E9]],v150,z20,custom_tool1\WObj:=WObj0;
IF TestDI(Stavbar_opt) THEN
WaitDI Stavbar_opt, 0;
ENDIF
WaitTime 1.5;
SetDO Stavbar_Gripper_open, 0;
SetDO Stavbar_Gripper_close, 1;
WaitTime 1;
MoveL [[25,450,138.8],[-0.174713,0.907209,0.375778,0.072368],[0,-1,-1,0],[0,9E9,9E9,9E9,9E9,9E9]],v150,z20,custom_tool1\WObj:=WObj0;
MoveJ [[424.57,176.97,315.36],[0.320717,-0.233457,0.914293,-0.081892],[0,-1,-1,0],[0,9E9,9E9,9E9,9E9,9E9]],v150,z20,custom_tool1\WObj:=WObj0;
MoveJ [[463.14,129.29,112.5],[0,0.393482,0.919332,0],[0,-1,-1,0],[0,9E9,9E9,9E9,9E9,9E9]],v150,z20,custom_tool1\WObj:=WObj0;
MoveL [[463.14,129.29,12.5],[0,0.393482,0.919332,0],[0,-1,-1,0],[0,9E9,9E9,9E9,9E9,9E9]],v150,z20,custom_tool1\WObj:=WObj0;
WaitTime 1.5;
SetDO Stavbar_Gripper_close, 0;
SetDO Stavbar_Gripper_open, 1;
WaitTime 1;
SetDO Stavbar_Gripper_open, 0;
MoveL [[463.14,129.29,112.5],[0,0.393482,0.919332,0],[0,-1,-1,0],[0,9E9,9E9,9E9,9E9,9E9]],v150,z20,custom_tool1\WObj:=WObj0;
MoveJ [[424.57,176.97,315.36],[0.320717,-0.233457,0.914293,-0.081892],[0,-1,-1,0],[0,9E9,9E9,9E9,9E9,9E9]],v150,z20,custom_tool1\WObj:=WObj0;
MoveJ [[25,450,138.8],[-0.174713,0.907209,0.375778,0.072368],[0,-1,-1,0],[0,9E9,9E9,9E9,9E9,9E9]],v150,z20,custom_tool1\WObj:=WObj0;
MoveL [[25,550,38.8],[-0.174713,0.907209,0.375778,0.072368],[0,-1,-1,0],[0,9E9,9E9,9E9,9E9,9E9]],v150,z20,custom_tool1\WObj:=WObj0;
IF TestDI(Stavbar_opt) THEN
WaitDI Stavbar_opt, 0;
ENDIF
WaitTime 1.5;
SetDO Stavbar_Gripper_open, 0;
SetDO Stavbar_Gripper_close, 1;
WaitTime 1;
MoveL [[25,450,138.8],[-0.174713,0.907209,0.375778,0.072368],[0,-1,-1,0],[0,9E9,9E9,9E9,9E9,9E9]],v150,z20,custom_tool1\WObj:=WObj0;
MoveJ [[424.57,176.97,315.36],[0.320717,-0.233457,0.914293,-0.081892],[0,-1,-1,0],[0,9E9,9E9,9E9,9E9,9E9]],v150,z20,custom_tool1\WObj:=WObj0;
MoveJ [[574.6,75.13,112.5],[0,0.740125,0.672469,0],[0,-1,-1,0],[0,9E9,9E9,9E9,9E9,9E9]],v150,z20,custom_tool1\WObj:=WObj0;
MoveL [[574.6,75.13,12.5],[0,0.740125,0.672469,0],[0,-1,-1,0],[0,9E9,9E9,9E9,9E9,9E9]],v150,z20,custom_tool1\WObj:=WObj0;
WaitTime 1.5;
SetDO Stavbar_Gripper_close, 0;
SetDO Stavbar_Gripper_open, 1;
WaitTime 1;
SetDO Stavbar_Gripper_open, 0;
MoveL [[574.6,75.13,112.5],[0,0.740125,0.672469,0],[0,-1,-1,0],[0,9E9,9E9,9E9,9E9,9E9]],v150,z20,custom_tool1\WObj:=WObj0;
MoveJ [[424.57,176.97,315.36],[0.320717,-0.233457,0.914293,-0.081892],[0,-1,-1,0],[0,9E9,9E9,9E9,9E9,9E9]],v150,z20,custom_tool1\WObj:=WObj0;
MoveJ [[25,450,138.8],[-0.174713,0.907209,0.375778,0.072368],[0,-1,-1,0],[0,9E9,9E9,9E9,9E9,9E9]],v150,z20,custom_tool1\WObj:=WObj0;
MoveL [[25,550,38.8],[-0.174713,0.907209,0.375778,0.072368],[0,-1,-1,0],[0,9E9,9E9,9E9,9E9,9E9]],v150,z20,custom_tool1\WObj:=WObj0;
IF TestDI(Stavbar_opt) THEN
WaitDI Stavbar_opt, 0;
ENDIF
WaitTime 1.5;
SetDO Stavbar_Gripper_open, 0;
SetDO Stavbar_Gripper_close, 1;
WaitTime 1;
MoveL [[25,450,138.8],[-0.174713,0.907209,0.375778,0.072368],[0,-1,-1,0],[0,9E9,9E9,9E9,9E9,9E9]],v150,z20,custom_tool1\WObj:=WObj0;
MoveJ [[424.57,176.97,315.36],[0.320717,-0.233457,0.914293,-0.081892],[0,-1,-1,0],[0,9E9,9E9,9E9,9E9,9E9]],v150,z20,custom_tool1\WObj:=WObj0;
MoveJ [[424.57,176.97,315.36],[0.320717,-0.233457,0.914293,-0.081892],[0,-1,-1,0],[0,9E9,9E9,9E9,9E9,9E9]],v150,z20,custom_tool1\WObj:=WObj0;
MoveJ [[606.56,-44.61,112.5],[0,0.95273,0.303819,0],[0,-1,-1,0],[0,9E9,9E9,9E9,9E9,9E9]],v150,z20,custom_tool1\WObj:=WObj0;
MoveL [[606.56,-44.61,12.5],[0,0.95273,0.303819,0],[0,-1,-1,0],[0,9E9,9E9,9E9,9E9,9E9]],v150,z20,custom_tool1\WObj:=WObj0;
WaitTime 1.5;
SetDO Stavbar_Gripper_close, 0;
SetDO Stavbar_Gripper_open, 1;
WaitTime 1;
SetDO Stavbar_Gripper_open, 0;
MoveL [[606.56,-44.61,112.5],[0,0.95273,0.303819,0],[0,-1,-1,0],[0,9E9,9E9,9E9,9E9,9E9]],v150,z20,custom_tool1\WObj:=WObj0;
MoveJ [[424.57,176.97,315.36],[0.320717,-0.233457,0.914293,-0.081892],[0,-1,-1,0],[0,9E9,9E9,9E9,9E9,9E9]],v150,z20,custom_tool1\WObj:=WObj0;
MoveJ [[424.57,176.97,315.36],[0.320717,-0.233457,0.914293,-0.081892],[0,-1,-1,0],[0,9E9,9E9,9E9,9E9,9E9]],v150,z20,custom_tool1\WObj:=WObj0;
MoveJ [[25,450,138.8],[-0.174713,0.907209,0.375778,0.072368],[0,-1,-1,0],[0,9E9,9E9,9E9,9E9,9E9]],v150,z20,custom_tool1\WObj:=WObj0;
MoveL [[25,550,38.8],[-0.174713,0.907209,0.375778,0.072368],[0,-1,-1,0],[0,9E9,9E9,9E9,9E9,9E9]],v150,z20,custom_tool1\WObj:=WObj0;
IF TestDI(Stavbar_opt) THEN
WaitDI Stavbar_opt, 0;
ENDIF
WaitTime 1.5;
SetDO Stavbar_Gripper_open, 0;
SetDO Stavbar_Gripper_close, 1;
WaitTime 1;
MoveL [[25,450,138.8],[-0.174713,0.907209,0.375778,0.072368],[0,-1,-1,0],[0,9E9,9E9,9E9,9E9,9E9]],v150,z20,custom_tool1\WObj:=WObj0;
MoveJ [[424.57,176.97,315.36],[0.320717,-0.233457,0.914293,-0.081892],[0,-1,-1,0],[0,9E9,9E9,9E9,9E9,9E9]],v150,z20,custom_tool1\WObj:=WObj0;
MoveJ [[424.57,176.97,315.36],[0.320717,-0.233457,0.914293,-0.081892],[0,-1,-1,0],[0,9E9,9E9,9E9,9E9,9E9]],v150,z20,custom_tool1\WObj:=WObj0;
MoveJ [[536.91,-147.11,112.5],[0,0.992792,-0.119853,0],[0,-1,-1,0],[0,9E9,9E9,9E9,9E9,9E9]],v150,z20,custom_tool1\WObj:=WObj0;
MoveL [[536.91,-147.11,12.5],[0,0.992792,-0.119853,0],[0,-1,-1,0],[0,9E9,9E9,9E9,9E9,9E9]],v150,z20,custom_tool1\WObj:=WObj0;
WaitTime 1.5;
SetDO Stavbar_Gripper_close, 0;
SetDO Stavbar_Gripper_open, 1;
WaitTime 1;
SetDO Stavbar_Gripper_open, 0;
MoveL [[536.91,-147.11,112.5],[0,0.992792,-0.119853,0],[0,-1,-1,0],[0,9E9,9E9,9E9,9E9,9E9]],v150,z20,custom_tool1\WObj:=WObj0;
MoveJ [[424.57,176.97,315.36],[0.320717,-0.233457,0.914293,-0.081892],[0,-1,-1,0],[0,9E9,9E9,9E9,9E9,9E9]],v150,z20,custom_tool1\WObj:=WObj0;
MoveJ [[424.57,176.97,315.36],[0.320717,-0.233457,0.914293,-0.081892],[0,-1,-1,0],[0,9E9,9E9,9E9,9E9,9E9]],v150,z20,custom_tool1\WObj:=WObj0;
MoveJ [[25,450,138.8],[-0.174713,0.907209,0.375778,0.072368],[0,-1,-1,0],[0,9E9,9E9,9E9,9E9,9E9]],v150,z20,custom_tool1\WObj:=WObj0;
MoveL [[25,550,38.8],[-0.174713,0.907209,0.375778,0.072368],[0,-1,-1,0],[0,9E9,9E9,9E9,9E9,9E9]],v150,z20,custom_tool1\WObj:=WObj0;
IF TestDI(Stavbar_opt) THEN
WaitDI Stavbar_opt, 0;
ENDIF
WaitTime 1.5;
SetDO Stavbar_Gripper_open, 0;
SetDO Stavbar_Gripper_close, 1;
WaitTime 1;
MoveL [[25,450,138.8],[-0.174713,0.907209,0.375778,0.072368],[0,-1,-1,0],[0,9E9,9E9,9E9,9E9,9E9]],v150,z20,custom_tool1\WObj:=WObj0;
MoveJ [[424.57,176.97,315.36],[0.320717,-0.233457,0.914293,-0.081892],[0,-1,-1,0],[0,9E9,9E9,9E9,9E9,9E9]],v150,z20,custom_tool1\WObj:=WObj0;
MoveJ [[424.57,176.97,315.36],[0.320717,-0.233457,0.914293,-0.081892],[0,-1,-1,0],[0,9E9,9E9,9E9,9E9,9E9]],v150,z20,custom_tool1\WObj:=WObj0;
MoveJ [[413.82,-161.49,112.5],[0,0.52182,0.853056,0],[0,-1,-1,0],[0,9E9,9E9,9E9,9E9,9E9]],v150,z20,custom_tool1\WObj:=WObj0;
MoveL [[413.82,-161.49,12.5],[0,0.52182,0.853056,0],[0,-1,-1,0],[0,9E9,9E9,9E9,9E9,9E9]],v150,z20,custom_tool1\WObj:=WObj0;
WaitTime 1.5;
SetDO Stavbar_Gripper_close, 0;
SetDO Stavbar_Gripper_open, 1;
WaitTime 1;
SetDO Stavbar_Gripper_open, 0;
MoveL [[413.82,-161.49,112.5],[0,0.52182,0.853056,0],[0,-1,-1,0],[0,9E9,9E9,9E9,9E9,9E9]],v150,z20,custom_tool1\WObj:=WObj0;
MoveJ [[424.57,176.97,315.36],[0.320717,-0.233457,0.914293,-0.081892],[0,-1,-1,0],[0,9E9,9E9,9E9,9E9,9E9]],v150,z20,custom_tool1\WObj:=WObj0;
MoveJ [[424.57,176.97,315.36],[0.320717,-0.233457,0.914293,-0.081892],[0,-1,-1,0],[0,9E9,9E9,9E9,9E9,9E9]],v150,z20,custom_tool1\WObj:=WObj0;
MoveJ [[25,450,138.8],[-0.174713,0.907209,0.375778,0.072368],[0,-1,-1,0],[0,9E9,9E9,9E9,9E9,9E9]],v150,z20,custom_tool1\WObj:=WObj0;
MoveL [[25,550,38.8],[-0.174713,0.907209,0.375778,0.072368],[0,-1,-1,0],[0,9E9,9E9,9E9,9E9,9E9]],v150,z20,custom_tool1\WObj:=WObj0;
IF TestDI(Stavbar_opt) THEN
WaitDI Stavbar_opt, 0;
ENDIF
WaitTime 1.5;
SetDO Stavbar_Gripper_open, 0;
SetDO Stavbar_Gripper_close, 1;
WaitTime 1;
MoveL [[25,450,138.8],[-0.174713,0.907209,0.375778,0.072368],[0,-1,-1,0],[0,9E9,9E9,9E9,9E9,9E9]],v150,z20,custom_tool1\WObj:=WObj0;
MoveJ [[424.57,176.97,315.36],[0.320717,-0.233457,0.914293,-0.081892],[0,-1,-1,0],[0,9E9,9E9,9E9,9E9,9E9]],v150,z20,custom_tool1\WObj:=WObj0;
MoveJ [[424.57,176.97,315.36],[0.320717,-0.233457,0.914293,-0.081892],[0,-1,-1,0],[0,9E9,9E9,9E9,9E9,9E9]],v150,z20,custom_tool1\WObj:=WObj0;
MoveJ [[322.42,-77.79,112.5],[0,0.829283,0.558829,0],[0,-1,-1,0],[0,9E9,9E9,9E9,9E9,9E9]],v150,z20,custom_tool1\WObj:=WObj0;
MoveL [[322.42,-77.79,12.5],[0,0.829283,0.558829,0],[0,-1,-1,0],[0,9E9,9E9,9E9,9E9,9E9]],v150,z20,custom_tool1\WObj:=WObj0;
WaitTime 1.5;
SetDO Stavbar_Gripper_close, 0;
SetDO Stavbar_Gripper_open, 1;
WaitTime 1;
SetDO Stavbar_Gripper_open, 0;
MoveL [[322.42,-77.79,112.5],[0,0.829283,0.558829,0],[0,-1,-1,0],[0,9E9,9E9,9E9,9E9,9E9]],v150,z20,custom_tool1\WObj:=WObj0;
MoveJ [[424.57,176.97,315.36],[0.320717,-0.233457,0.914293,-0.081892],[0,-1,-1,0],[0,9E9,9E9,9E9,9E9,9E9]],v150,z20,custom_tool1\WObj:=WObj0;
MoveJ [[424.57,176.97,315.36],[0.320717,-0.233457,0.914293,-0.081892],[0,-1,-1,0],[0,9E9,9E9,9E9,9E9,9E9]],v150,z20,custom_tool1\WObj:=WObj0;
MoveJ [[25,450,138.8],[-0.174713,0.907209,0.375778,0.072368],[0,-1,-1,0],[0,9E9,9E9,9E9,9E9,9E9]],v150,z20,custom_tool1\WObj:=WObj0;
MoveL [[25,550,38.8],[-0.174713,0.907209,0.375778,0.072368],[0,-1,-1,0],[0,9E9,9E9,9E9,9E9,9E9]],v150,z20,custom_tool1\WObj:=WObj0;
IF TestDI(Stavbar_opt) THEN
WaitDI Stavbar_opt, 0;
ENDIF
WaitTime 1.5;
SetDO Stavbar_Gripper_open, 0;
SetDO Stavbar_Gripper_close, 1;
WaitTime 1;
MoveL [[25,450,138.8],[-0.174713,0.907209,0.375778,0.072368],[0,-1,-1,0],[0,9E9,9E9,9E9,9E9,9E9]],v150,z20,custom_tool1\WObj:=WObj0;
MoveJ [[424.57,176.97,315.36],[0.320717,-0.233457,0.914293,-0.081892],[0,-1,-1,0],[0,9E9,9E9,9E9,9E9,9E9]],v150,z20,custom_tool1\WObj:=WObj0;
MoveJ [[325.93,46.08,112.5],[0,0.986561,0.163396,0],[0,-1,-1,0],[0,9E9,9E9,9E9,9E9,9E9]],v150,z20,custom_tool1\WObj:=WObj0;
MoveL [[325.93,46.08,12.5],[0,0.986561,0.163396,0],[0,-1,-1,0],[0,9E9,9E9,9E9,9E9,9E9]],v150,z20,custom_tool1\WObj:=WObj0;
WaitTime 1.5;
SetDO Stavbar_Gripper_close, 0;
SetDO Stavbar_Gripper_open, 1;
WaitTime 1;
SetDO Stavbar_Gripper_open, 0;
MoveL [[325.93,46.08,112.5],[0,0.986561,0.163396,0],[0,-1,-1,0],[0,9E9,9E9,9E9,9E9,9E9]],v150,z20,custom_tool1\WObj:=WObj0;
MoveJ [[424.57,176.97,315.36],[0.320717,-0.233457,0.914293,-0.081892],[0,-1,-1,0],[0,9E9,9E9,9E9,9E9,9E9]],v150,z20,custom_tool1\WObj:=WObj0;
MoveJ [[25,450,138.8],[-0.174713,0.907209,0.375778,0.072368],[0,-1,-1,0],[0,9E9,9E9,9E9,9E9,9E9]],v150,z20,custom_tool1\WObj:=WObj0;
MoveJ [[-63,450,138.8],[-0.174713,0.907209,0.375778,0.072368],[0,-1,-1,0],[0,9E9,9E9,9E9,9E9,9E9]],v150,z20,custom_tool1\WObj:=WObj0;
MoveL [[-63,550,38.8],[-0.174713,0.907209,0.375778,0.072368],[0,-1,-1,0],[0,9E9,9E9,9E9,9E9,9E9]],v150,z20,custom_tool1\WObj:=WObj0;
IF TestDI(Stavbar_opt) THEN
WaitDI Stavbar_opt, 0;
ENDIF
WaitTime 1.5;
SetDO Stavbar_Gripper_open, 0;
SetDO Stavbar_Gripper_close, 1;
WaitTime 1;
MoveL [[-63,450,138.8],[-0.174713,0.907209,0.375778,0.072368],[0,-1,-1,0],[0,9E9,9E9,9E9,9E9,9E9]],v150,z20,custom_tool1\WObj:=WObj0;
MoveJ [[25,450,138.8],[-0.174713,0.907209,0.375778,0.072368],[0,-1,-1,0],[0,9E9,9E9,9E9,9E9,9E9]],v150,z20,custom_tool1\WObj:=WObj0;
MoveJ [[424.57,176.97,315.36],[0.320717,-0.233457,0.914293,-0.081892],[0,-1,-1,0],[0,9E9,9E9,9E9,9E9,9E9]],v150,z20,custom_tool1\WObj:=WObj0;
MoveJ [[377.78,105.85,112.5],[0,0.998736,-0.050267,0],[0,-1,-1,0],[0,9E9,9E9,9E9,9E9,9E9]],v150,z20,custom_tool1\WObj:=WObj0;
MoveL [[377.78,105.85,12.5],[0,0.998736,-0.050267,0],[0,-1,-1,0],[0,9E9,9E9,9E9,9E9,9E9]],v150,z20,custom_tool1\WObj:=WObj0;
WaitTime 1.5;
SetDO Stavbar_Gripper_close, 0;
SetDO Stavbar_Gripper_open, 1;
WaitTime 1;
SetDO Stavbar_Gripper_open, 0;
MoveL [[377.78,105.85,112.5],[0,0.998736,-0.050267,0],[0,-1,-1,0],[0,9E9,9E9,9E9,9E9,9E9]],v150,z20,custom_tool1\WObj:=WObj0;
MoveJ [[424.57,176.97,315.36],[0.320717,-0.233457,0.914293,-0.081892],[0,-1,-1,0],[0,9E9,9E9,9E9,9E9,9E9]],v150,z20,custom_tool1\WObj:=WObj0;
MoveJ [[25,450,138.8],[-0.174713,0.907209,0.375778,0.072368],[0,-1,-1,0],[0,9E9,9E9,9E9,9E9,9E9]],v150,z20,custom_tool1\WObj:=WObj0;
MoveJ [[-63,450,138.8],[-0.174713,0.907209,0.375778,0.072368],[0,-1,-1,0],[0,9E9,9E9,9E9,9E9,9E9]],v150,z20,custom_tool1\WObj:=WObj0;
MoveL [[-63,550,38.8],[-0.174713,0.907209,0.375778,0.072368],[0,-1,-1,0],[0,9E9,9E9,9E9,9E9,9E9]],v150,z20,custom_tool1\WObj:=WObj0;
IF TestDI(Stavbar_opt) THEN
WaitDI Stavbar_opt, 0;
ENDIF
WaitTime 1.5;
SetDO Stavbar_Gripper_open, 0;
SetDO Stavbar_Gripper_close, 1;
WaitTime 1;
MoveL [[-63,450,138.8],[-0.174713,0.907209,0.375778,0.072368],[0,-1,-1,0],[0,9E9,9E9,9E9,9E9,9E9]],v150,z20,custom_tool1\WObj:=WObj0;
MoveJ [[25,450,138.8],[-0.174713,0.907209,0.375778,0.072368],[0,-1,-1,0],[0,9E9,9E9,9E9,9E9,9E9]],v150,z20,custom_tool1\WObj:=WObj0;
MoveJ [[424.57,176.97,315.36],[0.320717,-0.233457,0.914293,-0.081892],[0,-1,-1,0],[0,9E9,9E9,9E9,9E9,9E9]],v150,z20,custom_tool1\WObj:=WObj0;
MoveJ [[447.14,129.66,135.5],[0,0.393482,0.919332,0],[0,-1,-1,0],[0,9E9,9E9,9E9,9E9,9E9]],v150,z20,custom_tool1\WObj:=WObj0;
MoveL [[447.14,129.66,35.5],[0,0.393482,0.919332,0],[0,-1,-1,0],[0,9E9,9E9,9E9,9E9,9E9]],v150,z20,custom_tool1\WObj:=WObj0;
WaitTime 1.5;
SetDO Stavbar_Gripper_close, 0;
SetDO Stavbar_Gripper_open, 1;
WaitTime 1;
SetDO Stavbar_Gripper_open, 0;
MoveL [[447.14,129.66,135.5],[0,0.393482,0.919332,0],[0,-1,-1,0],[0,9E9,9E9,9E9,9E9,9E9]],v150,z20,custom_tool1\WObj:=WObj0;
MoveJ [[424.57,176.97,315.36],[0.320717,-0.233457,0.914293,-0.081892],[0,-1,-1,0],[0,9E9,9E9,9E9,9E9,9E9]],v150,z20,custom_tool1\WObj:=WObj0;
MoveJ [[25,450,138.8],[-0.174713,0.907209,0.375778,0.072368],[0,-1,-1,0],[0,9E9,9E9,9E9,9E9,9E9]],v150,z20,custom_tool1\WObj:=WObj0;
MoveL [[25,550,38.8],[-0.174713,0.907209,0.375778,0.072368],[0,-1,-1,0],[0,9E9,9E9,9E9,9E9,9E9]],v150,z20,custom_tool1\WObj:=WObj0;
IF TestDI(Stavbar_opt) THEN
WaitDI Stavbar_opt, 0;
ENDIF
WaitTime 1.5;
SetDO Stavbar_Gripper_open, 0;
SetDO Stavbar_Gripper_close, 1;
WaitTime 1;
MoveL [[25,450,138.8],[-0.174713,0.907209,0.375778,0.072368],[0,-1,-1,0],[0,9E9,9E9,9E9,9E9,9E9]],v150,z20,custom_tool1\WObj:=WObj0;
MoveJ [[424.57,176.97,315.36],[0.320717,-0.233457,0.914293,-0.081892],[0,-1,-1,0],[0,9E9,9E9,9E9,9E9,9E9]],v150,z20,custom_tool1\WObj:=WObj0;
MoveJ [[524.77,114.34,135.5],[0,0.580087,0.814554,0],[0,-1,-1,0],[0,9E9,9E9,9E9,9E9,9E9]],v150,z20,custom_tool1\WObj:=WObj0;
MoveL [[524.77,114.34,35.5],[0,0.580087,0.814554,0],[0,-1,-1,0],[0,9E9,9E9,9E9,9E9,9E9]],v150,z20,custom_tool1\WObj:=WObj0;
WaitTime 1.5;
SetDO Stavbar_Gripper_close, 0;
SetDO Stavbar_Gripper_open, 1;
WaitTime 1;
SetDO Stavbar_Gripper_open, 0;
MoveL [[524.77,114.34,135.5],[0,0.580087,0.814554,0],[0,-1,-1,0],[0,9E9,9E9,9E9,9E9,9E9]],v150,z20,custom_tool1\WObj:=WObj0;
MoveJ [[424.57,176.97,315.36],[0.320717,-0.233457,0.914293,-0.081892],[0,-1,-1,0],[0,9E9,9E9,9E9,9E9,9E9]],v150,z20,custom_tool1\WObj:=WObj0;
MoveJ [[25,450,138.8],[-0.174713,0.907209,0.375778,0.072368],[0,-1,-1,0],[0,9E9,9E9,9E9,9E9,9E9]],v150,z20,custom_tool1\WObj:=WObj0;
MoveL [[25,550,38.8],[-0.174713,0.907209,0.375778,0.072368],[0,-1,-1,0],[0,9E9,9E9,9E9,9E9,9E9]],v150,z20,custom_tool1\WObj:=WObj0;
IF TestDI(Stavbar_opt) THEN
WaitDI Stavbar_opt, 0;
ENDIF
WaitTime 1.5;
SetDO Stavbar_Gripper_open, 0;
SetDO Stavbar_Gripper_close, 1;
WaitTime 1;
MoveL [[25,450,138.8],[-0.174713,0.907209,0.375778,0.072368],[0,-1,-1,0],[0,9E9,9E9,9E9,9E9,9E9]],v150,z20,custom_tool1\WObj:=WObj0;
MoveJ [[424.57,176.97,315.36],[0.320717,-0.233457,0.914293,-0.081892],[0,-1,-1,0],[0,9E9,9E9,9E9,9E9,9E9]],v150,z20,custom_tool1\WObj:=WObj0;
MoveJ [[603.62,18.74,135.5],[0,0.866265,0.499585,0],[0,-1,-1,0],[0,9E9,9E9,9E9,9E9,9E9]],v150,z20,custom_tool1\WObj:=WObj0;
MoveL [[603.62,18.74,35.5],[0,0.866265,0.499585,0],[0,-1,-1,0],[0,9E9,9E9,9E9,9E9,9E9]],v150,z20,custom_tool1\WObj:=WObj0;
WaitTime 1.5;
SetDO Stavbar_Gripper_close, 0;
SetDO Stavbar_Gripper_open, 1;
WaitTime 1;
SetDO Stavbar_Gripper_open, 0;
MoveL [[603.62,18.74,135.5],[0,0.866265,0.499585,0],[0,-1,-1,0],[0,9E9,9E9,9E9,9E9,9E9]],v150,z20,custom_tool1\WObj:=WObj0;
MoveJ [[424.57,176.97,315.36],[0.320717,-0.233457,0.914293,-0.081892],[0,-1,-1,0],[0,9E9,9E9,9E9,9E9,9E9]],v150,z20,custom_tool1\WObj:=WObj0;
MoveJ [[25,450,138.8],[-0.174713,0.907209,0.375778,0.072368],[0,-1,-1,0],[0,9E9,9E9,9E9,9E9,9E9]],v150,z20,custom_tool1\WObj:=WObj0;
MoveL [[25,550,38.8],[-0.174713,0.907209,0.375778,0.072368],[0,-1,-1,0],[0,9E9,9E9,9E9,9E9,9E9]],v150,z20,custom_tool1\WObj:=WObj0;
IF TestDI(Stavbar_opt) THEN
WaitDI Stavbar_opt, 0;
ENDIF
WaitTime 1.5;
SetDO Stavbar_Gripper_open, 0;
SetDO Stavbar_Gripper_close, 1;
WaitTime 1;
MoveL [[25,450,138.8],[-0.174713,0.907209,0.375778,0.072368],[0,-1,-1,0],[0,9E9,9E9,9E9,9E9,9E9]],v150,z20,custom_tool1\WObj:=WObj0;
MoveJ [[424.57,176.97,315.36],[0.320717,-0.233457,0.914293,-0.081892],[0,-1,-1,0],[0,9E9,9E9,9E9,9E9,9E9]],v150,z20,custom_tool1\WObj:=WObj0;
MoveJ [[424.57,176.97,315.36],[0.320717,-0.233457,0.914293,-0.081892],[0,-1,-1,0],[0,9E9,9E9,9E9,9E9,9E9]],v150,z20,custom_tool1\WObj:=WObj0;
MoveJ [[582.9,-103.44,135.5],[0,0.995559,0.094139,0],[0,-1,-1,0],[0,9E9,9E9,9E9,9E9,9E9]],v150,z20,custom_tool1\WObj:=WObj0;
MoveL [[582.9,-103.44,35.5],[0,0.995559,0.094139,0],[0,-1,-1,0],[0,9E9,9E9,9E9,9E9,9E9]],v150,z20,custom_tool1\WObj:=WObj0;
WaitTime 1.5;
SetDO Stavbar_Gripper_close, 0;
SetDO Stavbar_Gripper_open, 1;
WaitTime 1;
SetDO Stavbar_Gripper_open, 0;
MoveL [[582.9,-103.44,135.5],[0,0.995559,0.094139,0],[0,-1,-1,0],[0,9E9,9E9,9E9,9E9,9E9]],v150,z20,custom_tool1\WObj:=WObj0;
MoveJ [[424.57,176.97,315.36],[0.320717,-0.233457,0.914293,-0.081892],[0,-1,-1,0],[0,9E9,9E9,9E9,9E9,9E9]],v150,z20,custom_tool1\WObj:=WObj0;
MoveJ [[424.57,176.97,315.36],[0.320717,-0.233457,0.914293,-0.081892],[0,-1,-1,0],[0,9E9,9E9,9E9,9E9,9E9]],v150,z20,custom_tool1\WObj:=WObj0;
MoveJ [[25,450,138.8],[-0.174713,0.907209,0.375778,0.072368],[0,-1,-1,0],[0,9E9,9E9,9E9,9E9,9E9]],v150,z20,custom_tool1\WObj:=WObj0;
MoveL [[25,550,38.8],[-0.174713,0.907209,0.375778,0.072368],[0,-1,-1,0],[0,9E9,9E9,9E9,9E9,9E9]],v150,z20,custom_tool1\WObj:=WObj0;
IF TestDI(Stavbar_opt) THEN
WaitDI Stavbar_opt, 0;
ENDIF
WaitTime 1.5;
SetDO Stavbar_Gripper_open, 0;
SetDO Stavbar_Gripper_close, 1;
WaitTime 1;
MoveL [[25,450,138.8],[-0.174713,0.907209,0.375778,0.072368],[0,-1,-1,0],[0,9E9,9E9,9E9,9E9,9E9]],v150,z20,custom_tool1\WObj:=WObj0;
MoveJ [[424.57,176.97,315.36],[0.320717,-0.233457,0.914293,-0.081892],[0,-1,-1,0],[0,9E9,9E9,9E9,9E9,9E9]],v150,z20,custom_tool1\WObj:=WObj0;
MoveJ [[424.57,176.97,315.36],[0.320717,-0.233457,0.914293,-0.081892],[0,-1,-1,0],[0,9E9,9E9,9E9,9E9,9E9]],v150,z20,custom_tool1\WObj:=WObj0;
MoveJ [[476.93,-167.7,135.5],[0,0.944554,-0.328356,0],[0,-1,-1,0],[0,9E9,9E9,9E9,9E9,9E9]],v150,z20,custom_tool1\WObj:=WObj0;
MoveL [[476.93,-167.7,35.5],[0,0.944554,-0.328356,0],[0,-1,-1,0],[0,9E9,9E9,9E9,9E9,9E9]],v150,z20,custom_tool1\WObj:=WObj0;
WaitTime 1.5;
SetDO Stavbar_Gripper_close, 0;
SetDO Stavbar_Gripper_open, 1;
WaitTime 1;
SetDO Stavbar_Gripper_open, 0;
MoveL [[476.93,-167.7,135.5],[0,0.944554,-0.328356,0],[0,-1,-1,0],[0,9E9,9E9,9E9,9E9,9E9]],v150,z20,custom_tool1\WObj:=WObj0;
MoveJ [[424.57,176.97,315.36],[0.320717,-0.233457,0.914293,-0.081892],[0,-1,-1,0],[0,9E9,9E9,9E9,9E9,9E9]],v150,z20,custom_tool1\WObj:=WObj0;
MoveJ [[424.57,176.97,315.36],[0.320717,-0.233457,0.914293,-0.081892],[0,-1,-1,0],[0,9E9,9E9,9E9,9E9,9E9]],v150,z20,custom_tool1\WObj:=WObj0;
MoveJ [[25,450,138.8],[-0.174713,0.907209,0.375778,0.072368],[0,-1,-1,0],[0,9E9,9E9,9E9,9E9,9E9]],v150,z20,custom_tool1\WObj:=WObj0;
MoveL [[25,550,38.8],[-0.174713,0.907209,0.375778,0.072368],[0,-1,-1,0],[0,9E9,9E9,9E9,9E9,9E9]],v150,z20,custom_tool1\WObj:=WObj0;
IF TestDI(Stavbar_opt) THEN
WaitDI Stavbar_opt, 0;
ENDIF
WaitTime 1.5;
SetDO Stavbar_Gripper_open, 0;
SetDO Stavbar_Gripper_close, 1;
WaitTime 1;
MoveL [[25,450,138.8],[-0.174713,0.907209,0.375778,0.072368],[0,-1,-1,0],[0,9E9,9E9,9E9,9E9,9E9]],v150,z20,custom_tool1\WObj:=WObj0;
MoveJ [[424.57,176.97,315.36],[0.320717,-0.233457,0.914293,-0.081892],[0,-1,-1,0],[0,9E9,9E9,9E9,9E9,9E9]],v150,z20,custom_tool1\WObj:=WObj0;
MoveJ [[424.57,176.97,315.36],[0.320717,-0.233457,0.914293,-0.081892],[0,-1,-1,0],[0,9E9,9E9,9E9,9E9,9E9]],v150,z20,custom_tool1\WObj:=WObj0;
MoveJ [[359.01,-129.59,135.5],[0,0.691384,0.722487,0],[0,-1,-1,0],[0,9E9,9E9,9E9,9E9,9E9]],v150,z20,custom_tool1\WObj:=WObj0;
MoveL [[359.01,-129.59,35.5],[0,0.691384,0.722487,0],[0,-1,-1,0],[0,9E9,9E9,9E9,9E9,9E9]],v150,z20,custom_tool1\WObj:=WObj0;
WaitTime 1.5;
SetDO Stavbar_Gripper_close, 0;
SetDO Stavbar_Gripper_open, 1;
WaitTime 1;
SetDO Stavbar_Gripper_open, 0;
MoveL [[359.01,-129.59,135.5],[0,0.691384,0.722487,0],[0,-1,-1,0],[0,9E9,9E9,9E9,9E9,9E9]],v150,z20,custom_tool1\WObj:=WObj0;
MoveJ [[424.57,176.97,315.36],[0.320717,-0.233457,0.914293,-0.081892],[0,-1,-1,0],[0,9E9,9E9,9E9,9E9,9E9]],v150,z20,custom_tool1\WObj:=WObj0;
MoveJ [[424.57,176.97,315.36],[0.320717,-0.233457,0.914293,-0.081892],[0,-1,-1,0],[0,9E9,9E9,9E9,9E9,9E9]],v150,z20,custom_tool1\WObj:=WObj0;
MoveJ [[25,450,138.8],[-0.174713,0.907209,0.375778,0.072368],[0,-1,-1,0],[0,9E9,9E9,9E9,9E9,9E9]],v150,z20,custom_tool1\WObj:=WObj0;
MoveL [[25,550,38.8],[-0.174713,0.907209,0.375778,0.072368],[0,-1,-1,0],[0,9E9,9E9,9E9,9E9,9E9]],v150,z20,custom_tool1\WObj:=WObj0;
IF TestDI(Stavbar_opt) THEN
WaitDI Stavbar_opt, 0;
ENDIF
WaitTime 1.5;
SetDO Stavbar_Gripper_open, 0;
SetDO Stavbar_Gripper_close, 1;
WaitTime 1;
MoveL [[25,450,138.8],[-0.174713,0.907209,0.375778,0.072368],[0,-1,-1,0],[0,9E9,9E9,9E9,9E9,9E9]],v150,z20,custom_tool1\WObj:=WObj0;
MoveJ [[424.57,176.97,315.36],[0.320717,-0.233457,0.914293,-0.081892],[0,-1,-1,0],[0,9E9,9E9,9E9,9E9,9E9]],v150,z20,custom_tool1\WObj:=WObj0;
MoveJ [[424.57,176.97,315.36],[0.320717,-0.233457,0.914293,-0.081892],[0,-1,-1,0],[0,9E9,9E9,9E9,9E9,9E9]],v150,z20,custom_tool1\WObj:=WObj0;
MoveJ [[310.69,-15.47,135.5],[0,0.929201,0.369576,0],[0,-1,-1,0],[0,9E9,9E9,9E9,9E9,9E9]],v150,z20,custom_tool1\WObj:=WObj0;
MoveL [[310.69,-15.47,35.5],[0,0.929201,0.369576,0],[0,-1,-1,0],[0,9E9,9E9,9E9,9E9,9E9]],v150,z20,custom_tool1\WObj:=WObj0;
WaitTime 1.5;
SetDO Stavbar_Gripper_close, 0;
SetDO Stavbar_Gripper_open, 1;
WaitTime 1;
SetDO Stavbar_Gripper_open, 0;
MoveL [[310.69,-15.47,135.5],[0,0.929201,0.369576,0],[0,-1,-1,0],[0,9E9,9E9,9E9,9E9,9E9]],v150,z20,custom_tool1\WObj:=WObj0;
MoveJ [[424.57,176.97,315.36],[0.320717,-0.233457,0.914293,-0.081892],[0,-1,-1,0],[0,9E9,9E9,9E9,9E9,9E9]],v150,z20,custom_tool1\WObj:=WObj0;
MoveJ [[424.57,176.97,315.36],[0.320717,-0.233457,0.914293,-0.081892],[0,-1,-1,0],[0,9E9,9E9,9E9,9E9,9E9]],v150,z20,custom_tool1\WObj:=WObj0;
MoveJ [[25,450,138.8],[-0.174713,0.907209,0.375778,0.072368],[0,-1,-1,0],[0,9E9,9E9,9E9,9E9,9E9]],v150,z20,custom_tool1\WObj:=WObj0;
MoveL [[25,550,38.8],[-0.174713,0.907209,0.375778,0.072368],[0,-1,-1,0],[0,9E9,9E9,9E9,9E9,9E9]],v150,z20,custom_tool1\WObj:=WObj0;
IF TestDI(Stavbar_opt) THEN
WaitDI Stavbar_opt, 0;
ENDIF
WaitTime 1.5;
SetDO Stavbar_Gripper_open, 0;
SetDO Stavbar_Gripper_close, 1;
WaitTime 1;
MoveL [[25,450,138.8],[-0.174713,0.907209,0.375778,0.072368],[0,-1,-1,0],[0,9E9,9E9,9E9,9E9,9E9]],v150,z20,custom_tool1\WObj:=WObj0;
MoveJ [[424.57,176.97,315.36],[0.320717,-0.233457,0.914293,-0.081892],[0,-1,-1,0],[0,9E9,9E9,9E9,9E9,9E9]],v150,z20,custom_tool1\WObj:=WObj0;
MoveJ [[365.39,95.73,135.5],[0,0.998736,-0.050267,0],[0,-1,-1,0],[0,9E9,9E9,9E9,9E9,9E9]],v150,z20,custom_tool1\WObj:=WObj0;
MoveL [[365.39,95.73,35.5],[0,0.998736,-0.050267,0],[0,-1,-1,0],[0,9E9,9E9,9E9,9E9,9E9]],v150,z20,custom_tool1\WObj:=WObj0;
WaitTime 1.5;
SetDO Stavbar_Gripper_close, 0;
SetDO Stavbar_Gripper_open, 1;
WaitTime 1;
SetDO Stavbar_Gripper_open, 0;
MoveL [[365.39,95.73,135.5],[0,0.998736,-0.050267,0],[0,-1,-1,0],[0,9E9,9E9,9E9,9E9,9E9]],v150,z20,custom_tool1\WObj:=WObj0;
MoveJ [[424.57,176.97,315.36],[0.320717,-0.233457,0.914293,-0.081892],[0,-1,-1,0],[0,9E9,9E9,9E9,9E9,9E9]],v150,z20,custom_tool1\WObj:=WObj0;
MoveJ [[25,450,138.8],[-0.174713,0.907209,0.375778,0.072368],[0,-1,-1,0],[0,9E9,9E9,9E9,9E9,9E9]],v150,z20,custom_tool1\WObj:=WObj0;
MoveL [[25,550,38.8],[-0.174713,0.907209,0.375778,0.072368],[0,-1,-1,0],[0,9E9,9E9,9E9,9E9,9E9]],v150,z20,custom_tool1\WObj:=WObj0;
IF TestDI(Stavbar_opt) THEN
WaitDI Stavbar_opt, 0;
ENDIF
WaitTime 1.5;
SetDO Stavbar_Gripper_open, 0;
SetDO Stavbar_Gripper_close, 1;
WaitTime 1;
MoveL [[25,450,138.8],[-0.174713,0.907209,0.375778,0.072368],[0,-1,-1,0],[0,9E9,9E9,9E9,9E9,9E9]],v150,z20,custom_tool1\WObj:=WObj0;
MoveJ [[424.57,176.97,315.36],[0.320717,-0.233457,0.914293,-0.081892],[0,-1,-1,0],[0,9E9,9E9,9E9,9E9,9E9]],v150,z20,custom_tool1\WObj:=WObj0;
MoveJ [[463.14,129.29,158.5],[0,0.393482,0.919332,0],[0,-1,-1,0],[0,9E9,9E9,9E9,9E9,9E9]],v150,z20,custom_tool1\WObj:=WObj0;
MoveL [[463.14,129.29,58.5],[0,0.393482,0.919332,0],[0,-1,-1,0],[0,9E9,9E9,9E9,9E9,9E9]],v150,z20,custom_tool1\WObj:=WObj0;
WaitTime 1.5;
SetDO Stavbar_Gripper_close, 0;
SetDO Stavbar_Gripper_open, 1;
WaitTime 1;
SetDO Stavbar_Gripper_open, 0;
MoveL [[463.14,129.29,158.5],[0,0.393482,0.919332,0],[0,-1,-1,0],[0,9E9,9E9,9E9,9E9,9E9]],v150,z20,custom_tool1\WObj:=WObj0;
MoveJ [[424.57,176.97,315.36],[0.320717,-0.233457,0.914293,-0.081892],[0,-1,-1,0],[0,9E9,9E9,9E9,9E9,9E9]],v150,z20,custom_tool1\WObj:=WObj0;
MoveJ [[25,450,138.8],[-0.174713,0.907209,0.375778,0.072368],[0,-1,-1,0],[0,9E9,9E9,9E9,9E9,9E9]],v150,z20,custom_tool1\WObj:=WObj0;
MoveL [[25,550,38.8],[-0.174713,0.907209,0.375778,0.072368],[0,-1,-1,0],[0,9E9,9E9,9E9,9E9,9E9]],v150,z20,custom_tool1\WObj:=WObj0;
IF TestDI(Stavbar_opt) THEN
WaitDI Stavbar_opt, 0;
ENDIF
WaitTime 1.5;
SetDO Stavbar_Gripper_open, 0;
SetDO Stavbar_Gripper_close, 1;
WaitTime 1;
MoveL [[25,450,138.8],[-0.174713,0.907209,0.375778,0.072368],[0,-1,-1,0],[0,9E9,9E9,9E9,9E9,9E9]],v150,z20,custom_tool1\WObj:=WObj0;
MoveJ [[424.57,176.97,315.36],[0.320717,-0.233457,0.914293,-0.081892],[0,-1,-1,0],[0,9E9,9E9,9E9,9E9,9E9]],v150,z20,custom_tool1\WObj:=WObj0;
MoveJ [[574.6,75.13,158.5],[0,0.740125,0.672469,0],[0,-1,-1,0],[0,9E9,9E9,9E9,9E9,9E9]],v150,z20,custom_tool1\WObj:=WObj0;
MoveL [[574.6,75.13,58.5],[0,0.740125,0.672469,0],[0,-1,-1,0],[0,9E9,9E9,9E9,9E9,9E9]],v150,z20,custom_tool1\WObj:=WObj0;
WaitTime 1.5;
SetDO Stavbar_Gripper_close, 0;
SetDO Stavbar_Gripper_open, 1;
WaitTime 1;
SetDO Stavbar_Gripper_open, 0;
MoveL [[574.6,75.13,158.5],[0,0.740125,0.672469,0],[0,-1,-1,0],[0,9E9,9E9,9E9,9E9,9E9]],v150,z20,custom_tool1\WObj:=WObj0;
MoveJ [[424.57,176.97,315.36],[0.320717,-0.233457,0.914293,-0.081892],[0,-1,-1,0],[0,9E9,9E9,9E9,9E9,9E9]],v150,z20,custom_tool1\WObj:=WObj0;
MoveJ [[25,450,138.8],[-0.174713,0.907209,0.375778,0.072368],[0,-1,-1,0],[0,9E9,9E9,9E9,9E9,9E9]],v150,z20,custom_tool1\WObj:=WObj0;
MoveL [[25,550,38.8],[-0.174713,0.907209,0.375778,0.072368],[0,-1,-1,0],[0,9E9,9E9,9E9,9E9,9E9]],v150,z20,custom_tool1\WObj:=WObj0;
IF TestDI(Stavbar_opt) THEN
WaitDI Stavbar_opt, 0;
ENDIF
WaitTime 1.5;
SetDO Stavbar_Gripper_open, 0;
SetDO Stavbar_Gripper_close, 1;
WaitTime 1;
MoveL [[25,450,138.8],[-0.174713,0.907209,0.375778,0.072368],[0,-1,-1,0],[0,9E9,9E9,9E9,9E9,9E9]],v150,z20,custom_tool1\WObj:=WObj0;
MoveJ [[424.57,176.97,315.36],[0.320717,-0.233457,0.914293,-0.081892],[0,-1,-1,0],[0,9E9,9E9,9E9,9E9,9E9]],v150,z20,custom_tool1\WObj:=WObj0;
MoveJ [[424.57,176.97,315.36],[0.320717,-0.233457,0.914293,-0.081892],[0,-1,-1,0],[0,9E9,9E9,9E9,9E9,9E9]],v150,z20,custom_tool1\WObj:=WObj0;
MoveJ [[606.56,-44.61,158.5],[0,0.95273,0.303819,0],[0,-1,-1,0],[0,9E9,9E9,9E9,9E9,9E9]],v150,z20,custom_tool1\WObj:=WObj0;
MoveL [[606.56,-44.61,58.5],[0,0.95273,0.303819,0],[0,-1,-1,0],[0,9E9,9E9,9E9,9E9,9E9]],v150,z20,custom_tool1\WObj:=WObj0;
WaitTime 1.5;
SetDO Stavbar_Gripper_close, 0;
SetDO Stavbar_Gripper_open, 1;
WaitTime 1;
SetDO Stavbar_Gripper_open, 0;
MoveL [[606.56,-44.61,158.5],[0,0.95273,0.303819,0],[0,-1,-1,0],[0,9E9,9E9,9E9,9E9,9E9]],v150,z20,custom_tool1\WObj:=WObj0;
MoveJ [[424.57,176.97,315.36],[0.320717,-0.233457,0.914293,-0.081892],[0,-1,-1,0],[0,9E9,9E9,9E9,9E9,9E9]],v150,z20,custom_tool1\WObj:=WObj0;
MoveJ [[424.57,176.97,315.36],[0.320717,-0.233457,0.914293,-0.081892],[0,-1,-1,0],[0,9E9,9E9,9E9,9E9,9E9]],v150,z20,custom_tool1\WObj:=WObj0;
MoveJ [[25,450,138.8],[-0.174713,0.907209,0.375778,0.072368],[0,-1,-1,0],[0,9E9,9E9,9E9,9E9,9E9]],v150,z20,custom_tool1\WObj:=WObj0;
MoveL [[25,550,38.8],[-0.174713,0.907209,0.375778,0.072368],[0,-1,-1,0],[0,9E9,9E9,9E9,9E9,9E9]],v150,z20,custom_tool1\WObj:=WObj0;
IF TestDI(Stavbar_opt) THEN
WaitDI Stavbar_opt, 0;
ENDIF
WaitTime 1.5;
SetDO Stavbar_Gripper_open, 0;
SetDO Stavbar_Gripper_close, 1;
WaitTime 1;
MoveL [[25,450,138.8],[-0.174713,0.907209,0.375778,0.072368],[0,-1,-1,0],[0,9E9,9E9,9E9,9E9,9E9]],v150,z20,custom_tool1\WObj:=WObj0;
MoveJ [[424.57,176.97,315.36],[0.320717,-0.233457,0.914293,-0.081892],[0,-1,-1,0],[0,9E9,9E9,9E9,9E9,9E9]],v150,z20,custom_tool1\WObj:=WObj0;
MoveJ [[424.57,176.97,315.36],[0.320717,-0.233457,0.914293,-0.081892],[0,-1,-1,0],[0,9E9,9E9,9E9,9E9,9E9]],v150,z20,custom_tool1\WObj:=WObj0;
MoveJ [[536.91,-147.11,158.5],[0,0.992792,-0.119853,0],[0,-1,-1,0],[0,9E9,9E9,9E9,9E9,9E9]],v150,z20,custom_tool1\WObj:=WObj0;
MoveL [[536.91,-147.11,58.5],[0,0.992792,-0.119853,0],[0,-1,-1,0],[0,9E9,9E9,9E9,9E9,9E9]],v150,z20,custom_tool1\WObj:=WObj0;
WaitTime 1.5;
SetDO Stavbar_Gripper_close, 0;
SetDO Stavbar_Gripper_open, 1;
WaitTime 1;
SetDO Stavbar_Gripper_open, 0;
MoveL [[536.91,-147.11,158.5],[0,0.992792,-0.119853,0],[0,-1,-1,0],[0,9E9,9E9,9E9,9E9,9E9]],v150,z20,custom_tool1\WObj:=WObj0;
MoveJ [[424.57,176.97,315.36],[0.320717,-0.233457,0.914293,-0.081892],[0,-1,-1,0],[0,9E9,9E9,9E9,9E9,9E9]],v150,z20,custom_tool1\WObj:=WObj0;
MoveJ [[424.57,176.97,315.36],[0.320717,-0.233457,0.914293,-0.081892],[0,-1,-1,0],[0,9E9,9E9,9E9,9E9,9E9]],v150,z20,custom_tool1\WObj:=WObj0;
MoveJ [[25,450,138.8],[-0.174713,0.907209,0.375778,0.072368],[0,-1,-1,0],[0,9E9,9E9,9E9,9E9,9E9]],v150,z20,custom_tool1\WObj:=WObj0;
MoveL [[25,550,38.8],[-0.174713,0.907209,0.375778,0.072368],[0,-1,-1,0],[0,9E9,9E9,9E9,9E9,9E9]],v150,z20,custom_tool1\WObj:=WObj0;
IF TestDI(Stavbar_opt) THEN
WaitDI Stavbar_opt, 0;
ENDIF
WaitTime 1.5;
SetDO Stavbar_Gripper_open, 0;
SetDO Stavbar_Gripper_close, 1;
WaitTime 1;
MoveL [[25,450,138.8],[-0.174713,0.907209,0.375778,0.072368],[0,-1,-1,0],[0,9E9,9E9,9E9,9E9,9E9]],v150,z20,custom_tool1\WObj:=WObj0;
MoveJ [[424.57,176.97,315.36],[0.320717,-0.233457,0.914293,-0.081892],[0,-1,-1,0],[0,9E9,9E9,9E9,9E9,9E9]],v150,z20,custom_tool1\WObj:=WObj0;
MoveJ [[424.57,176.97,315.36],[0.320717,-0.233457,0.914293,-0.081892],[0,-1,-1,0],[0,9E9,9E9,9E9,9E9,9E9]],v150,z20,custom_tool1\WObj:=WObj0;
MoveJ [[413.82,-161.49,158.5],[0,0.52182,0.853056,0],[0,-1,-1,0],[0,9E9,9E9,9E9,9E9,9E9]],v150,z20,custom_tool1\WObj:=WObj0;
MoveL [[413.82,-161.49,58.5],[0,0.52182,0.853056,0],[0,-1,-1,0],[0,9E9,9E9,9E9,9E9,9E9]],v150,z20,custom_tool1\WObj:=WObj0;
WaitTime 1.5;
SetDO Stavbar_Gripper_close, 0;
SetDO Stavbar_Gripper_open, 1;
WaitTime 1;
SetDO Stavbar_Gripper_open, 0;
MoveL [[413.82,-161.49,158.5],[0,0.52182,0.853056,0],[0,-1,-1,0],[0,9E9,9E9,9E9,9E9,9E9]],v150,z20,custom_tool1\WObj:=WObj0;
MoveJ [[424.57,176.97,315.36],[0.320717,-0.233457,0.914293,-0.081892],[0,-1,-1,0],[0,9E9,9E9,9E9,9E9,9E9]],v150,z20,custom_tool1\WObj:=WObj0;
MoveJ [[424.57,176.97,315.36],[0.320717,-0.233457,0.914293,-0.081892],[0,-1,-1,0],[0,9E9,9E9,9E9,9E9,9E9]],v150,z20,custom_tool1\WObj:=WObj0;
MoveJ [[25,450,138.8],[-0.174713,0.907209,0.375778,0.072368],[0,-1,-1,0],[0,9E9,9E9,9E9,9E9,9E9]],v150,z20,custom_tool1\WObj:=WObj0;
MoveL [[25,550,38.8],[-0.174713,0.907209,0.375778,0.072368],[0,-1,-1,0],[0,9E9,9E9,9E9,9E9,9E9]],v150,z20,custom_tool1\WObj:=WObj0;
IF TestDI(Stavbar_opt) THEN
WaitDI Stavbar_opt, 0;
ENDIF
WaitTime 1.5;
SetDO Stavbar_Gripper_open, 0;
SetDO Stavbar_Gripper_close, 1;
WaitTime 1;
MoveL [[25,450,138.8],[-0.174713,0.907209,0.375778,0.072368],[0,-1,-1,0],[0,9E9,9E9,9E9,9E9,9E9]],v150,z20,custom_tool1\WObj:=WObj0;
MoveJ [[424.57,176.97,315.36],[0.320717,-0.233457,0.914293,-0.081892],[0,-1,-1,0],[0,9E9,9E9,9E9,9E9,9E9]],v150,z20,custom_tool1\WObj:=WObj0;
MoveJ [[424.57,176.97,315.36],[0.320717,-0.233457,0.914293,-0.081892],[0,-1,-1,0],[0,9E9,9E9,9E9,9E9,9E9]],v150,z20,custom_tool1\WObj:=WObj0;
MoveJ [[322.42,-77.79,158.5],[0,0.829283,0.558829,0],[0,-1,-1,0],[0,9E9,9E9,9E9,9E9,9E9]],v150,z20,custom_tool1\WObj:=WObj0;
MoveL [[322.42,-77.79,58.5],[0,0.829283,0.558829,0],[0,-1,-1,0],[0,9E9,9E9,9E9,9E9,9E9]],v150,z20,custom_tool1\WObj:=WObj0;
WaitTime 1.5;
SetDO Stavbar_Gripper_close, 0;
SetDO Stavbar_Gripper_open, 1;
WaitTime 1;
SetDO Stavbar_Gripper_open, 0;
MoveL [[322.42,-77.79,158.5],[0,0.829283,0.558829,0],[0,-1,-1,0],[0,9E9,9E9,9E9,9E9,9E9]],v150,z20,custom_tool1\WObj:=WObj0;
MoveJ [[424.57,176.97,315.36],[0.320717,-0.233457,0.914293,-0.081892],[0,-1,-1,0],[0,9E9,9E9,9E9,9E9,9E9]],v150,z20,custom_tool1\WObj:=WObj0;
MoveJ [[424.57,176.97,315.36],[0.320717,-0.233457,0.914293,-0.081892],[0,-1,-1,0],[0,9E9,9E9,9E9,9E9,9E9]],v150,z20,custom_tool1\WObj:=WObj0;
MoveJ [[25,450,138.8],[-0.174713,0.907209,0.375778,0.072368],[0,-1,-1,0],[0,9E9,9E9,9E9,9E9,9E9]],v150,z20,custom_tool1\WObj:=WObj0;
MoveL [[25,550,38.8],[-0.174713,0.907209,0.375778,0.072368],[0,-1,-1,0],[0,9E9,9E9,9E9,9E9,9E9]],v150,z20,custom_tool1\WObj:=WObj0;
IF TestDI(Stavbar_opt) THEN
WaitDI Stavbar_opt, 0;
ENDIF
WaitTime 1.5;
SetDO Stavbar_Gripper_open, 0;
SetDO Stavbar_Gripper_close, 1;
WaitTime 1;
MoveL [[25,450,138.8],[-0.174713,0.907209,0.375778,0.072368],[0,-1,-1,0],[0,9E9,9E9,9E9,9E9,9E9]],v150,z20,custom_tool1\WObj:=WObj0;
MoveJ [[424.57,176.97,315.36],[0.320717,-0.233457,0.914293,-0.081892],[0,-1,-1,0],[0,9E9,9E9,9E9,9E9,9E9]],v150,z20,custom_tool1\WObj:=WObj0;
MoveJ [[325.93,46.08,158.5],[0,0.986561,0.163396,0],[0,-1,-1,0],[0,9E9,9E9,9E9,9E9,9E9]],v150,z20,custom_tool1\WObj:=WObj0;
MoveL [[325.93,46.08,58.5],[0,0.986561,0.163396,0],[0,-1,-1,0],[0,9E9,9E9,9E9,9E9,9E9]],v150,z20,custom_tool1\WObj:=WObj0;
WaitTime 1.5;
SetDO Stavbar_Gripper_close, 0;
SetDO Stavbar_Gripper_open, 1;
WaitTime 1;
SetDO Stavbar_Gripper_open, 0;
MoveL [[325.93,46.08,158.5],[0,0.986561,0.163396,0],[0,-1,-1,0],[0,9E9,9E9,9E9,9E9,9E9]],v150,z20,custom_tool1\WObj:=WObj0;
MoveJ [[424.57,176.97,315.36],[0.320717,-0.233457,0.914293,-0.081892],[0,-1,-1,0],[0,9E9,9E9,9E9,9E9,9E9]],v150,z20,custom_tool1\WObj:=WObj0;
MoveJ [[25,450,138.8],[-0.174713,0.907209,0.375778,0.072368],[0,-1,-1,0],[0,9E9,9E9,9E9,9E9,9E9]],v150,z20,custom_tool1\WObj:=WObj0;
MoveJ [[-63,450,138.8],[-0.174713,0.907209,0.375778,0.072368],[0,-1,-1,0],[0,9E9,9E9,9E9,9E9,9E9]],v150,z20,custom_tool1\WObj:=WObj0;
MoveL [[-63,550,38.8],[-0.174713,0.907209,0.375778,0.072368],[0,-1,-1,0],[0,9E9,9E9,9E9,9E9,9E9]],v150,z20,custom_tool1\WObj:=WObj0;
IF TestDI(Stavbar_opt) THEN
WaitDI Stavbar_opt, 0;
ENDIF
WaitTime 1.5;
SetDO Stavbar_Gripper_open, 0;
SetDO Stavbar_Gripper_close, 1;
WaitTime 1;
MoveL [[-63,450,138.8],[-0.174713,0.907209,0.375778,0.072368],[0,-1,-1,0],[0,9E9,9E9,9E9,9E9,9E9]],v150,z20,custom_tool1\WObj:=WObj0;
MoveJ [[25,450,138.8],[-0.174713,0.907209,0.375778,0.072368],[0,-1,-1,0],[0,9E9,9E9,9E9,9E9,9E9]],v150,z20,custom_tool1\WObj:=WObj0;
MoveJ [[424.57,176.97,315.36],[0.320717,-0.233457,0.914293,-0.081892],[0,-1,-1,0],[0,9E9,9E9,9E9,9E9,9E9]],v150,z20,custom_tool1\WObj:=WObj0;
MoveJ [[377.78,105.85,158.5],[0,0.998736,-0.050267,0],[0,-1,-1,0],[0,9E9,9E9,9E9,9E9,9E9]],v150,z20,custom_tool1\WObj:=WObj0;
MoveL [[377.78,105.85,58.5],[0,0.998736,-0.050267,0],[0,-1,-1,0],[0,9E9,9E9,9E9,9E9,9E9]],v150,z20,custom_tool1\WObj:=WObj0;
WaitTime 1.5;
SetDO Stavbar_Gripper_close, 0;
SetDO Stavbar_Gripper_open, 1;
WaitTime 1;
SetDO Stavbar_Gripper_open, 0;
MoveL [[377.78,105.85,158.5],[0,0.998736,-0.050267,0],[0,-1,-1,0],[0,9E9,9E9,9E9,9E9,9E9]],v150,z20,custom_tool1\WObj:=WObj0;
MoveJ [[424.57,176.97,315.36],[0.320717,-0.233457,0.914293,-0.081892],[0,-1,-1,0],[0,9E9,9E9,9E9,9E9,9E9]],v150,z20,custom_tool1\WObj:=WObj0;
MoveJ [[25,450,138.8],[-0.174713,0.907209,0.375778,0.072368],[0,-1,-1,0],[0,9E9,9E9,9E9,9E9,9E9]],v150,z20,custom_tool1\WObj:=WObj0;
MoveJ [[-63,450,138.8],[-0.174713,0.907209,0.375778,0.072368],[0,-1,-1,0],[0,9E9,9E9,9E9,9E9,9E9]],v150,z20,custom_tool1\WObj:=WObj0;
MoveL [[-63,550,38.8],[-0.174713,0.907209,0.375778,0.072368],[0,-1,-1,0],[0,9E9,9E9,9E9,9E9,9E9]],v150,z20,custom_tool1\WObj:=WObj0;
IF TestDI(Stavbar_opt) THEN
WaitDI Stavbar_opt, 0;
ENDIF
WaitTime 1.5;
SetDO Stavbar_Gripper_open, 0;
SetDO Stavbar_Gripper_close, 1;
WaitTime 1;
MoveL [[-63,450,138.8],[-0.174713,0.907209,0.375778,0.072368],[0,-1,-1,0],[0,9E9,9E9,9E9,9E9,9E9]],v150,z20,custom_tool1\WObj:=WObj0;
MoveJ [[25,450,138.8],[-0.174713,0.907209,0.375778,0.072368],[0,-1,-1,0],[0,9E9,9E9,9E9,9E9,9E9]],v150,z20,custom_tool1\WObj:=WObj0;
MoveJ [[424.57,176.97,315.36],[0.320717,-0.233457,0.914293,-0.081892],[0,-1,-1,0],[0,9E9,9E9,9E9,9E9,9E9]],v150,z20,custom_tool1\WObj:=WObj0;
MoveJ [[447.14,129.66,181.5],[0,0.393482,0.919332,0],[0,-1,-1,0],[0,9E9,9E9,9E9,9E9,9E9]],v150,z20,custom_tool1\WObj:=WObj0;
MoveL [[447.14,129.66,81.5],[0,0.393482,0.919332,0],[0,-1,-1,0],[0,9E9,9E9,9E9,9E9,9E9]],v150,z20,custom_tool1\WObj:=WObj0;
WaitTime 1.5;
SetDO Stavbar_Gripper_close, 0;
SetDO Stavbar_Gripper_open, 1;
WaitTime 1;
SetDO Stavbar_Gripper_open, 0;
MoveL [[447.14,129.66,181.5],[0,0.393482,0.919332,0],[0,-1,-1,0],[0,9E9,9E9,9E9,9E9,9E9]],v150,z20,custom_tool1\WObj:=WObj0;
MoveJ [[424.57,176.97,315.36],[0.320717,-0.233457,0.914293,-0.081892],[0,-1,-1,0],[0,9E9,9E9,9E9,9E9,9E9]],v150,z20,custom_tool1\WObj:=WObj0;
MoveJ [[25,450,138.8],[-0.174713,0.907209,0.375778,0.072368],[0,-1,-1,0],[0,9E9,9E9,9E9,9E9,9E9]],v150,z20,custom_tool1\WObj:=WObj0;
MoveL [[25,550,38.8],[-0.174713,0.907209,0.375778,0.072368],[0,-1,-1,0],[0,9E9,9E9,9E9,9E9,9E9]],v150,z20,custom_tool1\WObj:=WObj0;
IF TestDI(Stavbar_opt) THEN
WaitDI Stavbar_opt, 0;
ENDIF
WaitTime 1.5;
SetDO Stavbar_Gripper_open, 0;
SetDO Stavbar_Gripper_close, 1;
WaitTime 1;
MoveL [[25,450,138.8],[-0.174713,0.907209,0.375778,0.072368],[0,-1,-1,0],[0,9E9,9E9,9E9,9E9,9E9]],v150,z20,custom_tool1\WObj:=WObj0;
MoveJ [[424.57,176.97,315.36],[0.320717,-0.233457,0.914293,-0.081892],[0,-1,-1,0],[0,9E9,9E9,9E9,9E9,9E9]],v150,z20,custom_tool1\WObj:=WObj0;
MoveJ [[524.77,114.34,181.5],[0,0.580087,0.814554,0],[0,-1,-1,0],[0,9E9,9E9,9E9,9E9,9E9]],v150,z20,custom_tool1\WObj:=WObj0;
MoveL [[524.77,114.34,81.5],[0,0.580087,0.814554,0],[0,-1,-1,0],[0,9E9,9E9,9E9,9E9,9E9]],v150,z20,custom_tool1\WObj:=WObj0;
WaitTime 1.5;
SetDO Stavbar_Gripper_close, 0;
SetDO Stavbar_Gripper_open, 1;
WaitTime 1;
SetDO Stavbar_Gripper_open, 0;
MoveL [[524.77,114.34,181.5],[0,0.580087,0.814554,0],[0,-1,-1,0],[0,9E9,9E9,9E9,9E9,9E9]],v150,z20,custom_tool1\WObj:=WObj0;
MoveJ [[424.57,176.97,315.36],[0.320717,-0.233457,0.914293,-0.081892],[0,-1,-1,0],[0,9E9,9E9,9E9,9E9,9E9]],v150,z20,custom_tool1\WObj:=WObj0;
MoveJ [[25,450,138.8],[-0.174713,0.907209,0.375778,0.072368],[0,-1,-1,0],[0,9E9,9E9,9E9,9E9,9E9]],v150,z20,custom_tool1\WObj:=WObj0;
MoveL [[25,550,38.8],[-0.174713,0.907209,0.375778,0.072368],[0,-1,-1,0],[0,9E9,9E9,9E9,9E9,9E9]],v150,z20,custom_tool1\WObj:=WObj0;
IF TestDI(Stavbar_opt) THEN
WaitDI Stavbar_opt, 0;
ENDIF
WaitTime 1.5;
SetDO Stavbar_Gripper_open, 0;
SetDO Stavbar_Gripper_close, 1;
WaitTime 1;
MoveL [[25,450,138.8],[-0.174713,0.907209,0.375778,0.072368],[0,-1,-1,0],[0,9E9,9E9,9E9,9E9,9E9]],v150,z20,custom_tool1\WObj:=WObj0;
MoveJ [[424.57,176.97,315.36],[0.320717,-0.233457,0.914293,-0.081892],[0,-1,-1,0],[0,9E9,9E9,9E9,9E9,9E9]],v150,z20,custom_tool1\WObj:=WObj0;
MoveJ [[603.62,18.74,181.5],[0,0.866265,0.499585,0],[0,-1,-1,0],[0,9E9,9E9,9E9,9E9,9E9]],v150,z20,custom_tool1\WObj:=WObj0;
MoveL [[603.62,18.74,81.5],[0,0.866265,0.499585,0],[0,-1,-1,0],[0,9E9,9E9,9E9,9E9,9E9]],v150,z20,custom_tool1\WObj:=WObj0;
WaitTime 1.5;
SetDO Stavbar_Gripper_close, 0;
SetDO Stavbar_Gripper_open, 1;
WaitTime 1;
SetDO Stavbar_Gripper_open, 0;
MoveL [[603.62,18.74,181.5],[0,0.866265,0.499585,0],[0,-1,-1,0],[0,9E9,9E9,9E9,9E9,9E9]],v150,z20,custom_tool1\WObj:=WObj0;
MoveJ [[424.57,176.97,315.36],[0.320717,-0.233457,0.914293,-0.081892],[0,-1,-1,0],[0,9E9,9E9,9E9,9E9,9E9]],v150,z20,custom_tool1\WObj:=WObj0;
MoveJ [[25,450,138.8],[-0.174713,0.907209,0.375778,0.072368],[0,-1,-1,0],[0,9E9,9E9,9E9,9E9,9E9]],v150,z20,custom_tool1\WObj:=WObj0;
MoveL [[25,550,38.8],[-0.174713,0.907209,0.375778,0.072368],[0,-1,-1,0],[0,9E9,9E9,9E9,9E9,9E9]],v150,z20,custom_tool1\WObj:=WObj0;
IF TestDI(Stavbar_opt) THEN
WaitDI Stavbar_opt, 0;
ENDIF
WaitTime 1.5;
SetDO Stavbar_Gripper_open, 0;
SetDO Stavbar_Gripper_close, 1;
WaitTime 1;
MoveL [[25,450,138.8],[-0.174713,0.907209,0.375778,0.072368],[0,-1,-1,0],[0,9E9,9E9,9E9,9E9,9E9]],v150,z20,custom_tool1\WObj:=WObj0;
MoveJ [[424.57,176.97,315.36],[0.320717,-0.233457,0.914293,-0.081892],[0,-1,-1,0],[0,9E9,9E9,9E9,9E9,9E9]],v150,z20,custom_tool1\WObj:=WObj0;
MoveJ [[424.57,176.97,315.36],[0.320717,-0.233457,0.914293,-0.081892],[0,-1,-1,0],[0,9E9,9E9,9E9,9E9,9E9]],v150,z20,custom_tool1\WObj:=WObj0;
MoveJ [[582.9,-103.44,181.5],[0,0.995559,0.094139,0],[0,-1,-1,0],[0,9E9,9E9,9E9,9E9,9E9]],v150,z20,custom_tool1\WObj:=WObj0;
MoveL [[582.9,-103.44,81.5],[0,0.995559,0.094139,0],[0,-1,-1,0],[0,9E9,9E9,9E9,9E9,9E9]],v150,z20,custom_tool1\WObj:=WObj0;
WaitTime 1.5;
SetDO Stavbar_Gripper_close, 0;
SetDO Stavbar_Gripper_open, 1;
WaitTime 1;
SetDO Stavbar_Gripper_open, 0;
MoveL [[582.9,-103.44,181.5],[0,0.995559,0.094139,0],[0,-1,-1,0],[0,9E9,9E9,9E9,9E9,9E9]],v150,z20,custom_tool1\WObj:=WObj0;
MoveJ [[424.57,176.97,315.36],[0.320717,-0.233457,0.914293,-0.081892],[0,-1,-1,0],[0,9E9,9E9,9E9,9E9,9E9]],v150,z20,custom_tool1\WObj:=WObj0;
MoveJ [[424.57,176.97,315.36],[0.320717,-0.233457,0.914293,-0.081892],[0,-1,-1,0],[0,9E9,9E9,9E9,9E9,9E9]],v150,z20,custom_tool1\WObj:=WObj0;
MoveJ [[25,450,138.8],[-0.174713,0.907209,0.375778,0.072368],[0,-1,-1,0],[0,9E9,9E9,9E9,9E9,9E9]],v150,z20,custom_tool1\WObj:=WObj0;
MoveL [[25,550,38.8],[-0.174713,0.907209,0.375778,0.072368],[0,-1,-1,0],[0,9E9,9E9,9E9,9E9,9E9]],v150,z20,custom_tool1\WObj:=WObj0;
IF TestDI(Stavbar_opt) THEN
WaitDI Stavbar_opt, 0;
ENDIF
WaitTime 1.5;
SetDO Stavbar_Gripper_open, 0;
SetDO Stavbar_Gripper_close, 1;
WaitTime 1;
MoveL [[25,450,138.8],[-0.174713,0.907209,0.375778,0.072368],[0,-1,-1,0],[0,9E9,9E9,9E9,9E9,9E9]],v150,z20,custom_tool1\WObj:=WObj0;
MoveJ [[424.57,176.97,315.36],[0.320717,-0.233457,0.914293,-0.081892],[0,-1,-1,0],[0,9E9,9E9,9E9,9E9,9E9]],v150,z20,custom_tool1\WObj:=WObj0;
MoveJ [[424.57,176.97,315.36],[0.320717,-0.233457,0.914293,-0.081892],[0,-1,-1,0],[0,9E9,9E9,9E9,9E9,9E9]],v150,z20,custom_tool1\WObj:=WObj0;
MoveJ [[476.93,-167.7,181.5],[0,0.944554,-0.328356,0],[0,-1,-1,0],[0,9E9,9E9,9E9,9E9,9E9]],v150,z20,custom_tool1\WObj:=WObj0;
MoveL [[476.93,-167.7,81.5],[0,0.944554,-0.328356,0],[0,-1,-1,0],[0,9E9,9E9,9E9,9E9,9E9]],v150,z20,custom_tool1\WObj:=WObj0;
WaitTime 1.5;
SetDO Stavbar_Gripper_close, 0;
SetDO Stavbar_Gripper_open, 1;
WaitTime 1;
SetDO Stavbar_Gripper_open, 0;
MoveL [[476.93,-167.7,181.5],[0,0.944554,-0.328356,0],[0,-1,-1,0],[0,9E9,9E9,9E9,9E9,9E9]],v150,z20,custom_tool1\WObj:=WObj0;
MoveJ [[424.57,176.97,315.36],[0.320717,-0.233457,0.914293,-0.081892],[0,-1,-1,0],[0,9E9,9E9,9E9,9E9,9E9]],v150,z20,custom_tool1\WObj:=WObj0;
MoveJ [[424.57,176.97,315.36],[0.320717,-0.233457,0.914293,-0.081892],[0,-1,-1,0],[0,9E9,9E9,9E9,9E9,9E9]],v150,z20,custom_tool1\WObj:=WObj0;
MoveJ [[25,450,138.8],[-0.174713,0.907209,0.375778,0.072368],[0,-1,-1,0],[0,9E9,9E9,9E9,9E9,9E9]],v150,z20,custom_tool1\WObj:=WObj0;
MoveL [[25,550,38.8],[-0.174713,0.907209,0.375778,0.072368],[0,-1,-1,0],[0,9E9,9E9,9E9,9E9,9E9]],v150,z20,custom_tool1\WObj:=WObj0;
IF TestDI(Stavbar_opt) THEN
WaitDI Stavbar_opt, 0;
ENDIF
WaitTime 1.5;
SetDO Stavbar_Gripper_open, 0;
SetDO Stavbar_Gripper_close, 1;
WaitTime 1;
MoveL [[25,450,138.8],[-0.174713,0.907209,0.375778,0.072368],[0,-1,-1,0],[0,9E9,9E9,9E9,9E9,9E9]],v150,z20,custom_tool1\WObj:=WObj0;
MoveJ [[424.57,176.97,315.36],[0.320717,-0.233457,0.914293,-0.081892],[0,-1,-1,0],[0,9E9,9E9,9E9,9E9,9E9]],v150,z20,custom_tool1\WObj:=WObj0;
MoveJ [[424.57,176.97,315.36],[0.320717,-0.233457,0.914293,-0.081892],[0,-1,-1,0],[0,9E9,9E9,9E9,9E9,9E9]],v150,z20,custom_tool1\WObj:=WObj0;
MoveJ [[359.01,-129.59,181.5],[0,0.691384,0.722487,0],[0,-1,-1,0],[0,9E9,9E9,9E9,9E9,9E9]],v150,z20,custom_tool1\WObj:=WObj0;
MoveL [[359.01,-129.59,81.5],[0,0.691384,0.722487,0],[0,-1,-1,0],[0,9E9,9E9,9E9,9E9,9E9]],v150,z20,custom_tool1\WObj:=WObj0;
WaitTime 1.5;
SetDO Stavbar_Gripper_close, 0;
SetDO Stavbar_Gripper_open, 1;
WaitTime 1;
SetDO Stavbar_Gripper_open, 0;
MoveL [[359.01,-129.59,181.5],[0,0.691384,0.722487,0],[0,-1,-1,0],[0,9E9,9E9,9E9,9E9,9E9]],v150,z20,custom_tool1\WObj:=WObj0;
MoveJ [[424.57,176.97,315.36],[0.320717,-0.233457,0.914293,-0.081892],[0,-1,-1,0],[0,9E9,9E9,9E9,9E9,9E9]],v150,z20,custom_tool1\WObj:=WObj0;
MoveJ [[424.57,176.97,315.36],[0.320717,-0.233457,0.914293,-0.081892],[0,-1,-1,0],[0,9E9,9E9,9E9,9E9,9E9]],v150,z20,custom_tool1\WObj:=WObj0;
MoveJ [[25,450,138.8],[-0.174713,0.907209,0.375778,0.072368],[0,-1,-1,0],[0,9E9,9E9,9E9,9E9,9E9]],v150,z20,custom_tool1\WObj:=WObj0;
MoveL [[25,550,38.8],[-0.174713,0.907209,0.375778,0.072368],[0,-1,-1,0],[0,9E9,9E9,9E9,9E9,9E9]],v150,z20,custom_tool1\WObj:=WObj0;
IF TestDI(Stavbar_opt) THEN
WaitDI Stavbar_opt, 0;
ENDIF
WaitTime 1.5;
SetDO Stavbar_Gripper_open, 0;
SetDO Stavbar_Gripper_close, 1;
WaitTime 1;
MoveL [[25,450,138.8],[-0.174713,0.907209,0.375778,0.072368],[0,-1,-1,0],[0,9E9,9E9,9E9,9E9,9E9]],v150,z20,custom_tool1\WObj:=WObj0;
MoveJ [[424.57,176.97,315.36],[0.320717,-0.233457,0.914293,-0.081892],[0,-1,-1,0],[0,9E9,9E9,9E9,9E9,9E9]],v150,z20,custom_tool1\WObj:=WObj0;
MoveJ [[424.57,176.97,315.36],[0.320717,-0.233457,0.914293,-0.081892],[0,-1,-1,0],[0,9E9,9E9,9E9,9E9,9E9]],v150,z20,custom_tool1\WObj:=WObj0;
MoveJ [[310.69,-15.47,181.5],[0,0.929201,0.369576,0],[0,-1,-1,0],[0,9E9,9E9,9E9,9E9,9E9]],v150,z20,custom_tool1\WObj:=WObj0;
MoveL [[310.69,-15.47,81.5],[0,0.929201,0.369576,0],[0,-1,-1,0],[0,9E9,9E9,9E9,9E9,9E9]],v150,z20,custom_tool1\WObj:=WObj0;
WaitTime 1.5;
SetDO Stavbar_Gripper_close, 0;
SetDO Stavbar_Gripper_open, 1;
WaitTime 1;
SetDO Stavbar_Gripper_open, 0;
MoveL [[310.69,-15.47,181.5],[0,0.929201,0.369576,0],[0,-1,-1,0],[0,9E9,9E9,9E9,9E9,9E9]],v150,z20,custom_tool1\WObj:=WObj0;
MoveJ [[424.57,176.97,315.36],[0.320717,-0.233457,0.914293,-0.081892],[0,-1,-1,0],[0,9E9,9E9,9E9,9E9,9E9]],v150,z20,custom_tool1\WObj:=WObj0;
MoveJ [[424.57,176.97,315.36],[0.320717,-0.233457,0.914293,-0.081892],[0,-1,-1,0],[0,9E9,9E9,9E9,9E9,9E9]],v150,z20,custom_tool1\WObj:=WObj0;
MoveJ [[25,450,138.8],[-0.174713,0.907209,0.375778,0.072368],[0,-1,-1,0],[0,9E9,9E9,9E9,9E9,9E9]],v150,z20,custom_tool1\WObj:=WObj0;
MoveL [[25,550,38.8],[-0.174713,0.907209,0.375778,0.072368],[0,-1,-1,0],[0,9E9,9E9,9E9,9E9,9E9]],v150,z20,custom_tool1\WObj:=WObj0;
IF TestDI(Stavbar_opt) THEN
WaitDI Stavbar_opt, 0;
ENDIF
WaitTime 1.5;
SetDO Stavbar_Gripper_open, 0;
SetDO Stavbar_Gripper_close, 1;
WaitTime 1;
MoveL [[25,450,138.8],[-0.174713,0.907209,0.375778,0.072368],[0,-1,-1,0],[0,9E9,9E9,9E9,9E9,9E9]],v150,z20,custom_tool1\WObj:=WObj0;
MoveJ [[424.57,176.97,315.36],[0.320717,-0.233457,0.914293,-0.081892],[0,-1,-1,0],[0,9E9,9E9,9E9,9E9,9E9]],v150,z20,custom_tool1\WObj:=WObj0;
MoveJ [[365.39,95.73,181.5],[0,0.998736,-0.050267,0],[0,-1,-1,0],[0,9E9,9E9,9E9,9E9,9E9]],v150,z20,custom_tool1\WObj:=WObj0;
MoveL [[365.39,95.73,81.5],[0,0.998736,-0.050267,0],[0,-1,-1,0],[0,9E9,9E9,9E9,9E9,9E9]],v150,z20,custom_tool1\WObj:=WObj0;
WaitTime 1.5;
SetDO Stavbar_Gripper_close, 0;
SetDO Stavbar_Gripper_open, 1;
WaitTime 1;
SetDO Stavbar_Gripper_open, 0;
MoveL [[365.39,95.73,181.5],[0,0.998736,-0.050267,0],[0,-1,-1,0],[0,9E9,9E9,9E9,9E9,9E9]],v150,z20,custom_tool1\WObj:=WObj0;
MoveJ [[424.57,176.97,315.36],[0.320717,-0.233457,0.914293,-0.081892],[0,-1,-1,0],[0,9E9,9E9,9E9,9E9,9E9]],v150,z20,custom_tool1\WObj:=WObj0;
MoveJ [[25,450,138.8],[-0.174713,0.907209,0.375778,0.072368],[0,-1,-1,0],[0,9E9,9E9,9E9,9E9,9E9]],v150,z20,custom_tool1\WObj:=WObj0;
MoveL [[25,550,38.8],[-0.174713,0.907209,0.375778,0.072368],[0,-1,-1,0],[0,9E9,9E9,9E9,9E9,9E9]],v150,z20,custom_tool1\WObj:=WObj0;
IF TestDI(Stavbar_opt) THEN
WaitDI Stavbar_opt, 0;
ENDIF
WaitTime 1.5;
SetDO Stavbar_Gripper_open, 0;
SetDO Stavbar_Gripper_close, 1;
WaitTime 1;
MoveL [[25,450,138.8],[-0.174713,0.907209,0.375778,0.072368],[0,-1,-1,0],[0,9E9,9E9,9E9,9E9,9E9]],v150,z20,custom_tool1\WObj:=WObj0;
MoveJ [[424.57,176.97,315.36],[0.320717,-0.233457,0.914293,-0.081892],[0,-1,-1,0],[0,9E9,9E9,9E9,9E9,9E9]],v150,z20,custom_tool1\WObj:=WObj0;
MoveJ [[463.14,129.29,204.5],[0,0.393482,0.919332,0],[0,-1,-1,0],[0,9E9,9E9,9E9,9E9,9E9]],v150,z20,custom_tool1\WObj:=WObj0;
MoveL [[463.14,129.29,104.5],[0,0.393482,0.919332,0],[0,-1,-1,0],[0,9E9,9E9,9E9,9E9,9E9]],v150,z20,custom_tool1\WObj:=WObj0;
WaitTime 1.5;
SetDO Stavbar_Gripper_close, 0;
SetDO Stavbar_Gripper_open, 1;
WaitTime 1;
SetDO Stavbar_Gripper_open, 0;
MoveL [[463.14,129.29,204.5],[0,0.393482,0.919332,0],[0,-1,-1,0],[0,9E9,9E9,9E9,9E9,9E9]],v150,z20,custom_tool1\WObj:=WObj0;
MoveJ [[424.57,176.97,315.36],[0.320717,-0.233457,0.914293,-0.081892],[0,-1,-1,0],[0,9E9,9E9,9E9,9E9,9E9]],v150,z20,custom_tool1\WObj:=WObj0;
MoveJ [[25,450,138.8],[-0.174713,0.907209,0.375778,0.072368],[0,-1,-1,0],[0,9E9,9E9,9E9,9E9,9E9]],v150,z20,custom_tool1\WObj:=WObj0;
MoveL [[25,550,38.8],[-0.174713,0.907209,0.375778,0.072368],[0,-1,-1,0],[0,9E9,9E9,9E9,9E9,9E9]],v150,z20,custom_tool1\WObj:=WObj0;
IF TestDI(Stavbar_opt) THEN
WaitDI Stavbar_opt, 0;
ENDIF
WaitTime 1.5;
SetDO Stavbar_Gripper_open, 0;
SetDO Stavbar_Gripper_close, 1;
WaitTime 1;
MoveL [[25,450,138.8],[-0.174713,0.907209,0.375778,0.072368],[0,-1,-1,0],[0,9E9,9E9,9E9,9E9,9E9]],v150,z20,custom_tool1\WObj:=WObj0;
MoveJ [[424.57,176.97,315.36],[0.320717,-0.233457,0.914293,-0.081892],[0,-1,-1,0],[0,9E9,9E9,9E9,9E9,9E9]],v150,z20,custom_tool1\WObj:=WObj0;
MoveJ [[574.6,75.13,204.5],[0,0.740125,0.672469,0],[0,-1,-1,0],[0,9E9,9E9,9E9,9E9,9E9]],v150,z20,custom_tool1\WObj:=WObj0;
MoveL [[574.6,75.13,104.5],[0,0.740125,0.672469,0],[0,-1,-1,0],[0,9E9,9E9,9E9,9E9,9E9]],v150,z20,custom_tool1\WObj:=WObj0;
WaitTime 1.5;
SetDO Stavbar_Gripper_close, 0;
SetDO Stavbar_Gripper_open, 1;
WaitTime 1;
SetDO Stavbar_Gripper_open, 0;
MoveL [[574.6,75.13,204.5],[0,0.740125,0.672469,0],[0,-1,-1,0],[0,9E9,9E9,9E9,9E9,9E9]],v150,z20,custom_tool1\WObj:=WObj0;
MoveJ [[424.57,176.97,315.36],[0.320717,-0.233457,0.914293,-0.081892],[0,-1,-1,0],[0,9E9,9E9,9E9,9E9,9E9]],v150,z20,custom_tool1\WObj:=WObj0;
MoveJ [[25,450,138.8],[-0.174713,0.907209,0.375778,0.072368],[0,-1,-1,0],[0,9E9,9E9,9E9,9E9,9E9]],v150,z20,custom_tool1\WObj:=WObj0;
MoveL [[25,550,38.8],[-0.174713,0.907209,0.375778,0.072368],[0,-1,-1,0],[0,9E9,9E9,9E9,9E9,9E9]],v150,z20,custom_tool1\WObj:=WObj0;
IF TestDI(Stavbar_opt) THEN
WaitDI Stavbar_opt, 0;
ENDIF
WaitTime 1.5;
SetDO Stavbar_Gripper_open, 0;
SetDO Stavbar_Gripper_close, 1;
WaitTime 1;
MoveL [[25,450,138.8],[-0.174713,0.907209,0.375778,0.072368],[0,-1,-1,0],[0,9E9,9E9,9E9,9E9,9E9]],v150,z20,custom_tool1\WObj:=WObj0;
MoveJ [[424.57,176.97,315.36],[0.320717,-0.233457,0.914293,-0.081892],[0,-1,-1,0],[0,9E9,9E9,9E9,9E9,9E9]],v150,z20,custom_tool1\WObj:=WObj0;
MoveJ [[424.57,176.97,315.36],[0.320717,-0.233457,0.914293,-0.081892],[0,-1,-1,0],[0,9E9,9E9,9E9,9E9,9E9]],v150,z20,custom_tool1\WObj:=WObj0;
MoveJ [[606.56,-44.61,204.5],[0,0.95273,0.303819,0],[0,-1,-1,0],[0,9E9,9E9,9E9,9E9,9E9]],v150,z20,custom_tool1\WObj:=WObj0;
MoveL [[606.56,-44.61,104.5],[0,0.95273,0.303819,0],[0,-1,-1,0],[0,9E9,9E9,9E9,9E9,9E9]],v150,z20,custom_tool1\WObj:=WObj0;
WaitTime 1.5;
SetDO Stavbar_Gripper_close, 0;
SetDO Stavbar_Gripper_open, 1;
WaitTime 1;
SetDO Stavbar_Gripper_open, 0;
MoveL [[606.56,-44.61,204.5],[0,0.95273,0.303819,0],[0,-1,-1,0],[0,9E9,9E9,9E9,9E9,9E9]],v150,z20,custom_tool1\WObj:=WObj0;
MoveJ [[424.57,176.97,315.36],[0.320717,-0.233457,0.914293,-0.081892],[0,-1,-1,0],[0,9E9,9E9,9E9,9E9,9E9]],v150,z20,custom_tool1\WObj:=WObj0;
MoveJ [[424.57,176.97,315.36],[0.320717,-0.233457,0.914293,-0.081892],[0,-1,-1,0],[0,9E9,9E9,9E9,9E9,9E9]],v150,z20,custom_tool1\WObj:=WObj0;
MoveJ [[25,450,138.8],[-0.174713,0.907209,0.375778,0.072368],[0,-1,-1,0],[0,9E9,9E9,9E9,9E9,9E9]],v150,z20,custom_tool1\WObj:=WObj0;
MoveL [[25,550,38.8],[-0.174713,0.907209,0.375778,0.072368],[0,-1,-1,0],[0,9E9,9E9,9E9,9E9,9E9]],v150,z20,custom_tool1\WObj:=WObj0;
IF TestDI(Stavbar_opt) THEN
WaitDI Stavbar_opt, 0;
ENDIF
WaitTime 1.5;
SetDO Stavbar_Gripper_open, 0;
SetDO Stavbar_Gripper_close, 1;
WaitTime 1;
MoveL [[25,450,138.8],[-0.174713,0.907209,0.375778,0.072368],[0,-1,-1,0],[0,9E9,9E9,9E9,9E9,9E9]],v150,z20,custom_tool1\WObj:=WObj0;
MoveJ [[424.57,176.97,315.36],[0.320717,-0.233457,0.914293,-0.081892],[0,-1,-1,0],[0,9E9,9E9,9E9,9E9,9E9]],v150,z20,custom_tool1\WObj:=WObj0;
MoveJ [[424.57,176.97,315.36],[0.320717,-0.233457,0.914293,-0.081892],[0,-1,-1,0],[0,9E9,9E9,9E9,9E9,9E9]],v150,z20,custom_tool1\WObj:=WObj0;
MoveJ [[536.91,-147.11,204.5],[0,0.992792,-0.119853,0],[0,-1,-1,0],[0,9E9,9E9,9E9,9E9,9E9]],v150,z20,custom_tool1\WObj:=WObj0;
MoveL [[536.91,-147.11,104.5],[0,0.992792,-0.119853,0],[0,-1,-1,0],[0,9E9,9E9,9E9,9E9,9E9]],v150,z20,custom_tool1\WObj:=WObj0;
WaitTime 1.5;
SetDO Stavbar_Gripper_close, 0;
SetDO Stavbar_Gripper_open, 1;
WaitTime 1;
SetDO Stavbar_Gripper_open, 0;
MoveL [[536.91,-147.11,204.5],[0,0.992792,-0.119853,0],[0,-1,-1,0],[0,9E9,9E9,9E9,9E9,9E9]],v150,z20,custom_tool1\WObj:=WObj0;
MoveJ [[424.57,176.97,315.36],[0.320717,-0.233457,0.914293,-0.081892],[0,-1,-1,0],[0,9E9,9E9,9E9,9E9,9E9]],v150,z20,custom_tool1\WObj:=WObj0;
MoveJ [[424.57,176.97,315.36],[0.320717,-0.233457,0.914293,-0.081892],[0,-1,-1,0],[0,9E9,9E9,9E9,9E9,9E9]],v150,z20,custom_tool1\WObj:=WObj0;
MoveJ [[25,450,138.8],[-0.174713,0.907209,0.375778,0.072368],[0,-1,-1,0],[0,9E9,9E9,9E9,9E9,9E9]],v150,z20,custom_tool1\WObj:=WObj0;
MoveL [[25,550,38.8],[-0.174713,0.907209,0.375778,0.072368],[0,-1,-1,0],[0,9E9,9E9,9E9,9E9,9E9]],v150,z20,custom_tool1\WObj:=WObj0;
IF TestDI(Stavbar_opt) THEN
WaitDI Stavbar_opt, 0;
ENDIF
WaitTime 1.5;
SetDO Stavbar_Gripper_open, 0;
SetDO Stavbar_Gripper_close, 1;
WaitTime 1;
MoveL [[25,450,138.8],[-0.174713,0.907209,0.375778,0.072368],[0,-1,-1,0],[0,9E9,9E9,9E9,9E9,9E9]],v150,z20,custom_tool1\WObj:=WObj0;
MoveJ [[424.57,176.97,315.36],[0.320717,-0.233457,0.914293,-0.081892],[0,-1,-1,0],[0,9E9,9E9,9E9,9E9,9E9]],v150,z20,custom_tool1\WObj:=WObj0;
MoveJ [[424.57,176.97,315.36],[0.320717,-0.233457,0.914293,-0.081892],[0,-1,-1,0],[0,9E9,9E9,9E9,9E9,9E9]],v150,z20,custom_tool1\WObj:=WObj0;
MoveJ [[413.82,-161.49,204.5],[0,0.52182,0.853056,0],[0,-1,-1,0],[0,9E9,9E9,9E9,9E9,9E9]],v150,z20,custom_tool1\WObj:=WObj0;
MoveL [[413.82,-161.49,104.5],[0,0.52182,0.853056,0],[0,-1,-1,0],[0,9E9,9E9,9E9,9E9,9E9]],v150,z20,custom_tool1\WObj:=WObj0;
WaitTime 1.5;
SetDO Stavbar_Gripper_close, 0;
SetDO Stavbar_Gripper_open, 1;
WaitTime 1;
SetDO Stavbar_Gripper_open, 0;
MoveL [[413.82,-161.49,204.5],[0,0.52182,0.853056,0],[0,-1,-1,0],[0,9E9,9E9,9E9,9E9,9E9]],v150,z20,custom_tool1\WObj:=WObj0;
MoveJ [[424.57,176.97,315.36],[0.320717,-0.233457,0.914293,-0.081892],[0,-1,-1,0],[0,9E9,9E9,9E9,9E9,9E9]],v150,z20,custom_tool1\WObj:=WObj0;
MoveJ [[424.57,176.97,315.36],[0.320717,-0.233457,0.914293,-0.081892],[0,-1,-1,0],[0,9E9,9E9,9E9,9E9,9E9]],v150,z20,custom_tool1\WObj:=WObj0;
MoveJ [[25,450,138.8],[-0.174713,0.907209,0.375778,0.072368],[0,-1,-1,0],[0,9E9,9E9,9E9,9E9,9E9]],v150,z20,custom_tool1\WObj:=WObj0;
MoveL [[25,550,38.8],[-0.174713,0.907209,0.375778,0.072368],[0,-1,-1,0],[0,9E9,9E9,9E9,9E9,9E9]],v150,z20,custom_tool1\WObj:=WObj0;
IF TestDI(Stavbar_opt) THEN
WaitDI Stavbar_opt, 0;
ENDIF
WaitTime 1.5;
SetDO Stavbar_Gripper_open, 0;
SetDO Stavbar_Gripper_close, 1;
WaitTime 1;
MoveL [[25,450,138.8],[-0.174713,0.907209,0.375778,0.072368],[0,-1,-1,0],[0,9E9,9E9,9E9,9E9,9E9]],v150,z20,custom_tool1\WObj:=WObj0;
MoveJ [[424.57,176.97,315.36],[0.320717,-0.233457,0.914293,-0.081892],[0,-1,-1,0],[0,9E9,9E9,9E9,9E9,9E9]],v150,z20,custom_tool1\WObj:=WObj0;
MoveJ [[424.57,176.97,315.36],[0.320717,-0.233457,0.914293,-0.081892],[0,-1,-1,0],[0,9E9,9E9,9E9,9E9,9E9]],v150,z20,custom_tool1\WObj:=WObj0;
MoveJ [[322.42,-77.79,204.5],[0,0.829283,0.558829,0],[0,-1,-1,0],[0,9E9,9E9,9E9,9E9,9E9]],v150,z20,custom_tool1\WObj:=WObj0;
MoveL [[322.42,-77.79,104.5],[0,0.829283,0.558829,0],[0,-1,-1,0],[0,9E9,9E9,9E9,9E9,9E9]],v150,z20,custom_tool1\WObj:=WObj0;
WaitTime 1.5;
SetDO Stavbar_Gripper_close, 0;
SetDO Stavbar_Gripper_open, 1;
WaitTime 1;
SetDO Stavbar_Gripper_open, 0;
MoveL [[322.42,-77.79,204.5],[0,0.829283,0.558829,0],[0,-1,-1,0],[0,9E9,9E9,9E9,9E9,9E9]],v150,z20,custom_tool1\WObj:=WObj0;
MoveJ [[424.57,176.97,315.36],[0.320717,-0.233457,0.914293,-0.081892],[0,-1,-1,0],[0,9E9,9E9,9E9,9E9,9E9]],v150,z20,custom_tool1\WObj:=WObj0;
MoveJ [[424.57,176.97,315.36],[0.320717,-0.233457,0.914293,-0.081892],[0,-1,-1,0],[0,9E9,9E9,9E9,9E9,9E9]],v150,z20,custom_tool1\WObj:=WObj0;
MoveJ [[25,450,138.8],[-0.174713,0.907209,0.375778,0.072368],[0,-1,-1,0],[0,9E9,9E9,9E9,9E9,9E9]],v150,z20,custom_tool1\WObj:=WObj0;
MoveL [[25,550,38.8],[-0.174713,0.907209,0.375778,0.072368],[0,-1,-1,0],[0,9E9,9E9,9E9,9E9,9E9]],v150,z20,custom_tool1\WObj:=WObj0;
IF TestDI(Stavbar_opt) THEN
WaitDI Stavbar_opt, 0;
ENDIF
WaitTime 1.5;
SetDO Stavbar_Gripper_open, 0;
SetDO Stavbar_Gripper_close, 1;
WaitTime 1;
MoveL [[25,450,138.8],[-0.174713,0.907209,0.375778,0.072368],[0,-1,-1,0],[0,9E9,9E9,9E9,9E9,9E9]],v150,z20,custom_tool1\WObj:=WObj0;
MoveJ [[424.57,176.97,315.36],[0.320717,-0.233457,0.914293,-0.081892],[0,-1,-1,0],[0,9E9,9E9,9E9,9E9,9E9]],v150,z20,custom_tool1\WObj:=WObj0;
MoveJ [[325.93,46.08,204.5],[0,0.986561,0.163396,0],[0,-1,-1,0],[0,9E9,9E9,9E9,9E9,9E9]],v150,z20,custom_tool1\WObj:=WObj0;
MoveL [[325.93,46.08,104.5],[0,0.986561,0.163396,0],[0,-1,-1,0],[0,9E9,9E9,9E9,9E9,9E9]],v150,z20,custom_tool1\WObj:=WObj0;
WaitTime 1.5;
SetDO Stavbar_Gripper_close, 0;
SetDO Stavbar_Gripper_open, 1;
WaitTime 1;
SetDO Stavbar_Gripper_open, 0;
MoveL [[325.93,46.08,204.5],[0,0.986561,0.163396,0],[0,-1,-1,0],[0,9E9,9E9,9E9,9E9,9E9]],v150,z20,custom_tool1\WObj:=WObj0;
MoveJ [[424.57,176.97,315.36],[0.320717,-0.233457,0.914293,-0.081892],[0,-1,-1,0],[0,9E9,9E9,9E9,9E9,9E9]],v150,z20,custom_tool1\WObj:=WObj0;
MoveJ [[25,450,138.8],[-0.174713,0.907209,0.375778,0.072368],[0,-1,-1,0],[0,9E9,9E9,9E9,9E9,9E9]],v150,z20,custom_tool1\WObj:=WObj0;
MoveJ [[-63,450,138.8],[-0.174713,0.907209,0.375778,0.072368],[0,-1,-1,0],[0,9E9,9E9,9E9,9E9,9E9]],v150,z20,custom_tool1\WObj:=WObj0;
MoveL [[-63,550,38.8],[-0.174713,0.907209,0.375778,0.072368],[0,-1,-1,0],[0,9E9,9E9,9E9,9E9,9E9]],v150,z20,custom_tool1\WObj:=WObj0;
IF TestDI(Stavbar_opt) THEN
WaitDI Stavbar_opt, 0;
ENDIF
WaitTime 1.5;
SetDO Stavbar_Gripper_open, 0;
SetDO Stavbar_Gripper_close, 1;
WaitTime 1;
MoveL [[-63,450,138.8],[-0.174713,0.907209,0.375778,0.072368],[0,-1,-1,0],[0,9E9,9E9,9E9,9E9,9E9]],v150,z20,custom_tool1\WObj:=WObj0;
MoveJ [[25,450,138.8],[-0.174713,0.907209,0.375778,0.072368],[0,-1,-1,0],[0,9E9,9E9,9E9,9E9,9E9]],v150,z20,custom_tool1\WObj:=WObj0;
MoveJ [[424.57,176.97,315.36],[0.320717,-0.233457,0.914293,-0.081892],[0,-1,-1,0],[0,9E9,9E9,9E9,9E9,9E9]],v150,z20,custom_tool1\WObj:=WObj0;
MoveJ [[377.78,105.85,204.5],[0,0.998736,-0.050267,0],[0,-1,-1,0],[0,9E9,9E9,9E9,9E9,9E9]],v150,z20,custom_tool1\WObj:=WObj0;
MoveL [[377.78,105.85,104.5],[0,0.998736,-0.050267,0],[0,-1,-1,0],[0,9E9,9E9,9E9,9E9,9E9]],v150,z20,custom_tool1\WObj:=WObj0;
WaitTime 1.5;
SetDO Stavbar_Gripper_close, 0;
SetDO Stavbar_Gripper_open, 1;
WaitTime 1;
SetDO Stavbar_Gripper_open, 0;
MoveL [[377.78,105.85,204.5],[0,0.998736,-0.050267,0],[0,-1,-1,0],[0,9E9,9E9,9E9,9E9,9E9]],v150,z20,custom_tool1\WObj:=WObj0;
MoveJ [[424.57,176.97,315.36],[0.320717,-0.233457,0.914293,-0.081892],[0,-1,-1,0],[0,9E9,9E9,9E9,9E9,9E9]],v150,z20,custom_tool1\WObj:=WObj0;
MoveJ [[25,450,138.8],[-0.174713,0.907209,0.375778,0.072368],[0,-1,-1,0],[0,9E9,9E9,9E9,9E9,9E9]],v150,z20,custom_tool1\WObj:=WObj0;
MoveJ [[-63,450,138.8],[-0.174713,0.907209,0.375778,0.072368],[0,-1,-1,0],[0,9E9,9E9,9E9,9E9,9E9]],v150,z20,custom_tool1\WObj:=WObj0;
MoveL [[-63,550,38.8],[-0.174713,0.907209,0.375778,0.072368],[0,-1,-1,0],[0,9E9,9E9,9E9,9E9,9E9]],v150,z20,custom_tool1\WObj:=WObj0;
IF TestDI(Stavbar_opt) THEN
WaitDI Stavbar_opt, 0;
ENDIF
WaitTime 1.5;
SetDO Stavbar_Gripper_open, 0;
SetDO Stavbar_Gripper_close, 1;
WaitTime 1;
MoveL [[-63,450,138.8],[-0.174713,0.907209,0.375778,0.072368],[0,-1,-1,0],[0,9E9,9E9,9E9,9E9,9E9]],v150,z20,custom_tool1\WObj:=WObj0;
MoveJ [[25,450,138.8],[-0.174713,0.907209,0.375778,0.072368],[0,-1,-1,0],[0,9E9,9E9,9E9,9E9,9E9]],v150,z20,custom_tool1\WObj:=WObj0;
MoveJ [[424.57,176.97,315.36],[0.320717,-0.233457,0.914293,-0.081892],[0,-1,-1,0],[0,9E9,9E9,9E9,9E9,9E9]],v150,z20,custom_tool1\WObj:=WObj0;
MoveJ [[447.14,129.66,227.5],[0,0.393482,0.919332,0],[0,-1,-1,0],[0,9E9,9E9,9E9,9E9,9E9]],v150,z20,custom_tool1\WObj:=WObj0;
MoveL [[447.14,129.66,127.5],[0,0.393482,0.919332,0],[0,-1,-1,0],[0,9E9,9E9,9E9,9E9,9E9]],v150,z20,custom_tool1\WObj:=WObj0;
WaitTime 1.5;
SetDO Stavbar_Gripper_close, 0;
SetDO Stavbar_Gripper_open, 1;
WaitTime 1;
SetDO Stavbar_Gripper_open, 0;
MoveL [[447.14,129.66,227.5],[0,0.393482,0.919332,0],[0,-1,-1,0],[0,9E9,9E9,9E9,9E9,9E9]],v150,z20,custom_tool1\WObj:=WObj0;
MoveJ [[424.57,176.97,315.36],[0.320717,-0.233457,0.914293,-0.081892],[0,-1,-1,0],[0,9E9,9E9,9E9,9E9,9E9]],v150,z20,custom_tool1\WObj:=WObj0;
MoveJ [[25,450,138.8],[-0.174713,0.907209,0.375778,0.072368],[0,-1,-1,0],[0,9E9,9E9,9E9,9E9,9E9]],v150,z20,custom_tool1\WObj:=WObj0;
MoveL [[25,550,38.8],[-0.174713,0.907209,0.375778,0.072368],[0,-1,-1,0],[0,9E9,9E9,9E9,9E9,9E9]],v150,z20,custom_tool1\WObj:=WObj0;
IF TestDI(Stavbar_opt) THEN
WaitDI Stavbar_opt, 0;
ENDIF
WaitTime 1.5;
SetDO Stavbar_Gripper_open, 0;
SetDO Stavbar_Gripper_close, 1;
WaitTime 1;
MoveL [[25,450,138.8],[-0.174713,0.907209,0.375778,0.072368],[0,-1,-1,0],[0,9E9,9E9,9E9,9E9,9E9]],v150,z20,custom_tool1\WObj:=WObj0;
MoveJ [[424.57,176.97,315.36],[0.320717,-0.233457,0.914293,-0.081892],[0,-1,-1,0],[0,9E9,9E9,9E9,9E9,9E9]],v150,z20,custom_tool1\WObj:=WObj0;
MoveJ [[524.77,114.34,227.5],[0,0.580087,0.814554,0],[0,-1,-1,0],[0,9E9,9E9,9E9,9E9,9E9]],v150,z20,custom_tool1\WObj:=WObj0;
MoveL [[524.77,114.34,127.5],[0,0.580087,0.814554,0],[0,-1,-1,0],[0,9E9,9E9,9E9,9E9,9E9]],v150,z20,custom_tool1\WObj:=WObj0;
WaitTime 1.5;
SetDO Stavbar_Gripper_close, 0;
SetDO Stavbar_Gripper_open, 1;
WaitTime 1;
SetDO Stavbar_Gripper_open, 0;
MoveL [[524.77,114.34,227.5],[0,0.580087,0.814554,0],[0,-1,-1,0],[0,9E9,9E9,9E9,9E9,9E9]],v150,z20,custom_tool1\WObj:=WObj0;
MoveJ [[424.57,176.97,315.36],[0.320717,-0.233457,0.914293,-0.081892],[0,-1,-1,0],[0,9E9,9E9,9E9,9E9,9E9]],v150,z20,custom_tool1\WObj:=WObj0;
MoveJ [[25,450,138.8],[-0.174713,0.907209,0.375778,0.072368],[0,-1,-1,0],[0,9E9,9E9,9E9,9E9,9E9]],v150,z20,custom_tool1\WObj:=WObj0;
MoveL [[25,550,38.8],[-0.174713,0.907209,0.375778,0.072368],[0,-1,-1,0],[0,9E9,9E9,9E9,9E9,9E9]],v150,z20,custom_tool1\WObj:=WObj0;
IF TestDI(Stavbar_opt) THEN
WaitDI Stavbar_opt, 0;
ENDIF
WaitTime 1.5;
SetDO Stavbar_Gripper_open, 0;
SetDO Stavbar_Gripper_close, 1;
WaitTime 1;
MoveL [[25,450,138.8],[-0.174713,0.907209,0.375778,0.072368],[0,-1,-1,0],[0,9E9,9E9,9E9,9E9,9E9]],v150,z20,custom_tool1\WObj:=WObj0;
MoveJ [[424.57,176.97,315.36],[0.320717,-0.233457,0.914293,-0.081892],[0,-1,-1,0],[0,9E9,9E9,9E9,9E9,9E9]],v150,z20,custom_tool1\WObj:=WObj0;
MoveJ [[603.62,18.74,227.5],[0,0.866265,0.499585,0],[0,-1,-1,0],[0,9E9,9E9,9E9,9E9,9E9]],v150,z20,custom_tool1\WObj:=WObj0;
MoveL [[603.62,18.74,127.5],[0,0.866265,0.499585,0],[0,-1,-1,0],[0,9E9,9E9,9E9,9E9,9E9]],v150,z20,custom_tool1\WObj:=WObj0;
WaitTime 1.5;
SetDO Stavbar_Gripper_close, 0;
SetDO Stavbar_Gripper_open, 1;
WaitTime 1;
SetDO Stavbar_Gripper_open, 0;
MoveL [[603.62,18.74,227.5],[0,0.866265,0.499585,0],[0,-1,-1,0],[0,9E9,9E9,9E9,9E9,9E9]],v150,z20,custom_tool1\WObj:=WObj0;
MoveJ [[424.57,176.97,315.36],[0.320717,-0.233457,0.914293,-0.081892],[0,-1,-1,0],[0,9E9,9E9,9E9,9E9,9E9]],v150,z20,custom_tool1\WObj:=WObj0;
MoveJ [[25,450,138.8],[-0.174713,0.907209,0.375778,0.072368],[0,-1,-1,0],[0,9E9,9E9,9E9,9E9,9E9]],v150,z20,custom_tool1\WObj:=WObj0;
MoveL [[25,550,38.8],[-0.174713,0.907209,0.375778,0.072368],[0,-1,-1,0],[0,9E9,9E9,9E9,9E9,9E9]],v150,z20,custom_tool1\WObj:=WObj0;
IF TestDI(Stavbar_opt) THEN
WaitDI Stavbar_opt, 0;
ENDIF
WaitTime 1.5;
SetDO Stavbar_Gripper_open, 0;
SetDO Stavbar_Gripper_close, 1;
WaitTime 1;
MoveL [[25,450,138.8],[-0.174713,0.907209,0.375778,0.072368],[0,-1,-1,0],[0,9E9,9E9,9E9,9E9,9E9]],v150,z20,custom_tool1\WObj:=WObj0;
MoveJ [[424.57,176.97,315.36],[0.320717,-0.233457,0.914293,-0.081892],[0,-1,-1,0],[0,9E9,9E9,9E9,9E9,9E9]],v150,z20,custom_tool1\WObj:=WObj0;
MoveJ [[424.57,176.97,315.36],[0.320717,-0.233457,0.914293,-0.081892],[0,-1,-1,0],[0,9E9,9E9,9E9,9E9,9E9]],v150,z20,custom_tool1\WObj:=WObj0;
MoveJ [[582.9,-103.44,227.5],[0,0.995559,0.094139,0],[0,-1,-1,0],[0,9E9,9E9,9E9,9E9,9E9]],v150,z20,custom_tool1\WObj:=WObj0;
MoveL [[582.9,-103.44,127.5],[0,0.995559,0.094139,0],[0,-1,-1,0],[0,9E9,9E9,9E9,9E9,9E9]],v150,z20,custom_tool1\WObj:=WObj0;
WaitTime 1.5;
SetDO Stavbar_Gripper_close, 0;
SetDO Stavbar_Gripper_open, 1;
WaitTime 1;
SetDO Stavbar_Gripper_open, 0;
MoveL [[582.9,-103.44,227.5],[0,0.995559,0.094139,0],[0,-1,-1,0],[0,9E9,9E9,9E9,9E9,9E9]],v150,z20,custom_tool1\WObj:=WObj0;
MoveJ [[424.57,176.97,315.36],[0.320717,-0.233457,0.914293,-0.081892],[0,-1,-1,0],[0,9E9,9E9,9E9,9E9,9E9]],v150,z20,custom_tool1\WObj:=WObj0;
MoveJ [[424.57,176.97,315.36],[0.320717,-0.233457,0.914293,-0.081892],[0,-1,-1,0],[0,9E9,9E9,9E9,9E9,9E9]],v150,z20,custom_tool1\WObj:=WObj0;
MoveJ [[25,450,138.8],[-0.174713,0.907209,0.375778,0.072368],[0,-1,-1,0],[0,9E9,9E9,9E9,9E9,9E9]],v150,z20,custom_tool1\WObj:=WObj0;
MoveL [[25,550,38.8],[-0.174713,0.907209,0.375778,0.072368],[0,-1,-1,0],[0,9E9,9E9,9E9,9E9,9E9]],v150,z20,custom_tool1\WObj:=WObj0;
IF TestDI(Stavbar_opt) THEN
WaitDI Stavbar_opt, 0;
ENDIF
WaitTime 1.5;
SetDO Stavbar_Gripper_open, 0;
SetDO Stavbar_Gripper_close, 1;
WaitTime 1;
MoveL [[25,450,138.8],[-0.174713,0.907209,0.375778,0.072368],[0,-1,-1,0],[0,9E9,9E9,9E9,9E9,9E9]],v150,z20,custom_tool1\WObj:=WObj0;
MoveJ [[424.57,176.97,315.36],[0.320717,-0.233457,0.914293,-0.081892],[0,-1,-1,0],[0,9E9,9E9,9E9,9E9,9E9]],v150,z20,custom_tool1\WObj:=WObj0;
MoveJ [[424.57,176.97,315.36],[0.320717,-0.233457,0.914293,-0.081892],[0,-1,-1,0],[0,9E9,9E9,9E9,9E9,9E9]],v150,z20,custom_tool1\WObj:=WObj0;
MoveJ [[476.93,-167.7,227.5],[0,0.944554,-0.328356,0],[0,-1,-1,0],[0,9E9,9E9,9E9,9E9,9E9]],v150,z20,custom_tool1\WObj:=WObj0;
MoveL [[476.93,-167.7,127.5],[0,0.944554,-0.328356,0],[0,-1,-1,0],[0,9E9,9E9,9E9,9E9,9E9]],v150,z20,custom_tool1\WObj:=WObj0;
WaitTime 1.5;
SetDO Stavbar_Gripper_close, 0;
SetDO Stavbar_Gripper_open, 1;
WaitTime 1;
SetDO Stavbar_Gripper_open, 0;
MoveL [[476.93,-167.7,227.5],[0,0.944554,-0.328356,0],[0,-1,-1,0],[0,9E9,9E9,9E9,9E9,9E9]],v150,z20,custom_tool1\WObj:=WObj0;
MoveJ [[424.57,176.97,315.36],[0.320717,-0.233457,0.914293,-0.081892],[0,-1,-1,0],[0,9E9,9E9,9E9,9E9,9E9]],v150,z20,custom_tool1\WObj:=WObj0;
MoveJ [[424.57,176.97,315.36],[0.320717,-0.233457,0.914293,-0.081892],[0,-1,-1,0],[0,9E9,9E9,9E9,9E9,9E9]],v150,z20,custom_tool1\WObj:=WObj0;
MoveJ [[25,450,138.8],[-0.174713,0.907209,0.375778,0.072368],[0,-1,-1,0],[0,9E9,9E9,9E9,9E9,9E9]],v150,z20,custom_tool1\WObj:=WObj0;
MoveL [[25,550,38.8],[-0.174713,0.907209,0.375778,0.072368],[0,-1,-1,0],[0,9E9,9E9,9E9,9E9,9E9]],v150,z20,custom_tool1\WObj:=WObj0;
IF TestDI(Stavbar_opt) THEN
WaitDI Stavbar_opt, 0;
ENDIF
WaitTime 1.5;
SetDO Stavbar_Gripper_open, 0;
SetDO Stavbar_Gripper_close, 1;
WaitTime 1;
MoveL [[25,450,138.8],[-0.174713,0.907209,0.375778,0.072368],[0,-1,-1,0],[0,9E9,9E9,9E9,9E9,9E9]],v150,z20,custom_tool1\WObj:=WObj0;
MoveJ [[424.57,176.97,315.36],[0.320717,-0.233457,0.914293,-0.081892],[0,-1,-1,0],[0,9E9,9E9,9E9,9E9,9E9]],v150,z20,custom_tool1\WObj:=WObj0;
MoveJ [[424.57,176.97,315.36],[0.320717,-0.233457,0.914293,-0.081892],[0,-1,-1,0],[0,9E9,9E9,9E9,9E9,9E9]],v150,z20,custom_tool1\WObj:=WObj0;
MoveJ [[359.01,-129.59,227.5],[0,0.691384,0.722487,0],[0,-1,-1,0],[0,9E9,9E9,9E9,9E9,9E9]],v150,z20,custom_tool1\WObj:=WObj0;
MoveL [[359.01,-129.59,127.5],[0,0.691384,0.722487,0],[0,-1,-1,0],[0,9E9,9E9,9E9,9E9,9E9]],v150,z20,custom_tool1\WObj:=WObj0;
WaitTime 1.5;
SetDO Stavbar_Gripper_close, 0;
SetDO Stavbar_Gripper_open, 1;
WaitTime 1;
SetDO Stavbar_Gripper_open, 0;
MoveL [[359.01,-129.59,227.5],[0,0.691384,0.722487,0],[0,-1,-1,0],[0,9E9,9E9,9E9,9E9,9E9]],v150,z20,custom_tool1\WObj:=WObj0;
MoveJ [[424.57,176.97,315.36],[0.320717,-0.233457,0.914293,-0.081892],[0,-1,-1,0],[0,9E9,9E9,9E9,9E9,9E9]],v150,z20,custom_tool1\WObj:=WObj0;
MoveJ [[424.57,176.97,315.36],[0.320717,-0.233457,0.914293,-0.081892],[0,-1,-1,0],[0,9E9,9E9,9E9,9E9,9E9]],v150,z20,custom_tool1\WObj:=WObj0;
MoveJ [[25,450,138.8],[-0.174713,0.907209,0.375778,0.072368],[0,-1,-1,0],[0,9E9,9E9,9E9,9E9,9E9]],v150,z20,custom_tool1\WObj:=WObj0;
MoveL [[25,550,38.8],[-0.174713,0.907209,0.375778,0.072368],[0,-1,-1,0],[0,9E9,9E9,9E9,9E9,9E9]],v150,z20,custom_tool1\WObj:=WObj0;
IF TestDI(Stavbar_opt) THEN
WaitDI Stavbar_opt, 0;
ENDIF
WaitTime 1.5;
SetDO Stavbar_Gripper_open, 0;
SetDO Stavbar_Gripper_close, 1;
WaitTime 1;
MoveL [[25,450,138.8],[-0.174713,0.907209,0.375778,0.072368],[0,-1,-1,0],[0,9E9,9E9,9E9,9E9,9E9]],v150,z20,custom_tool1\WObj:=WObj0;
MoveJ [[424.57,176.97,315.36],[0.320717,-0.233457,0.914293,-0.081892],[0,-1,-1,0],[0,9E9,9E9,9E9,9E9,9E9]],v150,z20,custom_tool1\WObj:=WObj0;
MoveJ [[424.57,176.97,315.36],[0.320717,-0.233457,0.914293,-0.081892],[0,-1,-1,0],[0,9E9,9E9,9E9,9E9,9E9]],v150,z20,custom_tool1\WObj:=WObj0;
MoveJ [[310.69,-15.47,227.5],[0,0.929201,0.369576,0],[0,-1,-1,0],[0,9E9,9E9,9E9,9E9,9E9]],v150,z20,custom_tool1\WObj:=WObj0;
MoveL [[310.69,-15.47,127.5],[0,0.929201,0.369576,0],[0,-1,-1,0],[0,9E9,9E9,9E9,9E9,9E9]],v150,z20,custom_tool1\WObj:=WObj0;
WaitTime 1.5;
SetDO Stavbar_Gripper_close, 0;
SetDO Stavbar_Gripper_open, 1;
WaitTime 1;
SetDO Stavbar_Gripper_open, 0;
MoveL [[310.69,-15.47,227.5],[0,0.929201,0.369576,0],[0,-1,-1,0],[0,9E9,9E9,9E9,9E9,9E9]],v150,z20,custom_tool1\WObj:=WObj0;
MoveJ [[424.57,176.97,315.36],[0.320717,-0.233457,0.914293,-0.081892],[0,-1,-1,0],[0,9E9,9E9,9E9,9E9,9E9]],v150,z20,custom_tool1\WObj:=WObj0;
MoveJ [[424.57,176.97,315.36],[0.320717,-0.233457,0.914293,-0.081892],[0,-1,-1,0],[0,9E9,9E9,9E9,9E9,9E9]],v150,z20,custom_tool1\WObj:=WObj0;
MoveJ [[25,450,138.8],[-0.174713,0.907209,0.375778,0.072368],[0,-1,-1,0],[0,9E9,9E9,9E9,9E9,9E9]],v150,z20,custom_tool1\WObj:=WObj0;
MoveL [[25,550,38.8],[-0.174713,0.907209,0.375778,0.072368],[0,-1,-1,0],[0,9E9,9E9,9E9,9E9,9E9]],v150,z20,custom_tool1\WObj:=WObj0;
IF TestDI(Stavbar_opt) THEN
WaitDI Stavbar_opt, 0;
ENDIF
WaitTime 1.5;
SetDO Stavbar_Gripper_open, 0;
SetDO Stavbar_Gripper_close, 1;
WaitTime 1;
MoveL [[25,450,138.8],[-0.174713,0.907209,0.375778,0.072368],[0,-1,-1,0],[0,9E9,9E9,9E9,9E9,9E9]],v150,z20,custom_tool1\WObj:=WObj0;
MoveJ [[424.57,176.97,315.36],[0.320717,-0.233457,0.914293,-0.081892],[0,-1,-1,0],[0,9E9,9E9,9E9,9E9,9E9]],v150,z20,custom_tool1\WObj:=WObj0;
MoveJ [[365.39,95.73,227.5],[0,0.998736,-0.050267,0],[0,-1,-1,0],[0,9E9,9E9,9E9,9E9,9E9]],v150,z20,custom_tool1\WObj:=WObj0;
MoveL [[365.39,95.73,127.5],[0,0.998736,-0.050267,0],[0,-1,-1,0],[0,9E9,9E9,9E9,9E9,9E9]],v150,z20,custom_tool1\WObj:=WObj0;
WaitTime 1.5;
SetDO Stavbar_Gripper_close, 0;
SetDO Stavbar_Gripper_open, 1;
WaitTime 1;
SetDO Stavbar_Gripper_open, 0;
MoveL [[365.39,95.73,227.5],[0,0.998736,-0.050267,0],[0,-1,-1,0],[0,9E9,9E9,9E9,9E9,9E9]],v150,z20,custom_tool1\WObj:=WObj0;
MoveJ [[424.57,176.97,315.36],[0.320717,-0.233457,0.914293,-0.081892],[0,-1,-1,0],[0,9E9,9E9,9E9,9E9,9E9]],v150,z20,custom_tool1\WObj:=WObj0;
MoveJ [[25,450,138.8],[-0.174713,0.907209,0.375778,0.072368],[0,-1,-1,0],[0,9E9,9E9,9E9,9E9,9E9]],v150,z20,custom_tool1\WObj:=WObj0;
MoveL [[25,550,38.8],[-0.174713,0.907209,0.375778,0.072368],[0,-1,-1,0],[0,9E9,9E9,9E9,9E9,9E9]],v150,z20,custom_tool1\WObj:=WObj0;
IF TestDI(Stavbar_opt) THEN
WaitDI Stavbar_opt, 0;
ENDIF
WaitTime 1.5;
SetDO Stavbar_Gripper_open, 0;
SetDO Stavbar_Gripper_close, 1;
WaitTime 1;
MoveL [[25,450,138.8],[-0.174713,0.907209,0.375778,0.072368],[0,-1,-1,0],[0,9E9,9E9,9E9,9E9,9E9]],v150,z20,custom_tool1\WObj:=WObj0;
MoveJ [[424.57,176.97,315.36],[0.320717,-0.233457,0.914293,-0.081892],[0,-1,-1,0],[0,9E9,9E9,9E9,9E9,9E9]],v150,z20,custom_tool1\WObj:=WObj0;
MoveJ [[463.14,129.29,250.5],[0,0.393482,0.919332,0],[0,-1,-1,0],[0,9E9,9E9,9E9,9E9,9E9]],v150,z20,custom_tool1\WObj:=WObj0;
MoveL [[463.14,129.29,150.5],[0,0.393482,0.919332,0],[0,-1,-1,0],[0,9E9,9E9,9E9,9E9,9E9]],v150,z20,custom_tool1\WObj:=WObj0;
WaitTime 1.5;
SetDO Stavbar_Gripper_close, 0;
SetDO Stavbar_Gripper_open, 1;
WaitTime 1;
SetDO Stavbar_Gripper_open, 0;
MoveL [[463.14,129.29,250.5],[0,0.393482,0.919332,0],[0,-1,-1,0],[0,9E9,9E9,9E9,9E9,9E9]],v150,z20,custom_tool1\WObj:=WObj0;
MoveJ [[424.57,176.97,315.36],[0.320717,-0.233457,0.914293,-0.081892],[0,-1,-1,0],[0,9E9,9E9,9E9,9E9,9E9]],v150,z20,custom_tool1\WObj:=WObj0;
MoveJ [[25,450,138.8],[-0.174713,0.907209,0.375778,0.072368],[0,-1,-1,0],[0,9E9,9E9,9E9,9E9,9E9]],v150,z20,custom_tool1\WObj:=WObj0;
MoveL [[25,550,38.8],[-0.174713,0.907209,0.375778,0.072368],[0,-1,-1,0],[0,9E9,9E9,9E9,9E9,9E9]],v150,z20,custom_tool1\WObj:=WObj0;
IF TestDI(Stavbar_opt) THEN
WaitDI Stavbar_opt, 0;
ENDIF
WaitTime 1.5;
SetDO Stavbar_Gripper_open, 0;
SetDO Stavbar_Gripper_close, 1;
WaitTime 1;
MoveL [[25,450,138.8],[-0.174713,0.907209,0.375778,0.072368],[0,-1,-1,0],[0,9E9,9E9,9E9,9E9,9E9]],v150,z20,custom_tool1\WObj:=WObj0;
MoveJ [[424.57,176.97,315.36],[0.320717,-0.233457,0.914293,-0.081892],[0,-1,-1,0],[0,9E9,9E9,9E9,9E9,9E9]],v150,z20,custom_tool1\WObj:=WObj0;
MoveJ [[574.6,75.13,250.5],[0,0.740125,0.672469,0],[0,-1,-1,0],[0,9E9,9E9,9E9,9E9,9E9]],v150,z20,custom_tool1\WObj:=WObj0;
MoveL [[574.6,75.13,150.5],[0,0.740125,0.672469,0],[0,-1,-1,0],[0,9E9,9E9,9E9,9E9,9E9]],v150,z20,custom_tool1\WObj:=WObj0;
WaitTime 1.5;
SetDO Stavbar_Gripper_close, 0;
SetDO Stavbar_Gripper_open, 1;
WaitTime 1;
SetDO Stavbar_Gripper_open, 0;
MoveL [[574.6,75.13,250.5],[0,0.740125,0.672469,0],[0,-1,-1,0],[0,9E9,9E9,9E9,9E9,9E9]],v150,z20,custom_tool1\WObj:=WObj0;
MoveJ [[424.57,176.97,315.36],[0.320717,-0.233457,0.914293,-0.081892],[0,-1,-1,0],[0,9E9,9E9,9E9,9E9,9E9]],v150,z20,custom_tool1\WObj:=WObj0;
MoveJ [[25,450,138.8],[-0.174713,0.907209,0.375778,0.072368],[0,-1,-1,0],[0,9E9,9E9,9E9,9E9,9E9]],v150,z20,custom_tool1\WObj:=WObj0;
MoveL [[25,550,38.8],[-0.174713,0.907209,0.375778,0.072368],[0,-1,-1,0],[0,9E9,9E9,9E9,9E9,9E9]],v150,z20,custom_tool1\WObj:=WObj0;
IF TestDI(Stavbar_opt) THEN
WaitDI Stavbar_opt, 0;
ENDIF
WaitTime 1.5;
SetDO Stavbar_Gripper_open, 0;
SetDO Stavbar_Gripper_close, 1;
WaitTime 1;
MoveL [[25,450,138.8],[-0.174713,0.907209,0.375778,0.072368],[0,-1,-1,0],[0,9E9,9E9,9E9,9E9,9E9]],v150,z20,custom_tool1\WObj:=WObj0;
MoveJ [[424.57,176.97,315.36],[0.320717,-0.233457,0.914293,-0.081892],[0,-1,-1,0],[0,9E9,9E9,9E9,9E9,9E9]],v150,z20,custom_tool1\WObj:=WObj0;
MoveJ [[424.57,176.97,315.36],[0.320717,-0.233457,0.914293,-0.081892],[0,-1,-1,0],[0,9E9,9E9,9E9,9E9,9E9]],v150,z20,custom_tool1\WObj:=WObj0;
MoveJ [[606.56,-44.61,250.5],[0,0.95273,0.303819,0],[0,-1,-1,0],[0,9E9,9E9,9E9,9E9,9E9]],v150,z20,custom_tool1\WObj:=WObj0;
MoveL [[606.56,-44.61,150.5],[0,0.95273,0.303819,0],[0,-1,-1,0],[0,9E9,9E9,9E9,9E9,9E9]],v150,z20,custom_tool1\WObj:=WObj0;
WaitTime 1.5;
SetDO Stavbar_Gripper_close, 0;
SetDO Stavbar_Gripper_open, 1;
WaitTime 1;
SetDO Stavbar_Gripper_open, 0;
MoveL [[606.56,-44.61,250.5],[0,0.95273,0.303819,0],[0,-1,-1,0],[0,9E9,9E9,9E9,9E9,9E9]],v150,z20,custom_tool1\WObj:=WObj0;
MoveJ [[424.57,176.97,315.36],[0.320717,-0.233457,0.914293,-0.081892],[0,-1,-1,0],[0,9E9,9E9,9E9,9E9,9E9]],v150,z20,custom_tool1\WObj:=WObj0;
MoveJ [[424.57,176.97,315.36],[0.320717,-0.233457,0.914293,-0.081892],[0,-1,-1,0],[0,9E9,9E9,9E9,9E9,9E9]],v150,z20,custom_tool1\WObj:=WObj0;
MoveJ [[25,450,138.8],[-0.174713,0.907209,0.375778,0.072368],[0,-1,-1,0],[0,9E9,9E9,9E9,9E9,9E9]],v150,z20,custom_tool1\WObj:=WObj0;
MoveL [[25,550,38.8],[-0.174713,0.907209,0.375778,0.072368],[0,-1,-1,0],[0,9E9,9E9,9E9,9E9,9E9]],v150,z20,custom_tool1\WObj:=WObj0;
IF TestDI(Stavbar_opt) THEN
WaitDI Stavbar_opt, 0;
ENDIF
WaitTime 1.5;
SetDO Stavbar_Gripper_open, 0;
SetDO Stavbar_Gripper_close, 1;
WaitTime 1;
MoveL [[25,450,138.8],[-0.174713,0.907209,0.375778,0.072368],[0,-1,-1,0],[0,9E9,9E9,9E9,9E9,9E9]],v150,z20,custom_tool1\WObj:=WObj0;
MoveJ [[424.57,176.97,315.36],[0.320717,-0.233457,0.914293,-0.081892],[0,-1,-1,0],[0,9E9,9E9,9E9,9E9,9E9]],v150,z20,custom_tool1\WObj:=WObj0;
MoveJ [[424.57,176.97,315.36],[0.320717,-0.233457,0.914293,-0.081892],[0,-1,-1,0],[0,9E9,9E9,9E9,9E9,9E9]],v150,z20,custom_tool1\WObj:=WObj0;
MoveJ [[536.91,-147.11,250.5],[0,0.992792,-0.119853,0],[0,-1,-1,0],[0,9E9,9E9,9E9,9E9,9E9]],v150,z20,custom_tool1\WObj:=WObj0;
MoveL [[536.91,-147.11,150.5],[0,0.992792,-0.119853,0],[0,-1,-1,0],[0,9E9,9E9,9E9,9E9,9E9]],v150,z20,custom_tool1\WObj:=WObj0;
WaitTime 1.5;
SetDO Stavbar_Gripper_close, 0;
SetDO Stavbar_Gripper_open, 1;
WaitTime 1;
SetDO Stavbar_Gripper_open, 0;
MoveL [[536.91,-147.11,250.5],[0,0.992792,-0.119853,0],[0,-1,-1,0],[0,9E9,9E9,9E9,9E9,9E9]],v150,z20,custom_tool1\WObj:=WObj0;
MoveJ [[424.57,176.97,315.36],[0.320717,-0.233457,0.914293,-0.081892],[0,-1,-1,0],[0,9E9,9E9,9E9,9E9,9E9]],v150,z20,custom_tool1\WObj:=WObj0;
MoveJ [[424.57,176.97,315.36],[0.320717,-0.233457,0.914293,-0.081892],[0,-1,-1,0],[0,9E9,9E9,9E9,9E9,9E9]],v150,z20,custom_tool1\WObj:=WObj0;
MoveJ [[25,450,138.8],[-0.174713,0.907209,0.375778,0.072368],[0,-1,-1,0],[0,9E9,9E9,9E9,9E9,9E9]],v150,z20,custom_tool1\WObj:=WObj0;
MoveL [[25,550,38.8],[-0.174713,0.907209,0.375778,0.072368],[0,-1,-1,0],[0,9E9,9E9,9E9,9E9,9E9]],v150,z20,custom_tool1\WObj:=WObj0;
IF TestDI(Stavbar_opt) THEN
WaitDI Stavbar_opt, 0;
ENDIF
WaitTime 1.5;
SetDO Stavbar_Gripper_open, 0;
SetDO Stavbar_Gripper_close, 1;
WaitTime 1;
MoveL [[25,450,138.8],[-0.174713,0.907209,0.375778,0.072368],[0,-1,-1,0],[0,9E9,9E9,9E9,9E9,9E9]],v150,z20,custom_tool1\WObj:=WObj0;
MoveJ [[424.57,176.97,315.36],[0.320717,-0.233457,0.914293,-0.081892],[0,-1,-1,0],[0,9E9,9E9,9E9,9E9,9E9]],v150,z20,custom_tool1\WObj:=WObj0;
MoveJ [[424.57,176.97,315.36],[0.320717,-0.233457,0.914293,-0.081892],[0,-1,-1,0],[0,9E9,9E9,9E9,9E9,9E9]],v150,z20,custom_tool1\WObj:=WObj0;
MoveJ [[413.82,-161.49,250.5],[0,0.52182,0.853056,0],[0,-1,-1,0],[0,9E9,9E9,9E9,9E9,9E9]],v150,z20,custom_tool1\WObj:=WObj0;
MoveL [[413.82,-161.49,150.5],[0,0.52182,0.853056,0],[0,-1,-1,0],[0,9E9,9E9,9E9,9E9,9E9]],v150,z20,custom_tool1\WObj:=WObj0;
WaitTime 1.5;
SetDO Stavbar_Gripper_close, 0;
SetDO Stavbar_Gripper_open, 1;
WaitTime 1;
SetDO Stavbar_Gripper_open, 0;
MoveL [[413.82,-161.49,250.5],[0,0.52182,0.853056,0],[0,-1,-1,0],[0,9E9,9E9,9E9,9E9,9E9]],v150,z20,custom_tool1\WObj:=WObj0;
MoveJ [[424.57,176.97,315.36],[0.320717,-0.233457,0.914293,-0.081892],[0,-1,-1,0],[0,9E9,9E9,9E9,9E9,9E9]],v150,z20,custom_tool1\WObj:=WObj0;
MoveJ [[424.57,176.97,315.36],[0.320717,-0.233457,0.914293,-0.081892],[0,-1,-1,0],[0,9E9,9E9,9E9,9E9,9E9]],v150,z20,custom_tool1\WObj:=WObj0;
MoveJ [[25,450,138.8],[-0.174713,0.907209,0.375778,0.072368],[0,-1,-1,0],[0,9E9,9E9,9E9,9E9,9E9]],v150,z20,custom_tool1\WObj:=WObj0;
MoveL [[25,550,38.8],[-0.174713,0.907209,0.375778,0.072368],[0,-1,-1,0],[0,9E9,9E9,9E9,9E9,9E9]],v150,z20,custom_tool1\WObj:=WObj0;
IF TestDI(Stavbar_opt) THEN
WaitDI Stavbar_opt, 0;
ENDIF
WaitTime 1.5;
SetDO Stavbar_Gripper_open, 0;
SetDO Stavbar_Gripper_close, 1;
WaitTime 1;
MoveL [[25,450,138.8],[-0.174713,0.907209,0.375778,0.072368],[0,-1,-1,0],[0,9E9,9E9,9E9,9E9,9E9]],v150,z20,custom_tool1\WObj:=WObj0;
MoveJ [[424.57,176.97,315.36],[0.320717,-0.233457,0.914293,-0.081892],[0,-1,-1,0],[0,9E9,9E9,9E9,9E9,9E9]],v150,z20,custom_tool1\WObj:=WObj0;
MoveJ [[424.57,176.97,315.36],[0.320717,-0.233457,0.914293,-0.081892],[0,-1,-1,0],[0,9E9,9E9,9E9,9E9,9E9]],v150,z20,custom_tool1\WObj:=WObj0;
MoveJ [[322.42,-77.79,250.5],[0,0.829283,0.558829,0],[0,-1,-1,0],[0,9E9,9E9,9E9,9E9,9E9]],v150,z20,custom_tool1\WObj:=WObj0;
MoveL [[322.42,-77.79,150.5],[0,0.829283,0.558829,0],[0,-1,-1,0],[0,9E9,9E9,9E9,9E9,9E9]],v150,z20,custom_tool1\WObj:=WObj0;
WaitTime 1.5;
SetDO Stavbar_Gripper_close, 0;
SetDO Stavbar_Gripper_open, 1;
WaitTime 1;
SetDO Stavbar_Gripper_open, 0;
MoveL [[322.42,-77.79,250.5],[0,0.829283,0.558829,0],[0,-1,-1,0],[0,9E9,9E9,9E9,9E9,9E9]],v150,z20,custom_tool1\WObj:=WObj0;
MoveJ [[424.57,176.97,315.36],[0.320717,-0.233457,0.914293,-0.081892],[0,-1,-1,0],[0,9E9,9E9,9E9,9E9,9E9]],v150,z20,custom_tool1\WObj:=WObj0;
MoveJ [[424.57,176.97,315.36],[0.320717,-0.233457,0.914293,-0.081892],[0,-1,-1,0],[0,9E9,9E9,9E9,9E9,9E9]],v150,z20,custom_tool1\WObj:=WObj0;
MoveJ [[25,450,138.8],[-0.174713,0.907209,0.375778,0.072368],[0,-1,-1,0],[0,9E9,9E9,9E9,9E9,9E9]],v150,z20,custom_tool1\WObj:=WObj0;
MoveL [[25,550,38.8],[-0.174713,0.907209,0.375778,0.072368],[0,-1,-1,0],[0,9E9,9E9,9E9,9E9,9E9]],v150,z20,custom_tool1\WObj:=WObj0;
IF TestDI(Stavbar_opt) THEN
WaitDI Stavbar_opt, 0;
ENDIF
WaitTime 1.5;
SetDO Stavbar_Gripper_open, 0;
SetDO Stavbar_Gripper_close, 1;
WaitTime 1;
MoveL [[25,450,138.8],[-0.174713,0.907209,0.375778,0.072368],[0,-1,-1,0],[0,9E9,9E9,9E9,9E9,9E9]],v150,z20,custom_tool1\WObj:=WObj0;
MoveJ [[424.57,176.97,315.36],[0.320717,-0.233457,0.914293,-0.081892],[0,-1,-1,0],[0,9E9,9E9,9E9,9E9,9E9]],v150,z20,custom_tool1\WObj:=WObj0;
MoveJ [[325.93,46.08,250.5],[0,0.986561,0.163396,0],[0,-1,-1,0],[0,9E9,9E9,9E9,9E9,9E9]],v150,z20,custom_tool1\WObj:=WObj0;
MoveL [[325.93,46.08,150.5],[0,0.986561,0.163396,0],[0,-1,-1,0],[0,9E9,9E9,9E9,9E9,9E9]],v150,z20,custom_tool1\WObj:=WObj0;
WaitTime 1.5;
SetDO Stavbar_Gripper_close, 0;
SetDO Stavbar_Gripper_open, 1;
WaitTime 1;
SetDO Stavbar_Gripper_open, 0;
MoveL [[325.93,46.08,250.5],[0,0.986561,0.163396,0],[0,-1,-1,0],[0,9E9,9E9,9E9,9E9,9E9]],v150,z20,custom_tool1\WObj:=WObj0;
MoveJ [[424.57,176.97,315.36],[0.320717,-0.233457,0.914293,-0.081892],[0,-1,-1,0],[0,9E9,9E9,9E9,9E9,9E9]],v150,z20,custom_tool1\WObj:=WObj0;
MoveJ [[25,450,138.8],[-0.174713,0.907209,0.375778,0.072368],[0,-1,-1,0],[0,9E9,9E9,9E9,9E9,9E9]],v150,z20,custom_tool1\WObj:=WObj0;
MoveJ [[-63,450,138.8],[-0.174713,0.907209,0.375778,0.072368],[0,-1,-1,0],[0,9E9,9E9,9E9,9E9,9E9]],v150,z20,custom_tool1\WObj:=WObj0;
MoveL [[-63,550,38.8],[-0.174713,0.907209,0.375778,0.072368],[0,-1,-1,0],[0,9E9,9E9,9E9,9E9,9E9]],v150,z20,custom_tool1\WObj:=WObj0;
IF TestDI(Stavbar_opt) THEN
WaitDI Stavbar_opt, 0;
ENDIF
WaitTime 1.5;
SetDO Stavbar_Gripper_open, 0;
SetDO Stavbar_Gripper_close, 1;
WaitTime 1;
MoveL [[-63,450,138.8],[-0.174713,0.907209,0.375778,0.072368],[0,-1,-1,0],[0,9E9,9E9,9E9,9E9,9E9]],v150,z20,custom_tool1\WObj:=WObj0;
MoveJ [[25,450,138.8],[-0.174713,0.907209,0.375778,0.072368],[0,-1,-1,0],[0,9E9,9E9,9E9,9E9,9E9]],v150,z20,custom_tool1\WObj:=WObj0;
MoveJ [[424.57,176.97,315.36],[0.320717,-0.233457,0.914293,-0.081892],[0,-1,-1,0],[0,9E9,9E9,9E9,9E9,9E9]],v150,z20,custom_tool1\WObj:=WObj0;
MoveJ [[377.78,105.85,250.5],[0,0.998736,-0.050267,0],[0,-1,-1,0],[0,9E9,9E9,9E9,9E9,9E9]],v150,z20,custom_tool1\WObj:=WObj0;
MoveL [[377.78,105.85,150.5],[0,0.998736,-0.050267,0],[0,-1,-1,0],[0,9E9,9E9,9E9,9E9,9E9]],v150,z20,custom_tool1\WObj:=WObj0;
WaitTime 1.5;
SetDO Stavbar_Gripper_close, 0;
SetDO Stavbar_Gripper_open, 1;
WaitTime 1;
SetDO Stavbar_Gripper_open, 0;
MoveL [[377.78,105.85,250.5],[0,0.998736,-0.050267,0],[0,-1,-1,0],[0,9E9,9E9,9E9,9E9,9E9]],v150,z20,custom_tool1\WObj:=WObj0;
MoveJ [[424.57,176.97,315.36],[0.320717,-0.233457,0.914293,-0.081892],[0,-1,-1,0],[0,9E9,9E9,9E9,9E9,9E9]],v150,z20,custom_tool1\WObj:=WObj0;
MoveJ [[25,450,138.8],[-0.174713,0.907209,0.375778,0.072368],[0,-1,-1,0],[0,9E9,9E9,9E9,9E9,9E9]],v150,z20,custom_tool1\WObj:=WObj0;
MoveJ [[-63,450,138.8],[-0.174713,0.907209,0.375778,0.072368],[0,-1,-1,0],[0,9E9,9E9,9E9,9E9,9E9]],v150,z20,custom_tool1\WObj:=WObj0;
MoveL [[-63,550,38.8],[-0.174713,0.907209,0.375778,0.072368],[0,-1,-1,0],[0,9E9,9E9,9E9,9E9,9E9]],v150,z20,custom_tool1\WObj:=WObj0;
IF TestDI(Stavbar_opt) THEN
WaitDI Stavbar_opt, 0;
ENDIF
WaitTime 1.5;
SetDO Stavbar_Gripper_open, 0;
SetDO Stavbar_Gripper_close, 1;
WaitTime 1;
MoveL [[-63,450,138.8],[-0.174713,0.907209,0.375778,0.072368],[0,-1,-1,0],[0,9E9,9E9,9E9,9E9,9E9]],v150,z20,custom_tool1\WObj:=WObj0;
MoveJ [[25,450,138.8],[-0.174713,0.907209,0.375778,0.072368],[0,-1,-1,0],[0,9E9,9E9,9E9,9E9,9E9]],v150,z20,custom_tool1\WObj:=WObj0;
MoveJ [[424.57,176.97,315.36],[0.320717,-0.233457,0.914293,-0.081892],[0,-1,-1,0],[0,9E9,9E9,9E9,9E9,9E9]],v150,z20,custom_tool1\WObj:=WObj0;
MoveJ [[447.14,129.66,273.5],[0,0.393482,0.919332,0],[0,-1,-1,0],[0,9E9,9E9,9E9,9E9,9E9]],v150,z20,custom_tool1\WObj:=WObj0;
MoveL [[447.14,129.66,173.5],[0,0.393482,0.919332,0],[0,-1,-1,0],[0,9E9,9E9,9E9,9E9,9E9]],v150,z20,custom_tool1\WObj:=WObj0;
WaitTime 1.5;
SetDO Stavbar_Gripper_close, 0;
SetDO Stavbar_Gripper_open, 1;
WaitTime 1;
SetDO Stavbar_Gripper_open, 0;
MoveL [[447.14,129.66,273.5],[0,0.393482,0.919332,0],[0,-1,-1,0],[0,9E9,9E9,9E9,9E9,9E9]],v150,z20,custom_tool1\WObj:=WObj0;
MoveJ [[424.57,176.97,315.36],[0.320717,-0.233457,0.914293,-0.081892],[0,-1,-1,0],[0,9E9,9E9,9E9,9E9,9E9]],v150,z20,custom_tool1\WObj:=WObj0;
MoveJ [[25,450,138.8],[-0.174713,0.907209,0.375778,0.072368],[0,-1,-1,0],[0,9E9,9E9,9E9,9E9,9E9]],v150,z20,custom_tool1\WObj:=WObj0;
MoveL [[25,550,38.8],[-0.174713,0.907209,0.375778,0.072368],[0,-1,-1,0],[0,9E9,9E9,9E9,9E9,9E9]],v150,z20,custom_tool1\WObj:=WObj0;
IF TestDI(Stavbar_opt) THEN
WaitDI Stavbar_opt, 0;
ENDIF
WaitTime 1.5;
SetDO Stavbar_Gripper_open, 0;
SetDO Stavbar_Gripper_close, 1;
WaitTime 1;
MoveL [[25,450,138.8],[-0.174713,0.907209,0.375778,0.072368],[0,-1,-1,0],[0,9E9,9E9,9E9,9E9,9E9]],v150,z20,custom_tool1\WObj:=WObj0;
MoveJ [[424.57,176.97,315.36],[0.320717,-0.233457,0.914293,-0.081892],[0,-1,-1,0],[0,9E9,9E9,9E9,9E9,9E9]],v150,z20,custom_tool1\WObj:=WObj0;
MoveJ [[524.77,114.34,273.5],[0,0.580087,0.814554,0],[0,-1,-1,0],[0,9E9,9E9,9E9,9E9,9E9]],v150,z20,custom_tool1\WObj:=WObj0;
MoveL [[524.77,114.34,173.5],[0,0.580087,0.814554,0],[0,-1,-1,0],[0,9E9,9E9,9E9,9E9,9E9]],v150,z20,custom_tool1\WObj:=WObj0;
WaitTime 1.5;
SetDO Stavbar_Gripper_close, 0;
SetDO Stavbar_Gripper_open, 1;
WaitTime 1;
SetDO Stavbar_Gripper_open, 0;
MoveL [[524.77,114.34,273.5],[0,0.580087,0.814554,0],[0,-1,-1,0],[0,9E9,9E9,9E9,9E9,9E9]],v150,z20,custom_tool1\WObj:=WObj0;
MoveJ [[424.57,176.97,315.36],[0.320717,-0.233457,0.914293,-0.081892],[0,-1,-1,0],[0,9E9,9E9,9E9,9E9,9E9]],v150,z20,custom_tool1\WObj:=WObj0;
MoveJ [[25,450,138.8],[-0.174713,0.907209,0.375778,0.072368],[0,-1,-1,0],[0,9E9,9E9,9E9,9E9,9E9]],v150,z20,custom_tool1\WObj:=WObj0;
MoveL [[25,550,38.8],[-0.174713,0.907209,0.375778,0.072368],[0,-1,-1,0],[0,9E9,9E9,9E9,9E9,9E9]],v150,z20,custom_tool1\WObj:=WObj0;
IF TestDI(Stavbar_opt) THEN
WaitDI Stavbar_opt, 0;
ENDIF
WaitTime 1.5;
SetDO Stavbar_Gripper_open, 0;
SetDO Stavbar_Gripper_close, 1;
WaitTime 1;
MoveL [[25,450,138.8],[-0.174713,0.907209,0.375778,0.072368],[0,-1,-1,0],[0,9E9,9E9,9E9,9E9,9E9]],v150,z20,custom_tool1\WObj:=WObj0;
MoveJ [[424.57,176.97,315.36],[0.320717,-0.233457,0.914293,-0.081892],[0,-1,-1,0],[0,9E9,9E9,9E9,9E9,9E9]],v150,z20,custom_tool1\WObj:=WObj0;
MoveJ [[603.62,18.74,273.5],[0,0.866265,0.499585,0],[0,-1,-1,0],[0,9E9,9E9,9E9,9E9,9E9]],v150,z20,custom_tool1\WObj:=WObj0;
MoveL [[603.62,18.74,173.5],[0,0.866265,0.499585,0],[0,-1,-1,0],[0,9E9,9E9,9E9,9E9,9E9]],v150,z20,custom_tool1\WObj:=WObj0;
WaitTime 1.5;
SetDO Stavbar_Gripper_close, 0;
SetDO Stavbar_Gripper_open, 1;
WaitTime 1;
SetDO Stavbar_Gripper_open, 0;
MoveL [[603.62,18.74,273.5],[0,0.866265,0.499585,0],[0,-1,-1,0],[0,9E9,9E9,9E9,9E9,9E9]],v150,z20,custom_tool1\WObj:=WObj0;
MoveJ [[424.57,176.97,315.36],[0.320717,-0.233457,0.914293,-0.081892],[0,-1,-1,0],[0,9E9,9E9,9E9,9E9,9E9]],v150,z20,custom_tool1\WObj:=WObj0;
MoveJ [[25,450,138.8],[-0.174713,0.907209,0.375778,0.072368],[0,-1,-1,0],[0,9E9,9E9,9E9,9E9,9E9]],v150,z20,custom_tool1\WObj:=WObj0;
MoveL [[25,550,38.8],[-0.174713,0.907209,0.375778,0.072368],[0,-1,-1,0],[0,9E9,9E9,9E9,9E9,9E9]],v150,z20,custom_tool1\WObj:=WObj0;
IF TestDI(Stavbar_opt) THEN
WaitDI Stavbar_opt, 0;
ENDIF
WaitTime 1.5;
SetDO Stavbar_Gripper_open, 0;
SetDO Stavbar_Gripper_close, 1;
WaitTime 1;
MoveL [[25,450,138.8],[-0.174713,0.907209,0.375778,0.072368],[0,-1,-1,0],[0,9E9,9E9,9E9,9E9,9E9]],v150,z20,custom_tool1\WObj:=WObj0;
MoveJ [[424.57,176.97,315.36],[0.320717,-0.233457,0.914293,-0.081892],[0,-1,-1,0],[0,9E9,9E9,9E9,9E9,9E9]],v150,z20,custom_tool1\WObj:=WObj0;
MoveJ [[424.57,176.97,315.36],[0.320717,-0.233457,0.914293,-0.081892],[0,-1,-1,0],[0,9E9,9E9,9E9,9E9,9E9]],v150,z20,custom_tool1\WObj:=WObj0;
MoveJ [[582.9,-103.44,273.5],[0,0.995559,0.094139,0],[0,-1,-1,0],[0,9E9,9E9,9E9,9E9,9E9]],v150,z20,custom_tool1\WObj:=WObj0;
MoveL [[582.9,-103.44,173.5],[0,0.995559,0.094139,0],[0,-1,-1,0],[0,9E9,9E9,9E9,9E9,9E9]],v150,z20,custom_tool1\WObj:=WObj0;
WaitTime 1.5;
SetDO Stavbar_Gripper_close, 0;
SetDO Stavbar_Gripper_open, 1;
WaitTime 1;
SetDO Stavbar_Gripper_open, 0;
MoveL [[582.9,-103.44,273.5],[0,0.995559,0.094139,0],[0,-1,-1,0],[0,9E9,9E9,9E9,9E9,9E9]],v150,z20,custom_tool1\WObj:=WObj0;
MoveJ [[424.57,176.97,315.36],[0.320717,-0.233457,0.914293,-0.081892],[0,-1,-1,0],[0,9E9,9E9,9E9,9E9,9E9]],v150,z20,custom_tool1\WObj:=WObj0;
MoveJ [[424.57,176.97,315.36],[0.320717,-0.233457,0.914293,-0.081892],[0,-1,-1,0],[0,9E9,9E9,9E9,9E9,9E9]],v150,z20,custom_tool1\WObj:=WObj0;
MoveJ [[25,450,138.8],[-0.174713,0.907209,0.375778,0.072368],[0,-1,-1,0],[0,9E9,9E9,9E9,9E9,9E9]],v150,z20,custom_tool1\WObj:=WObj0;
MoveL [[25,550,38.8],[-0.174713,0.907209,0.375778,0.072368],[0,-1,-1,0],[0,9E9,9E9,9E9,9E9,9E9]],v150,z20,custom_tool1\WObj:=WObj0;
IF TestDI(Stavbar_opt) THEN
WaitDI Stavbar_opt, 0;
ENDIF
WaitTime 1.5;
SetDO Stavbar_Gripper_open, 0;
SetDO Stavbar_Gripper_close, 1;
WaitTime 1;
MoveL [[25,450,138.8],[-0.174713,0.907209,0.375778,0.072368],[0,-1,-1,0],[0,9E9,9E9,9E9,9E9,9E9]],v150,z20,custom_tool1\WObj:=WObj0;
MoveJ [[424.57,176.97,315.36],[0.320717,-0.233457,0.914293,-0.081892],[0,-1,-1,0],[0,9E9,9E9,9E9,9E9,9E9]],v150,z20,custom_tool1\WObj:=WObj0;
MoveJ [[424.57,176.97,315.36],[0.320717,-0.233457,0.914293,-0.081892],[0,-1,-1,0],[0,9E9,9E9,9E9,9E9,9E9]],v150,z20,custom_tool1\WObj:=WObj0;
MoveJ [[476.93,-167.7,273.5],[0,0.944554,-0.328356,0],[0,-1,-1,0],[0,9E9,9E9,9E9,9E9,9E9]],v150,z20,custom_tool1\WObj:=WObj0;
MoveL [[476.93,-167.7,173.5],[0,0.944554,-0.328356,0],[0,-1,-1,0],[0,9E9,9E9,9E9,9E9,9E9]],v150,z20,custom_tool1\WObj:=WObj0;
WaitTime 1.5;
SetDO Stavbar_Gripper_close, 0;
SetDO Stavbar_Gripper_open, 1;
WaitTime 1;
SetDO Stavbar_Gripper_open, 0;
MoveL [[476.93,-167.7,273.5],[0,0.944554,-0.328356,0],[0,-1,-1,0],[0,9E9,9E9,9E9,9E9,9E9]],v150,z20,custom_tool1\WObj:=WObj0;
MoveJ [[424.57,176.97,315.36],[0.320717,-0.233457,0.914293,-0.081892],[0,-1,-1,0],[0,9E9,9E9,9E9,9E9,9E9]],v150,z20,custom_tool1\WObj:=WObj0;
MoveJ [[424.57,176.97,315.36],[0.320717,-0.233457,0.914293,-0.081892],[0,-1,-1,0],[0,9E9,9E9,9E9,9E9,9E9]],v150,z20,custom_tool1\WObj:=WObj0;
MoveJ [[25,450,138.8],[-0.174713,0.907209,0.375778,0.072368],[0,-1,-1,0],[0,9E9,9E9,9E9,9E9,9E9]],v150,z20,custom_tool1\WObj:=WObj0;
MoveL [[25,550,38.8],[-0.174713,0.907209,0.375778,0.072368],[0,-1,-1,0],[0,9E9,9E9,9E9,9E9,9E9]],v150,z20,custom_tool1\WObj:=WObj0;
IF TestDI(Stavbar_opt) THEN
WaitDI Stavbar_opt, 0;
ENDIF
WaitTime 1.5;
SetDO Stavbar_Gripper_open, 0;
SetDO Stavbar_Gripper_close, 1;
WaitTime 1;
MoveL [[25,450,138.8],[-0.174713,0.907209,0.375778,0.072368],[0,-1,-1,0],[0,9E9,9E9,9E9,9E9,9E9]],v150,z20,custom_tool1\WObj:=WObj0;
MoveJ [[424.57,176.97,315.36],[0.320717,-0.233457,0.914293,-0.081892],[0,-1,-1,0],[0,9E9,9E9,9E9,9E9,9E9]],v150,z20,custom_tool1\WObj:=WObj0;
MoveJ [[424.57,176.97,315.36],[0.320717,-0.233457,0.914293,-0.081892],[0,-1,-1,0],[0,9E9,9E9,9E9,9E9,9E9]],v150,z20,custom_tool1\WObj:=WObj0;
MoveJ [[359.01,-129.59,273.5],[0,0.691384,0.722487,0],[0,-1,-1,0],[0,9E9,9E9,9E9,9E9,9E9]],v150,z20,custom_tool1\WObj:=WObj0;
MoveL [[359.01,-129.59,173.5],[0,0.691384,0.722487,0],[0,-1,-1,0],[0,9E9,9E9,9E9,9E9,9E9]],v150,z20,custom_tool1\WObj:=WObj0;
WaitTime 1.5;
SetDO Stavbar_Gripper_close, 0;
SetDO Stavbar_Gripper_open, 1;
WaitTime 1;
SetDO Stavbar_Gripper_open, 0;
MoveL [[359.01,-129.59,273.5],[0,0.691384,0.722487,0],[0,-1,-1,0],[0,9E9,9E9,9E9,9E9,9E9]],v150,z20,custom_tool1\WObj:=WObj0;
MoveJ [[424.57,176.97,315.36],[0.320717,-0.233457,0.914293,-0.081892],[0,-1,-1,0],[0,9E9,9E9,9E9,9E9,9E9]],v150,z20,custom_tool1\WObj:=WObj0;
MoveJ [[424.57,176.97,315.36],[0.320717,-0.233457,0.914293,-0.081892],[0,-1,-1,0],[0,9E9,9E9,9E9,9E9,9E9]],v150,z20,custom_tool1\WObj:=WObj0;
MoveJ [[25,450,138.8],[-0.174713,0.907209,0.375778,0.072368],[0,-1,-1,0],[0,9E9,9E9,9E9,9E9,9E9]],v150,z20,custom_tool1\WObj:=WObj0;
MoveL [[25,550,38.8],[-0.174713,0.907209,0.375778,0.072368],[0,-1,-1,0],[0,9E9,9E9,9E9,9E9,9E9]],v150,z20,custom_tool1\WObj:=WObj0;
IF TestDI(Stavbar_opt) THEN
WaitDI Stavbar_opt, 0;
ENDIF
WaitTime 1.5;
SetDO Stavbar_Gripper_open, 0;
SetDO Stavbar_Gripper_close, 1;
WaitTime 1;
MoveL [[25,450,138.8],[-0.174713,0.907209,0.375778,0.072368],[0,-1,-1,0],[0,9E9,9E9,9E9,9E9,9E9]],v150,z20,custom_tool1\WObj:=WObj0;
MoveJ [[424.57,176.97,315.36],[0.320717,-0.233457,0.914293,-0.081892],[0,-1,-1,0],[0,9E9,9E9,9E9,9E9,9E9]],v150,z20,custom_tool1\WObj:=WObj0;
MoveJ [[424.57,176.97,315.36],[0.320717,-0.233457,0.914293,-0.081892],[0,-1,-1,0],[0,9E9,9E9,9E9,9E9,9E9]],v150,z20,custom_tool1\WObj:=WObj0;
MoveJ [[310.69,-15.47,273.5],[0,0.929201,0.369576,0],[0,-1,-1,0],[0,9E9,9E9,9E9,9E9,9E9]],v150,z20,custom_tool1\WObj:=WObj0;
MoveL [[310.69,-15.47,173.5],[0,0.929201,0.369576,0],[0,-1,-1,0],[0,9E9,9E9,9E9,9E9,9E9]],v150,z20,custom_tool1\WObj:=WObj0;
WaitTime 1.5;
SetDO Stavbar_Gripper_close, 0;
SetDO Stavbar_Gripper_open, 1;
WaitTime 1;
SetDO Stavbar_Gripper_open, 0;
MoveL [[310.69,-15.47,273.5],[0,0.929201,0.369576,0],[0,-1,-1,0],[0,9E9,9E9,9E9,9E9,9E9]],v150,z20,custom_tool1\WObj:=WObj0;
MoveJ [[424.57,176.97,315.36],[0.320717,-0.233457,0.914293,-0.081892],[0,-1,-1,0],[0,9E9,9E9,9E9,9E9,9E9]],v150,z20,custom_tool1\WObj:=WObj0;
MoveJ [[424.57,176.97,315.36],[0.320717,-0.233457,0.914293,-0.081892],[0,-1,-1,0],[0,9E9,9E9,9E9,9E9,9E9]],v150,z20,custom_tool1\WObj:=WObj0;
MoveJ [[25,450,138.8],[-0.174713,0.907209,0.375778,0.072368],[0,-1,-1,0],[0,9E9,9E9,9E9,9E9,9E9]],v150,z20,custom_tool1\WObj:=WObj0;
MoveL [[25,550,38.8],[-0.174713,0.907209,0.375778,0.072368],[0,-1,-1,0],[0,9E9,9E9,9E9,9E9,9E9]],v150,z20,custom_tool1\WObj:=WObj0;
IF TestDI(Stavbar_opt) THEN
WaitDI Stavbar_opt, 0;
ENDIF
WaitTime 1.5;
SetDO Stavbar_Gripper_open, 0;
SetDO Stavbar_Gripper_close, 1;
WaitTime 1;
MoveL [[25,450,138.8],[-0.174713,0.907209,0.375778,0.072368],[0,-1,-1,0],[0,9E9,9E9,9E9,9E9,9E9]],v150,z20,custom_tool1\WObj:=WObj0;
MoveJ [[424.57,176.97,315.36],[0.320717,-0.233457,0.914293,-0.081892],[0,-1,-1,0],[0,9E9,9E9,9E9,9E9,9E9]],v150,z20,custom_tool1\WObj:=WObj0;
MoveJ [[365.39,95.73,273.5],[0,0.998736,-0.050267,0],[0,-1,-1,0],[0,9E9,9E9,9E9,9E9,9E9]],v150,z20,custom_tool1\WObj:=WObj0;
MoveL [[365.39,95.73,173.5],[0,0.998736,-0.050267,0],[0,-1,-1,0],[0,9E9,9E9,9E9,9E9,9E9]],v150,z20,custom_tool1\WObj:=WObj0;
WaitTime 1.5;
SetDO Stavbar_Gripper_close, 0;
SetDO Stavbar_Gripper_open, 1;
WaitTime 1;
SetDO Stavbar_Gripper_open, 0;
MoveL [[365.39,95.73,273.5],[0,0.998736,-0.050267,0],[0,-1,-1,0],[0,9E9,9E9,9E9,9E9,9E9]],v150,z20,custom_tool1\WObj:=WObj0;
MoveJ [[424.57,176.97,315.36],[0.320717,-0.233457,0.914293,-0.081892],[0,-1,-1,0],[0,9E9,9E9,9E9,9E9,9E9]],v150,z20,custom_tool1\WObj:=WObj0;
MoveJ [[25,450,138.8],[-0.174713,0.907209,0.375778,0.072368],[0,-1,-1,0],[0,9E9,9E9,9E9,9E9,9E9]],v150,z20,custom_tool1\WObj:=WObj0;
MoveL [[25,550,38.8],[-0.174713,0.907209,0.375778,0.072368],[0,-1,-1,0],[0,9E9,9E9,9E9,9E9,9E9]],v150,z20,custom_tool1\WObj:=WObj0;
IF TestDI(Stavbar_opt) THEN
WaitDI Stavbar_opt, 0;
ENDIF
WaitTime 1.5;
SetDO Stavbar_Gripper_open, 0;
SetDO Stavbar_Gripper_close, 1;
WaitTime 1;
MoveL [[25,450,138.8],[-0.174713,0.907209,0.375778,0.072368],[0,-1,-1,0],[0,9E9,9E9,9E9,9E9,9E9]],v150,z20,custom_tool1\WObj:=WObj0;
MoveJ [[424.57,176.97,315.36],[0.320717,-0.233457,0.914293,-0.081892],[0,-1,-1,0],[0,9E9,9E9,9E9,9E9,9E9]],v150,z20,custom_tool1\WObj:=WObj0;
MoveJ [[463.14,129.29,296.5],[0,0.393482,0.919332,0],[0,-1,-1,0],[0,9E9,9E9,9E9,9E9,9E9]],v150,z20,custom_tool1\WObj:=WObj0;
MoveL [[463.14,129.29,196.5],[0,0.393482,0.919332,0],[0,-1,-1,0],[0,9E9,9E9,9E9,9E9,9E9]],v150,z20,custom_tool1\WObj:=WObj0;
WaitTime 1.5;
SetDO Stavbar_Gripper_close, 0;
SetDO Stavbar_Gripper_open, 1;
WaitTime 1;
SetDO Stavbar_Gripper_open, 0;
MoveL [[463.14,129.29,296.5],[0,0.393482,0.919332,0],[0,-1,-1,0],[0,9E9,9E9,9E9,9E9,9E9]],v150,z20,custom_tool1\WObj:=WObj0;
MoveJ [[424.57,176.97,315.36],[0.320717,-0.233457,0.914293,-0.081892],[0,-1,-1,0],[0,9E9,9E9,9E9,9E9,9E9]],v150,z20,custom_tool1\WObj:=WObj0;
MoveJ [[25,450,138.8],[-0.174713,0.907209,0.375778,0.072368],[0,-1,-1,0],[0,9E9,9E9,9E9,9E9,9E9]],v150,z20,custom_tool1\WObj:=WObj0;
MoveL [[25,550,38.8],[-0.174713,0.907209,0.375778,0.072368],[0,-1,-1,0],[0,9E9,9E9,9E9,9E9,9E9]],v150,z20,custom_tool1\WObj:=WObj0;
IF TestDI(Stavbar_opt) THEN
WaitDI Stavbar_opt, 0;
ENDIF
WaitTime 1.5;
SetDO Stavbar_Gripper_open, 0;
SetDO Stavbar_Gripper_close, 1;
WaitTime 1;
MoveL [[25,450,138.8],[-0.174713,0.907209,0.375778,0.072368],[0,-1,-1,0],[0,9E9,9E9,9E9,9E9,9E9]],v150,z20,custom_tool1\WObj:=WObj0;
MoveJ [[424.57,176.97,315.36],[0.320717,-0.233457,0.914293,-0.081892],[0,-1,-1,0],[0,9E9,9E9,9E9,9E9,9E9]],v150,z20,custom_tool1\WObj:=WObj0;
MoveJ [[574.6,75.13,296.5],[0,0.740125,0.672469,0],[0,-1,-1,0],[0,9E9,9E9,9E9,9E9,9E9]],v150,z20,custom_tool1\WObj:=WObj0;
MoveL [[574.6,75.13,196.5],[0,0.740125,0.672469,0],[0,-1,-1,0],[0,9E9,9E9,9E9,9E9,9E9]],v150,z20,custom_tool1\WObj:=WObj0;
WaitTime 1.5;
SetDO Stavbar_Gripper_close, 0;
SetDO Stavbar_Gripper_open, 1;
WaitTime 1;
SetDO Stavbar_Gripper_open, 0;
