! TACO Target Robot: T_ROB1
MODULE MainModule
VAR speeddata Work:= [100,20,5000,1000];
PERS tooldata custom_tool1 := [TRUE, [[-144.18,-154.4,34.77], [0.707107,0.5,-0.5,0]], [0.1,[0.10,0.00,0.00],[1,0,0,0],0,0,0]];
PROC Main()
ConfL \Off;
ConfJ \Off;
SetDO Stavbar_Gripper_close, 0;
SetDO Stavbar_Gripper_open, 1;
MoveJ [[25,450,138.8],[-0.174713,0.907209,0.375778,0.072368],[0,-1,-1,0],[0,9E9,9E9,9E9,9E9,9E9]],v150,z20,custom_tool1\WObj:=WObj0;
MoveL [[25,550,38.8],[-0.174713,0.907209,0.375778,0.072368],[0,-1,-1,0],[0,9E9,9E9,9E9,9E9,9E9]],v150,z20,custom_tool1\WObj:=WObj0;
IF TestDI(Stavbar_opt) THEN
WaitDI Stavbar_opt, 0;
ENDIF
WaitTime 1.5;
SetDO Stavbar_Gripper_open, 0;
SetDO Stavbar_Gripper_close, 1;
WaitTime 1;
MoveL [[25,450,138.8],[-0.174713,0.907209,0.375778,0.072368],[0,-1,-1,0],[0,9E9,9E9,9E9,9E9,9E9]],v150,z20,custom_tool1\WObj:=WObj0;
MoveJ [[424.57,176.97,302.86],[0.320717,-0.233457,0.914293,-0.081892],[0,-1,-1,0],[0,9E9,9E9,9E9,9E9,9E9]],v150,z20,custom_tool1\WObj:=WObj0;
MoveJ [[303.2,153.55,112.5],[0,0.923318,0.384037,0],[0,-1,-1,0],[0,9E9,9E9,9E9,9E9,9E9]],v150,z20,custom_tool1\WObj:=WObj0;
MoveL [[303.2,153.55,12.5],[0,0.923318,0.384037,0],[0,-1,-1,0],[0,9E9,9E9,9E9,9E9,9E9]],v150,z20,custom_tool1\WObj:=WObj0;
WaitTime 1.5;
SetDO Stavbar_Gripper_close, 0;
SetDO Stavbar_Gripper_open, 1;
WaitTime 1;
SetDO Stavbar_Gripper_open, 0;
MoveL [[303.2,153.55,112.5],[0,0.923318,0.384037,0],[0,-1,-1,0],[0,9E9,9E9,9E9,9E9,9E9]],v150,z20,custom_tool1\WObj:=WObj0;
MoveJ [[424.57,176.97,302.86],[0.320717,-0.233457,0.914293,-0.081892],[0,-1,-1,0],[0,9E9,9E9,9E9,9E9,9E9]],v150,z20,custom_tool1\WObj:=WObj0;
MoveJ [[25,450,138.8],[-0.174713,0.907209,0.375778,0.072368],[0,-1,-1,0],[0,9E9,9E9,9E9,9E9,9E9]],v150,z20,custom_tool1\WObj:=WObj0;
MoveL [[25,550,38.8],[-0.174713,0.907209,0.375778,0.072368],[0,-1,-1,0],[0,9E9,9E9,9E9,9E9,9E9]],v150,z20,custom_tool1\WObj:=WObj0;
IF TestDI(Stavbar_opt) THEN
WaitDI Stavbar_opt, 0;
ENDIF
WaitTime 1.5;
SetDO Stavbar_Gripper_open, 0;
SetDO Stavbar_Gripper_close, 1;
WaitTime 1;
MoveL [[25,450,138.8],[-0.174713,0.907209,0.375778,0.072368],[0,-1,-1,0],[0,9E9,9E9,9E9,9E9,9E9]],v150,z20,custom_tool1\WObj:=WObj0;
MoveJ [[424.57,176.97,302.86],[0.320717,-0.233457,0.914293,-0.081892],[0,-1,-1,0],[0,9E9,9E9,9E9,9E9,9E9]],v150,z20,custom_tool1\WObj:=WObj0;
MoveJ [[303.51,45.7,112.5],[0,0.923318,0.384037,0],[0,-1,-1,0],[0,9E9,9E9,9E9,9E9,9E9]],v150,z20,custom_tool1\WObj:=WObj0;
MoveL [[303.51,45.7,12.5],[0,0.923318,0.384037,0],[0,-1,-1,0],[0,9E9,9E9,9E9,9E9,9E9]],v150,z20,custom_tool1\WObj:=WObj0;
WaitTime 1.5;
SetDO Stavbar_Gripper_close, 0;
SetDO Stavbar_Gripper_open, 1;
WaitTime 1;
SetDO Stavbar_Gripper_open, 0;
MoveL [[303.51,45.7,112.5],[0,0.923318,0.384037,0],[0,-1,-1,0],[0,9E9,9E9,9E9,9E9,9E9]],v150,z20,custom_tool1\WObj:=WObj0;
MoveJ [[424.57,176.97,302.86],[0.320717,-0.233457,0.914293,-0.081892],[0,-1,-1,0],[0,9E9,9E9,9E9,9E9,9E9]],v150,z20,custom_tool1\WObj:=WObj0;
MoveJ [[25,450,138.8],[-0.174713,0.907209,0.375778,0.072368],[0,-1,-1,0],[0,9E9,9E9,9E9,9E9,9E9]],v150,z20,custom_tool1\WObj:=WObj0;
MoveL [[25,550,38.8],[-0.174713,0.907209,0.375778,0.072368],[0,-1,-1,0],[0,9E9,9E9,9E9,9E9,9E9]],v150,z20,custom_tool1\WObj:=WObj0;
IF TestDI(Stavbar_opt) THEN
WaitDI Stavbar_opt, 0;
ENDIF
WaitTime 1.5;
SetDO Stavbar_Gripper_open, 0;
SetDO Stavbar_Gripper_close, 1;
WaitTime 1;
MoveL [[25,450,138.8],[-0.174713,0.907209,0.375778,0.072368],[0,-1,-1,0],[0,9E9,9E9,9E9,9E9,9E9]],v150,z20,custom_tool1\WObj:=WObj0;
MoveJ [[424.57,176.97,302.86],[0.320717,-0.233457,0.914293,-0.081892],[0,-1,-1,0],[0,9E9,9E9,9E9,9E9,9E9]],v150,z20,custom_tool1\WObj:=WObj0;
MoveJ [[424.57,176.97,302.86],[0.320717,-0.233457,0.914293,-0.081892],[0,-1,-1,0],[0,9E9,9E9,9E9,9E9,9E9]],v150,z20,custom_tool1\WObj:=WObj0;
MoveJ [[303.83,-62.14,112.5],[0,0.923318,0.384037,0],[0,-1,-1,0],[0,9E9,9E9,9E9,9E9,9E9]],v150,z20,custom_tool1\WObj:=WObj0;
MoveL [[303.83,-62.14,12.5],[0,0.923318,0.384037,0],[0,-1,-1,0],[0,9E9,9E9,9E9,9E9,9E9]],v150,z20,custom_tool1\WObj:=WObj0;
WaitTime 1.5;
SetDO Stavbar_Gripper_close, 0;
SetDO Stavbar_Gripper_open, 1;
WaitTime 1;
SetDO Stavbar_Gripper_open, 0;
MoveL [[303.83,-62.14,112.5],[0,0.923318,0.384037,0],[0,-1,-1,0],[0,9E9,9E9,9E9,9E9,9E9]],v150,z20,custom_tool1\WObj:=WObj0;
MoveJ [[424.57,176.97,302.86],[0.320717,-0.233457,0.914293,-0.081892],[0,-1,-1,0],[0,9E9,9E9,9E9,9E9,9E9]],v150,z20,custom_tool1\WObj:=WObj0;
MoveJ [[424.57,176.97,302.86],[0.320717,-0.233457,0.914293,-0.081892],[0,-1,-1,0],[0,9E9,9E9,9E9,9E9,9E9]],v150,z20,custom_tool1\WObj:=WObj0;
MoveJ [[25,450,138.8],[-0.174713,0.907209,0.375778,0.072368],[0,-1,-1,0],[0,9E9,9E9,9E9,9E9,9E9]],v150,z20,custom_tool1\WObj:=WObj0;
MoveL [[25,550,38.8],[-0.174713,0.907209,0.375778,0.072368],[0,-1,-1,0],[0,9E9,9E9,9E9,9E9,9E9]],v150,z20,custom_tool1\WObj:=WObj0;
IF TestDI(Stavbar_opt) THEN
WaitDI Stavbar_opt, 0;
ENDIF
WaitTime 1.5;
SetDO Stavbar_Gripper_open, 0;
SetDO Stavbar_Gripper_close, 1;
WaitTime 1;
MoveL [[25,450,138.8],[-0.174713,0.907209,0.375778,0.072368],[0,-1,-1,0],[0,9E9,9E9,9E9,9E9,9E9]],v150,z20,custom_tool1\WObj:=WObj0;
MoveJ [[424.57,176.97,302.86],[0.320717,-0.233457,0.914293,-0.081892],[0,-1,-1,0],[0,9E9,9E9,9E9,9E9,9E9]],v150,z20,custom_tool1\WObj:=WObj0;
MoveJ [[424.57,176.97,302.86],[0.320717,-0.233457,0.914293,-0.081892],[0,-1,-1,0],[0,9E9,9E9,9E9,9E9,9E9]],v150,z20,custom_tool1\WObj:=WObj0;
MoveJ [[304.15,-169.99,112.5],[0,0.923318,0.384037,0],[0,-1,-1,0],[0,9E9,9E9,9E9,9E9,9E9]],v150,z20,custom_tool1\WObj:=WObj0;
MoveL [[304.15,-169.99,12.5],[0,0.923318,0.384037,0],[0,-1,-1,0],[0,9E9,9E9,9E9,9E9,9E9]],v150,z20,custom_tool1\WObj:=WObj0;
WaitTime 1.5;
SetDO Stavbar_Gripper_close, 0;
SetDO Stavbar_Gripper_open, 1;
WaitTime 1;
SetDO Stavbar_Gripper_open, 0;
MoveL [[304.15,-169.99,112.5],[0,0.923318,0.384037,0],[0,-1,-1,0],[0,9E9,9E9,9E9,9E9,9E9]],v150,z20,custom_tool1\WObj:=WObj0;
MoveJ [[424.57,176.97,302.86],[0.320717,-0.233457,0.914293,-0.081892],[0,-1,-1,0],[0,9E9,9E9,9E9,9E9,9E9]],v150,z20,custom_tool1\WObj:=WObj0;
MoveJ [[424.57,176.97,302.86],[0.320717,-0.233457,0.914293,-0.081892],[0,-1,-1,0],[0,9E9,9E9,9E9,9E9,9E9]],v150,z20,custom_tool1\WObj:=WObj0;
MoveJ [[25,450,138.8],[-0.174713,0.907209,0.375778,0.072368],[0,-1,-1,0],[0,9E9,9E9,9E9,9E9,9E9]],v150,z20,custom_tool1\WObj:=WObj0;
MoveL [[25,550,38.8],[-0.174713,0.907209,0.375778,0.072368],[0,-1,-1,0],[0,9E9,9E9,9E9,9E9,9E9]],v150,z20,custom_tool1\WObj:=WObj0;
IF TestDI(Stavbar_opt) THEN
WaitDI Stavbar_opt, 0;
ENDIF
WaitTime 1.5;
SetDO Stavbar_Gripper_open, 0;
SetDO Stavbar_Gripper_close, 1;
WaitTime 1;
MoveL [[25,450,138.8],[-0.174713,0.907209,0.375778,0.072368],[0,-1,-1,0],[0,9E9,9E9,9E9,9E9,9E9]],v150,z20,custom_tool1\WObj:=WObj0;
MoveJ [[424.57,176.97,302.86],[0.320717,-0.233457,0.914293,-0.081892],[0,-1,-1,0],[0,9E9,9E9,9E9,9E9,9E9]],v150,z20,custom_tool1\WObj:=WObj0;
MoveJ [[424.57,176.97,302.86],[0.320717,-0.233457,0.914293,-0.081892],[0,-1,-1,0],[0,9E9,9E9,9E9,9E9,9E9]],v150,z20,custom_tool1\WObj:=WObj0;
MoveJ [[338.79,-243.41,112.5],[0,0.382683,0.92388,0],[0,-1,-1,0],[0,9E9,9E9,9E9,9E9,9E9]],v150,z20,custom_tool1\WObj:=WObj0;
MoveL [[338.79,-243.41,12.5],[0,0.382683,0.92388,0],[0,-1,-1,0],[0,9E9,9E9,9E9,9E9,9E9]],v150,z20,custom_tool1\WObj:=WObj0;
WaitTime 1.5;
SetDO Stavbar_Gripper_close, 0;
SetDO Stavbar_Gripper_open, 1;
WaitTime 1;
SetDO Stavbar_Gripper_open, 0;
MoveL [[338.79,-243.41,112.5],[0,0.382683,0.92388,0],[0,-1,-1,0],[0,9E9,9E9,9E9,9E9,9E9]],v150,z20,custom_tool1\WObj:=WObj0;
MoveJ [[424.57,176.97,302.86],[0.320717,-0.233457,0.914293,-0.081892],[0,-1,-1,0],[0,9E9,9E9,9E9,9E9,9E9]],v150,z20,custom_tool1\WObj:=WObj0;
MoveJ [[424.57,176.97,302.86],[0.320717,-0.233457,0.914293,-0.081892],[0,-1,-1,0],[0,9E9,9E9,9E9,9E9,9E9]],v150,z20,custom_tool1\WObj:=WObj0;
MoveJ [[25,450,138.8],[-0.174713,0.907209,0.375778,0.072368],[0,-1,-1,0],[0,9E9,9E9,9E9,9E9,9E9]],v150,z20,custom_tool1\WObj:=WObj0;
MoveL [[25,550,38.8],[-0.174713,0.907209,0.375778,0.072368],[0,-1,-1,0],[0,9E9,9E9,9E9,9E9,9E9]],v150,z20,custom_tool1\WObj:=WObj0;
IF TestDI(Stavbar_opt) THEN
WaitDI Stavbar_opt, 0;
ENDIF
WaitTime 1.5;
SetDO Stavbar_Gripper_open, 0;
SetDO Stavbar_Gripper_close, 1;
WaitTime 1;
MoveL [[25,450,138.8],[-0.174713,0.907209,0.375778,0.072368],[0,-1,-1,0],[0,9E9,9E9,9E9,9E9,9E9]],v150,z20,custom_tool1\WObj:=WObj0;
MoveJ [[424.57,176.97,302.86],[0.320717,-0.233457,0.914293,-0.081892],[0,-1,-1,0],[0,9E9,9E9,9E9,9E9,9E9]],v150,z20,custom_tool1\WObj:=WObj0;
MoveJ [[424.57,176.97,302.86],[0.320717,-0.233457,0.914293,-0.081892],[0,-1,-1,0],[0,9E9,9E9,9E9,9E9,9E9]],v150,z20,custom_tool1\WObj:=WObj0;
MoveJ [[446.63,-243.41,112.5],[0,0.382683,0.92388,0],[0,-1,-1,0],[0,9E9,9E9,9E9,9E9,9E9]],v150,z20,custom_tool1\WObj:=WObj0;
MoveL [[446.63,-243.41,12.5],[0,0.382683,0.92388,0],[0,-1,-1,0],[0,9E9,9E9,9E9,9E9,9E9]],v150,z20,custom_tool1\WObj:=WObj0;
WaitTime 1.5;
SetDO Stavbar_Gripper_close, 0;
SetDO Stavbar_Gripper_open, 1;
WaitTime 1;
SetDO Stavbar_Gripper_open, 0;
MoveL [[446.63,-243.41,112.5],[0,0.382683,0.92388,0],[0,-1,-1,0],[0,9E9,9E9,9E9,9E9,9E9]],v150,z20,custom_tool1\WObj:=WObj0;
MoveJ [[424.57,176.97,302.86],[0.320717,-0.233457,0.914293,-0.081892],[0,-1,-1,0],[0,9E9,9E9,9E9,9E9,9E9]],v150,z20,custom_tool1\WObj:=WObj0;
MoveJ [[424.57,176.97,302.86],[0.320717,-0.233457,0.914293,-0.081892],[0,-1,-1,0],[0,9E9,9E9,9E9,9E9,9E9]],v150,z20,custom_tool1\WObj:=WObj0;
MoveJ [[25,450,138.8],[-0.174713,0.907209,0.375778,0.072368],[0,-1,-1,0],[0,9E9,9E9,9E9,9E9,9E9]],v150,z20,custom_tool1\WObj:=WObj0;
MoveL [[25,550,38.8],[-0.174713,0.907209,0.375778,0.072368],[0,-1,-1,0],[0,9E9,9E9,9E9,9E9,9E9]],v150,z20,custom_tool1\WObj:=WObj0;
IF TestDI(Stavbar_opt) THEN
WaitDI Stavbar_opt, 0;
ENDIF
WaitTime 1.5;
SetDO Stavbar_Gripper_open, 0;
SetDO Stavbar_Gripper_close, 1;
WaitTime 1;
MoveL [[25,450,138.8],[-0.174713,0.907209,0.375778,0.072368],[0,-1,-1,0],[0,9E9,9E9,9E9,9E9,9E9]],v150,z20,custom_tool1\WObj:=WObj0;
MoveJ [[424.57,176.97,302.86],[0.320717,-0.233457,0.914293,-0.081892],[0,-1,-1,0],[0,9E9,9E9,9E9,9E9,9E9]],v150,z20,custom_tool1\WObj:=WObj0;
MoveJ [[424.57,176.97,302.86],[0.320717,-0.233457,0.914293,-0.081892],[0,-1,-1,0],[0,9E9,9E9,9E9,9E9,9E9]],v150,z20,custom_tool1\WObj:=WObj0;
MoveJ [[453.71,-142.64,112.5],[0,0.92388,0.382683,0],[0,-1,-1,0],[0,9E9,9E9,9E9,9E9,9E9]],v150,z20,custom_tool1\WObj:=WObj0;
MoveL [[453.71,-142.64,12.5],[0,0.92388,0.382683,0],[0,-1,-1,0],[0,9E9,9E9,9E9,9E9,9E9]],v150,z20,custom_tool1\WObj:=WObj0;
WaitTime 1.5;
SetDO Stavbar_Gripper_close, 0;
SetDO Stavbar_Gripper_open, 1;
WaitTime 1;
SetDO Stavbar_Gripper_open, 0;
MoveL [[453.71,-142.64,112.5],[0,0.92388,0.382683,0],[0,-1,-1,0],[0,9E9,9E9,9E9,9E9,9E9]],v150,z20,custom_tool1\WObj:=WObj0;
MoveJ [[424.57,176.97,302.86],[0.320717,-0.233457,0.914293,-0.081892],[0,-1,-1,0],[0,9E9,9E9,9E9,9E9,9E9]],v150,z20,custom_tool1\WObj:=WObj0;
MoveJ [[424.57,176.97,302.86],[0.320717,-0.233457,0.914293,-0.081892],[0,-1,-1,0],[0,9E9,9E9,9E9,9E9,9E9]],v150,z20,custom_tool1\WObj:=WObj0;
MoveJ [[25,450,138.8],[-0.174713,0.907209,0.375778,0.072368],[0,-1,-1,0],[0,9E9,9E9,9E9,9E9,9E9]],v150,z20,custom_tool1\WObj:=WObj0;
MoveL [[25,550,38.8],[-0.174713,0.907209,0.375778,0.072368],[0,-1,-1,0],[0,9E9,9E9,9E9,9E9,9E9]],v150,z20,custom_tool1\WObj:=WObj0;
IF TestDI(Stavbar_opt) THEN
WaitDI Stavbar_opt, 0;
ENDIF
WaitTime 1.5;
SetDO Stavbar_Gripper_open, 0;
SetDO Stavbar_Gripper_close, 1;
WaitTime 1;
MoveL [[25,450,138.8],[-0.174713,0.907209,0.375778,0.072368],[0,-1,-1,0],[0,9E9,9E9,9E9,9E9,9E9]],v150,z20,custom_tool1\WObj:=WObj0;
MoveJ [[424.57,176.97,302.86],[0.320717,-0.233457,0.914293,-0.081892],[0,-1,-1,0],[0,9E9,9E9,9E9,9E9,9E9]],v150,z20,custom_tool1\WObj:=WObj0;
MoveJ [[424.57,176.97,302.86],[0.320717,-0.233457,0.914293,-0.081892],[0,-1,-1,0],[0,9E9,9E9,9E9,9E9,9E9]],v150,z20,custom_tool1\WObj:=WObj0;
MoveJ [[453.71,-34.79,112.5],[0,0.92388,0.382683,0],[0,-1,-1,0],[0,9E9,9E9,9E9,9E9,9E9]],v150,z20,custom_tool1\WObj:=WObj0;
MoveL [[453.71,-34.79,12.5],[0,0.92388,0.382683,0],[0,-1,-1,0],[0,9E9,9E9,9E9,9E9,9E9]],v150,z20,custom_tool1\WObj:=WObj0;
WaitTime 1.5;
SetDO Stavbar_Gripper_close, 0;
SetDO Stavbar_Gripper_open, 1;
WaitTime 1;
SetDO Stavbar_Gripper_open, 0;
MoveL [[453.71,-34.79,112.5],[0,0.92388,0.382683,0],[0,-1,-1,0],[0,9E9,9E9,9E9,9E9,9E9]],v150,z20,custom_tool1\WObj:=WObj0;
MoveJ [[424.57,176.97,302.86],[0.320717,-0.233457,0.914293,-0.081892],[0,-1,-1,0],[0,9E9,9E9,9E9,9E9,9E9]],v150,z20,custom_tool1\WObj:=WObj0;
MoveJ [[424.57,176.97,302.86],[0.320717,-0.233457,0.914293,-0.081892],[0,-1,-1,0],[0,9E9,9E9,9E9,9E9,9E9]],v150,z20,custom_tool1\WObj:=WObj0;
MoveJ [[25,450,138.8],[-0.174713,0.907209,0.375778,0.072368],[0,-1,-1,0],[0,9E9,9E9,9E9,9E9,9E9]],v150,z20,custom_tool1\WObj:=WObj0;
MoveL [[25,550,38.8],[-0.174713,0.907209,0.375778,0.072368],[0,-1,-1,0],[0,9E9,9E9,9E9,9E9,9E9]],v150,z20,custom_tool1\WObj:=WObj0;
IF TestDI(Stavbar_opt) THEN
WaitDI Stavbar_opt, 0;
ENDIF
WaitTime 1.5;
SetDO Stavbar_Gripper_open, 0;
SetDO Stavbar_Gripper_close, 1;
WaitTime 1;
MoveL [[25,450,138.8],[-0.174713,0.907209,0.375778,0.072368],[0,-1,-1,0],[0,9E9,9E9,9E9,9E9,9E9]],v150,z20,custom_tool1\WObj:=WObj0;
MoveJ [[424.57,176.97,302.86],[0.320717,-0.233457,0.914293,-0.081892],[0,-1,-1,0],[0,9E9,9E9,9E9,9E9,9E9]],v150,z20,custom_tool1\WObj:=WObj0;
MoveJ [[453.71,73.05,112.5],[0,0.92388,0.382683,0],[0,-1,-1,0],[0,9E9,9E9,9E9,9E9,9E9]],v150,z20,custom_tool1\WObj:=WObj0;
MoveL [[453.71,73.05,12.5],[0,0.92388,0.382683,0],[0,-1,-1,0],[0,9E9,9E9,9E9,9E9,9E9]],v150,z20,custom_tool1\WObj:=WObj0;
WaitTime 1.5;
SetDO Stavbar_Gripper_close, 0;
SetDO Stavbar_Gripper_open, 1;
WaitTime 1;
SetDO Stavbar_Gripper_open, 0;
MoveL [[453.71,73.05,112.5],[0,0.92388,0.382683,0],[0,-1,-1,0],[0,9E9,9E9,9E9,9E9,9E9]],v150,z20,custom_tool1\WObj:=WObj0;
MoveJ [[424.57,176.97,302.86],[0.320717,-0.233457,0.914293,-0.081892],[0,-1,-1,0],[0,9E9,9E9,9E9,9E9,9E9]],v150,z20,custom_tool1\WObj:=WObj0;
MoveJ [[25,450,138.8],[-0.174713,0.907209,0.375778,0.072368],[0,-1,-1,0],[0,9E9,9E9,9E9,9E9,9E9]],v150,z20,custom_tool1\WObj:=WObj0;
MoveL [[25,550,38.8],[-0.174713,0.907209,0.375778,0.072368],[0,-1,-1,0],[0,9E9,9E9,9E9,9E9,9E9]],v150,z20,custom_tool1\WObj:=WObj0;
IF TestDI(Stavbar_opt) THEN
WaitDI Stavbar_opt, 0;
ENDIF
WaitTime 1.5;
SetDO Stavbar_Gripper_open, 0;
SetDO Stavbar_Gripper_close, 1;
WaitTime 1;
MoveL [[25,450,138.8],[-0.174713,0.907209,0.375778,0.072368],[0,-1,-1,0],[0,9E9,9E9,9E9,9E9,9E9]],v150,z20,custom_tool1\WObj:=WObj0;
MoveJ [[424.57,176.97,302.86],[0.320717,-0.233457,0.914293,-0.081892],[0,-1,-1,0],[0,9E9,9E9,9E9,9E9,9E9]],v150,z20,custom_tool1\WObj:=WObj0;
MoveJ [[445.57,172.6,112.5],[0,0.927427,-0.374004,0],[0,-1,-1,0],[0,9E9,9E9,9E9,9E9,9E9]],v150,z20,custom_tool1\WObj:=WObj0;
MoveL [[445.57,172.6,12.5],[0,0.927427,-0.374004,0],[0,-1,-1,0],[0,9E9,9E9,9E9,9E9,9E9]],v150,z20,custom_tool1\WObj:=WObj0;
WaitTime 1.5;
SetDO Stavbar_Gripper_close, 0;
SetDO Stavbar_Gripper_open, 1;
WaitTime 1;
SetDO Stavbar_Gripper_open, 0;
MoveL [[445.57,172.6,112.5],[0,0.927427,-0.374004,0],[0,-1,-1,0],[0,9E9,9E9,9E9,9E9,9E9]],v150,z20,custom_tool1\WObj:=WObj0;
MoveJ [[424.57,176.97,302.86],[0.320717,-0.233457,0.914293,-0.081892],[0,-1,-1,0],[0,9E9,9E9,9E9,9E9,9E9]],v150,z20,custom_tool1\WObj:=WObj0;
MoveJ [[25,450,138.8],[-0.174713,0.907209,0.375778,0.072368],[0,-1,-1,0],[0,9E9,9E9,9E9,9E9,9E9]],v150,z20,custom_tool1\WObj:=WObj0;
MoveJ [[-63,450,138.8],[-0.174713,0.907209,0.375778,0.072368],[0,-1,-1,0],[0,9E9,9E9,9E9,9E9,9E9]],v150,z20,custom_tool1\WObj:=WObj0;
MoveL [[-63,550,38.8],[-0.174713,0.907209,0.375778,0.072368],[0,-1,-1,0],[0,9E9,9E9,9E9,9E9,9E9]],v150,z20,custom_tool1\WObj:=WObj0;
IF TestDI(Stavbar_opt) THEN
WaitDI Stavbar_opt, 0;
ENDIF
WaitTime 1.5;
SetDO Stavbar_Gripper_open, 0;
SetDO Stavbar_Gripper_close, 1;
WaitTime 1;
MoveL [[-63,450,138.8],[-0.174713,0.907209,0.375778,0.072368],[0,-1,-1,0],[0,9E9,9E9,9E9,9E9,9E9]],v150,z20,custom_tool1\WObj:=WObj0;
MoveJ [[25,450,138.8],[-0.174713,0.907209,0.375778,0.072368],[0,-1,-1,0],[0,9E9,9E9,9E9,9E9,9E9]],v150,z20,custom_tool1\WObj:=WObj0;
MoveJ [[424.57,176.97,302.86],[0.320717,-0.233457,0.914293,-0.081892],[0,-1,-1,0],[0,9E9,9E9,9E9,9E9,9E9]],v150,z20,custom_tool1\WObj:=WObj0;
MoveJ [[375.65,171.29,112.5],[0,0.927427,-0.374004,0],[0,-1,-1,0],[0,9E9,9E9,9E9,9E9,9E9]],v150,z20,custom_tool1\WObj:=WObj0;
MoveL [[375.65,171.29,12.5],[0,0.927427,-0.374004,0],[0,-1,-1,0],[0,9E9,9E9,9E9,9E9,9E9]],v150,z20,custom_tool1\WObj:=WObj0;
WaitTime 1.5;
SetDO Stavbar_Gripper_close, 0;
SetDO Stavbar_Gripper_open, 1;
WaitTime 1;
SetDO Stavbar_Gripper_open, 0;
MoveL [[375.65,171.29,112.5],[0,0.927427,-0.374004,0],[0,-1,-1,0],[0,9E9,9E9,9E9,9E9,9E9]],v150,z20,custom_tool1\WObj:=WObj0;
MoveJ [[424.57,176.97,302.86],[0.320717,-0.233457,0.914293,-0.081892],[0,-1,-1,0],[0,9E9,9E9,9E9,9E9,9E9]],v150,z20,custom_tool1\WObj:=WObj0;
MoveJ [[25,450,138.8],[-0.174713,0.907209,0.375778,0.072368],[0,-1,-1,0],[0,9E9,9E9,9E9,9E9,9E9]],v150,z20,custom_tool1\WObj:=WObj0;
MoveJ [[-63,450,138.8],[-0.174713,0.907209,0.375778,0.072368],[0,-1,-1,0],[0,9E9,9E9,9E9,9E9,9E9]],v150,z20,custom_tool1\WObj:=WObj0;
MoveL [[-63,550,38.8],[-0.174713,0.907209,0.375778,0.072368],[0,-1,-1,0],[0,9E9,9E9,9E9,9E9,9E9]],v150,z20,custom_tool1\WObj:=WObj0;
IF TestDI(Stavbar_opt) THEN
WaitDI Stavbar_opt, 0;
ENDIF
WaitTime 1.5;
SetDO Stavbar_Gripper_open, 0;
SetDO Stavbar_Gripper_close, 1;
WaitTime 1;
MoveL [[-63,450,138.8],[-0.174713,0.907209,0.375778,0.072368],[0,-1,-1,0],[0,9E9,9E9,9E9,9E9,9E9]],v150,z20,custom_tool1\WObj:=WObj0;
MoveJ [[25,450,138.8],[-0.174713,0.907209,0.375778,0.072368],[0,-1,-1,0],[0,9E9,9E9,9E9,9E9,9E9]],v150,z20,custom_tool1\WObj:=WObj0;
MoveJ [[424.57,176.97,302.86],[0.320717,-0.233457,0.914293,-0.081892],[0,-1,-1,0],[0,9E9,9E9,9E9,9E9,9E9]],v150,z20,custom_tool1\WObj:=WObj0;
MoveJ [[303.15,169.55,135.5],[0,0.923318,0.384037,0],[0,-1,-1,0],[0,9E9,9E9,9E9,9E9,9E9]],v150,z20,custom_tool1\WObj:=WObj0;
MoveL [[303.15,169.55,35.5],[0,0.923318,0.384037,0],[0,-1,-1,0],[0,9E9,9E9,9E9,9E9,9E9]],v150,z20,custom_tool1\WObj:=WObj0;
WaitTime 1.5;
SetDO Stavbar_Gripper_close, 0;
SetDO Stavbar_Gripper_open, 1;
WaitTime 1;
SetDO Stavbar_Gripper_open, 0;
MoveL [[303.15,169.55,135.5],[0,0.923318,0.384037,0],[0,-1,-1,0],[0,9E9,9E9,9E9,9E9,9E9]],v150,z20,custom_tool1\WObj:=WObj0;
MoveJ [[424.57,176.97,302.86],[0.320717,-0.233457,0.914293,-0.081892],[0,-1,-1,0],[0,9E9,9E9,9E9,9E9,9E9]],v150,z20,custom_tool1\WObj:=WObj0;
MoveJ [[25,450,138.8],[-0.174713,0.907209,0.375778,0.072368],[0,-1,-1,0],[0,9E9,9E9,9E9,9E9,9E9]],v150,z20,custom_tool1\WObj:=WObj0;
MoveL [[25,550,38.8],[-0.174713,0.907209,0.375778,0.072368],[0,-1,-1,0],[0,9E9,9E9,9E9,9E9,9E9]],v150,z20,custom_tool1\WObj:=WObj0;
IF TestDI(Stavbar_opt) THEN
WaitDI Stavbar_opt, 0;
ENDIF
WaitTime 1.5;
SetDO Stavbar_Gripper_open, 0;
SetDO Stavbar_Gripper_close, 1;
WaitTime 1;
MoveL [[25,450,138.8],[-0.174713,0.907209,0.375778,0.072368],[0,-1,-1,0],[0,9E9,9E9,9E9,9E9,9E9]],v150,z20,custom_tool1\WObj:=WObj0;
MoveJ [[424.57,176.97,302.86],[0.320717,-0.233457,0.914293,-0.081892],[0,-1,-1,0],[0,9E9,9E9,9E9,9E9,9E9]],v150,z20,custom_tool1\WObj:=WObj0;
MoveJ [[303.36,99.63,135.5],[0,0.923318,0.384037,0],[0,-1,-1,0],[0,9E9,9E9,9E9,9E9,9E9]],v150,z20,custom_tool1\WObj:=WObj0;
MoveL [[303.36,99.63,35.5],[0,0.923318,0.384037,0],[0,-1,-1,0],[0,9E9,9E9,9E9,9E9,9E9]],v150,z20,custom_tool1\WObj:=WObj0;
WaitTime 1.5;
SetDO Stavbar_Gripper_close, 0;
SetDO Stavbar_Gripper_open, 1;
WaitTime 1;
SetDO Stavbar_Gripper_open, 0;
MoveL [[303.36,99.63,135.5],[0,0.923318,0.384037,0],[0,-1,-1,0],[0,9E9,9E9,9E9,9E9,9E9]],v150,z20,custom_tool1\WObj:=WObj0;
MoveJ [[424.57,176.97,302.86],[0.320717,-0.233457,0.914293,-0.081892],[0,-1,-1,0],[0,9E9,9E9,9E9,9E9,9E9]],v150,z20,custom_tool1\WObj:=WObj0;
MoveJ [[25,450,138.8],[-0.174713,0.907209,0.375778,0.072368],[0,-1,-1,0],[0,9E9,9E9,9E9,9E9,9E9]],v150,z20,custom_tool1\WObj:=WObj0;
MoveL [[25,550,38.8],[-0.174713,0.907209,0.375778,0.072368],[0,-1,-1,0],[0,9E9,9E9,9E9,9E9,9E9]],v150,z20,custom_tool1\WObj:=WObj0;
IF TestDI(Stavbar_opt) THEN
WaitDI Stavbar_opt, 0;
ENDIF
WaitTime 1.5;
SetDO Stavbar_Gripper_open, 0;
SetDO Stavbar_Gripper_close, 1;
WaitTime 1;
MoveL [[25,450,138.8],[-0.174713,0.907209,0.375778,0.072368],[0,-1,-1,0],[0,9E9,9E9,9E9,9E9,9E9]],v150,z20,custom_tool1\WObj:=WObj0;
MoveJ [[424.57,176.97,302.86],[0.320717,-0.233457,0.914293,-0.081892],[0,-1,-1,0],[0,9E9,9E9,9E9,9E9,9E9]],v150,z20,custom_tool1\WObj:=WObj0;
MoveJ [[424.57,176.97,302.86],[0.320717,-0.233457,0.914293,-0.081892],[0,-1,-1,0],[0,9E9,9E9,9E9,9E9,9E9]],v150,z20,custom_tool1\WObj:=WObj0;
MoveJ [[303.67,-8.22,135.5],[0,0.923318,0.384037,0],[0,-1,-1,0],[0,9E9,9E9,9E9,9E9,9E9]],v150,z20,custom_tool1\WObj:=WObj0;
MoveL [[303.67,-8.22,35.5],[0,0.923318,0.384037,0],[0,-1,-1,0],[0,9E9,9E9,9E9,9E9,9E9]],v150,z20,custom_tool1\WObj:=WObj0;
WaitTime 1.5;
SetDO Stavbar_Gripper_close, 0;
SetDO Stavbar_Gripper_open, 1;
WaitTime 1;
SetDO Stavbar_Gripper_open, 0;
MoveL [[303.67,-8.22,135.5],[0,0.923318,0.384037,0],[0,-1,-1,0],[0,9E9,9E9,9E9,9E9,9E9]],v150,z20,custom_tool1\WObj:=WObj0;
MoveJ [[424.57,176.97,302.86],[0.320717,-0.233457,0.914293,-0.081892],[0,-1,-1,0],[0,9E9,9E9,9E9,9E9,9E9]],v150,z20,custom_tool1\WObj:=WObj0;
MoveJ [[424.57,176.97,302.86],[0.320717,-0.233457,0.914293,-0.081892],[0,-1,-1,0],[0,9E9,9E9,9E9,9E9,9E9]],v150,z20,custom_tool1\WObj:=WObj0;
MoveJ [[25,450,138.8],[-0.174713,0.907209,0.375778,0.072368],[0,-1,-1,0],[0,9E9,9E9,9E9,9E9,9E9]],v150,z20,custom_tool1\WObj:=WObj0;
MoveL [[25,550,38.8],[-0.174713,0.907209,0.375778,0.072368],[0,-1,-1,0],[0,9E9,9E9,9E9,9E9,9E9]],v150,z20,custom_tool1\WObj:=WObj0;
IF TestDI(Stavbar_opt) THEN
WaitDI Stavbar_opt, 0;
ENDIF
WaitTime 1.5;
SetDO Stavbar_Gripper_open, 0;
SetDO Stavbar_Gripper_close, 1;
WaitTime 1;
MoveL [[25,450,138.8],[-0.174713,0.907209,0.375778,0.072368],[0,-1,-1,0],[0,9E9,9E9,9E9,9E9,9E9]],v150,z20,custom_tool1\WObj:=WObj0;
MoveJ [[424.57,176.97,302.86],[0.320717,-0.233457,0.914293,-0.081892],[0,-1,-1,0],[0,9E9,9E9,9E9,9E9,9E9]],v150,z20,custom_tool1\WObj:=WObj0;
MoveJ [[424.57,176.97,302.86],[0.320717,-0.233457,0.914293,-0.081892],[0,-1,-1,0],[0,9E9,9E9,9E9,9E9,9E9]],v150,z20,custom_tool1\WObj:=WObj0;
MoveJ [[303.99,-116.06,135.5],[0,0.923318,0.384037,0],[0,-1,-1,0],[0,9E9,9E9,9E9,9E9,9E9]],v150,z20,custom_tool1\WObj:=WObj0;
MoveL [[303.99,-116.06,35.5],[0,0.923318,0.384037,0],[0,-1,-1,0],[0,9E9,9E9,9E9,9E9,9E9]],v150,z20,custom_tool1\WObj:=WObj0;
WaitTime 1.5;
SetDO Stavbar_Gripper_close, 0;
SetDO Stavbar_Gripper_open, 1;
WaitTime 1;
SetDO Stavbar_Gripper_open, 0;
MoveL [[303.99,-116.06,135.5],[0,0.923318,0.384037,0],[0,-1,-1,0],[0,9E9,9E9,9E9,9E9,9E9]],v150,z20,custom_tool1\WObj:=WObj0;
MoveJ [[424.57,176.97,302.86],[0.320717,-0.233457,0.914293,-0.081892],[0,-1,-1,0],[0,9E9,9E9,9E9,9E9,9E9]],v150,z20,custom_tool1\WObj:=WObj0;
MoveJ [[424.57,176.97,302.86],[0.320717,-0.233457,0.914293,-0.081892],[0,-1,-1,0],[0,9E9,9E9,9E9,9E9,9E9]],v150,z20,custom_tool1\WObj:=WObj0;
MoveJ [[25,450,138.8],[-0.174713,0.907209,0.375778,0.072368],[0,-1,-1,0],[0,9E9,9E9,9E9,9E9,9E9]],v150,z20,custom_tool1\WObj:=WObj0;
MoveL [[25,550,38.8],[-0.174713,0.907209,0.375778,0.072368],[0,-1,-1,0],[0,9E9,9E9,9E9,9E9,9E9]],v150,z20,custom_tool1\WObj:=WObj0;
IF TestDI(Stavbar_opt) THEN
WaitDI Stavbar_opt, 0;
ENDIF
WaitTime 1.5;
SetDO Stavbar_Gripper_open, 0;
SetDO Stavbar_Gripper_close, 1;
WaitTime 1;
MoveL [[25,450,138.8],[-0.174713,0.907209,0.375778,0.072368],[0,-1,-1,0],[0,9E9,9E9,9E9,9E9,9E9]],v150,z20,custom_tool1\WObj:=WObj0;
MoveJ [[424.57,176.97,302.86],[0.320717,-0.233457,0.914293,-0.081892],[0,-1,-1,0],[0,9E9,9E9,9E9,9E9,9E9]],v150,z20,custom_tool1\WObj:=WObj0;
MoveJ [[424.57,176.97,302.86],[0.320717,-0.233457,0.914293,-0.081892],[0,-1,-1,0],[0,9E9,9E9,9E9,9E9,9E9]],v150,z20,custom_tool1\WObj:=WObj0;
MoveJ [[304.3,-223.91,135.5],[0,0.923318,0.384037,0],[0,-1,-1,0],[0,9E9,9E9,9E9,9E9,9E9]],v150,z20,custom_tool1\WObj:=WObj0;
MoveL [[304.3,-223.91,35.5],[0,0.923318,0.384037,0],[0,-1,-1,0],[0,9E9,9E9,9E9,9E9,9E9]],v150,z20,custom_tool1\WObj:=WObj0;
WaitTime 1.5;
SetDO Stavbar_Gripper_close, 0;
SetDO Stavbar_Gripper_open, 1;
WaitTime 1;
SetDO Stavbar_Gripper_open, 0;
MoveL [[304.3,-223.91,135.5],[0,0.923318,0.384037,0],[0,-1,-1,0],[0,9E9,9E9,9E9,9E9,9E9]],v150,z20,custom_tool1\WObj:=WObj0;
MoveJ [[424.57,176.97,302.86],[0.320717,-0.233457,0.914293,-0.081892],[0,-1,-1,0],[0,9E9,9E9,9E9,9E9,9E9]],v150,z20,custom_tool1\WObj:=WObj0;
MoveJ [[424.57,176.97,302.86],[0.320717,-0.233457,0.914293,-0.081892],[0,-1,-1,0],[0,9E9,9E9,9E9,9E9,9E9]],v150,z20,custom_tool1\WObj:=WObj0;
MoveJ [[25,450,138.8],[-0.174713,0.907209,0.375778,0.072368],[0,-1,-1,0],[0,9E9,9E9,9E9,9E9,9E9]],v150,z20,custom_tool1\WObj:=WObj0;
MoveL [[25,550,38.8],[-0.174713,0.907209,0.375778,0.072368],[0,-1,-1,0],[0,9E9,9E9,9E9,9E9,9E9]],v150,z20,custom_tool1\WObj:=WObj0;
IF TestDI(Stavbar_opt) THEN
WaitDI Stavbar_opt, 0;
ENDIF
WaitTime 1.5;
SetDO Stavbar_Gripper_open, 0;
SetDO Stavbar_Gripper_close, 1;
WaitTime 1;
MoveL [[25,450,138.8],[-0.174713,0.907209,0.375778,0.072368],[0,-1,-1,0],[0,9E9,9E9,9E9,9E9,9E9]],v150,z20,custom_tool1\WObj:=WObj0;
MoveJ [[424.57,176.97,302.86],[0.320717,-0.233457,0.914293,-0.081892],[0,-1,-1,0],[0,9E9,9E9,9E9,9E9,9E9]],v150,z20,custom_tool1\WObj:=WObj0;
MoveJ [[424.57,176.97,302.86],[0.320717,-0.233457,0.914293,-0.081892],[0,-1,-1,0],[0,9E9,9E9,9E9,9E9,9E9]],v150,z20,custom_tool1\WObj:=WObj0;
MoveJ [[392.71,-243.41,135.5],[0,0.382683,0.92388,0],[0,-1,-1,0],[0,9E9,9E9,9E9,9E9,9E9]],v150,z20,custom_tool1\WObj:=WObj0;
MoveL [[392.71,-243.41,35.5],[0,0.382683,0.92388,0],[0,-1,-1,0],[0,9E9,9E9,9E9,9E9,9E9]],v150,z20,custom_tool1\WObj:=WObj0;
WaitTime 1.5;
SetDO Stavbar_Gripper_close, 0;
SetDO Stavbar_Gripper_open, 1;
WaitTime 1;
SetDO Stavbar_Gripper_open, 0;
MoveL [[392.71,-243.41,135.5],[0,0.382683,0.92388,0],[0,-1,-1,0],[0,9E9,9E9,9E9,9E9,9E9]],v150,z20,custom_tool1\WObj:=WObj0;
MoveJ [[424.57,176.97,302.86],[0.320717,-0.233457,0.914293,-0.081892],[0,-1,-1,0],[0,9E9,9E9,9E9,9E9,9E9]],v150,z20,custom_tool1\WObj:=WObj0;
MoveJ [[424.57,176.97,302.86],[0.320717,-0.233457,0.914293,-0.081892],[0,-1,-1,0],[0,9E9,9E9,9E9,9E9,9E9]],v150,z20,custom_tool1\WObj:=WObj0;
MoveJ [[25,450,138.8],[-0.174713,0.907209,0.375778,0.072368],[0,-1,-1,0],[0,9E9,9E9,9E9,9E9,9E9]],v150,z20,custom_tool1\WObj:=WObj0;
MoveL [[25,550,38.8],[-0.174713,0.907209,0.375778,0.072368],[0,-1,-1,0],[0,9E9,9E9,9E9,9E9,9E9]],v150,z20,custom_tool1\WObj:=WObj0;
IF TestDI(Stavbar_opt) THEN
WaitDI Stavbar_opt, 0;
ENDIF
WaitTime 1.5;
SetDO Stavbar_Gripper_open, 0;
SetDO Stavbar_Gripper_close, 1;
WaitTime 1;
MoveL [[25,450,138.8],[-0.174713,0.907209,0.375778,0.072368],[0,-1,-1,0],[0,9E9,9E9,9E9,9E9,9E9]],v150,z20,custom_tool1\WObj:=WObj0;
MoveJ [[424.57,176.97,302.86],[0.320717,-0.233457,0.914293,-0.081892],[0,-1,-1,0],[0,9E9,9E9,9E9,9E9,9E9]],v150,z20,custom_tool1\WObj:=WObj0;
MoveJ [[424.57,176.97,302.86],[0.320717,-0.233457,0.914293,-0.081892],[0,-1,-1,0],[0,9E9,9E9,9E9,9E9,9E9]],v150,z20,custom_tool1\WObj:=WObj0;
MoveJ [[453.71,-196.56,135.5],[0,0.92388,0.382683,0],[0,-1,-1,0],[0,9E9,9E9,9E9,9E9,9E9]],v150,z20,custom_tool1\WObj:=WObj0;
MoveL [[453.71,-196.56,35.5],[0,0.92388,0.382683,0],[0,-1,-1,0],[0,9E9,9E9,9E9,9E9,9E9]],v150,z20,custom_tool1\WObj:=WObj0;
WaitTime 1.5;
SetDO Stavbar_Gripper_close, 0;
SetDO Stavbar_Gripper_open, 1;
WaitTime 1;
SetDO Stavbar_Gripper_open, 0;
MoveL [[453.71,-196.56,135.5],[0,0.92388,0.382683,0],[0,-1,-1,0],[0,9E9,9E9,9E9,9E9,9E9]],v150,z20,custom_tool1\WObj:=WObj0;
MoveJ [[424.57,176.97,302.86],[0.320717,-0.233457,0.914293,-0.081892],[0,-1,-1,0],[0,9E9,9E9,9E9,9E9,9E9]],v150,z20,custom_tool1\WObj:=WObj0;
MoveJ [[424.57,176.97,302.86],[0.320717,-0.233457,0.914293,-0.081892],[0,-1,-1,0],[0,9E9,9E9,9E9,9E9,9E9]],v150,z20,custom_tool1\WObj:=WObj0;
MoveJ [[25,450,138.8],[-0.174713,0.907209,0.375778,0.072368],[0,-1,-1,0],[0,9E9,9E9,9E9,9E9,9E9]],v150,z20,custom_tool1\WObj:=WObj0;
MoveL [[25,550,38.8],[-0.174713,0.907209,0.375778,0.072368],[0,-1,-1,0],[0,9E9,9E9,9E9,9E9,9E9]],v150,z20,custom_tool1\WObj:=WObj0;
IF TestDI(Stavbar_opt) THEN
WaitDI Stavbar_opt, 0;
ENDIF
WaitTime 1.5;
SetDO Stavbar_Gripper_open, 0;
SetDO Stavbar_Gripper_close, 1;
WaitTime 1;
MoveL [[25,450,138.8],[-0.174713,0.907209,0.375778,0.072368],[0,-1,-1,0],[0,9E9,9E9,9E9,9E9,9E9]],v150,z20,custom_tool1\WObj:=WObj0;
MoveJ [[424.57,176.97,302.86],[0.320717,-0.233457,0.914293,-0.081892],[0,-1,-1,0],[0,9E9,9E9,9E9,9E9,9E9]],v150,z20,custom_tool1\WObj:=WObj0;
MoveJ [[424.57,176.97,302.86],[0.320717,-0.233457,0.914293,-0.081892],[0,-1,-1,0],[0,9E9,9E9,9E9,9E9,9E9]],v150,z20,custom_tool1\WObj:=WObj0;
MoveJ [[453.71,-88.71,135.5],[0,0.92388,0.382683,0],[0,-1,-1,0],[0,9E9,9E9,9E9,9E9,9E9]],v150,z20,custom_tool1\WObj:=WObj0;
MoveL [[453.71,-88.71,35.5],[0,0.92388,0.382683,0],[0,-1,-1,0],[0,9E9,9E9,9E9,9E9,9E9]],v150,z20,custom_tool1\WObj:=WObj0;
WaitTime 1.5;
SetDO Stavbar_Gripper_close, 0;
SetDO Stavbar_Gripper_open, 1;
WaitTime 1;
SetDO Stavbar_Gripper_open, 0;
MoveL [[453.71,-88.71,135.5],[0,0.92388,0.382683,0],[0,-1,-1,0],[0,9E9,9E9,9E9,9E9,9E9]],v150,z20,custom_tool1\WObj:=WObj0;
MoveJ [[424.57,176.97,302.86],[0.320717,-0.233457,0.914293,-0.081892],[0,-1,-1,0],[0,9E9,9E9,9E9,9E9,9E9]],v150,z20,custom_tool1\WObj:=WObj0;
MoveJ [[424.57,176.97,302.86],[0.320717,-0.233457,0.914293,-0.081892],[0,-1,-1,0],[0,9E9,9E9,9E9,9E9,9E9]],v150,z20,custom_tool1\WObj:=WObj0;
MoveJ [[25,450,138.8],[-0.174713,0.907209,0.375778,0.072368],[0,-1,-1,0],[0,9E9,9E9,9E9,9E9,9E9]],v150,z20,custom_tool1\WObj:=WObj0;
MoveL [[25,550,38.8],[-0.174713,0.907209,0.375778,0.072368],[0,-1,-1,0],[0,9E9,9E9,9E9,9E9,9E9]],v150,z20,custom_tool1\WObj:=WObj0;
IF TestDI(Stavbar_opt) THEN
WaitDI Stavbar_opt, 0;
ENDIF
WaitTime 1.5;
SetDO Stavbar_Gripper_open, 0;
SetDO Stavbar_Gripper_close, 1;
WaitTime 1;
MoveL [[25,450,138.8],[-0.174713,0.907209,0.375778,0.072368],[0,-1,-1,0],[0,9E9,9E9,9E9,9E9,9E9]],v150,z20,custom_tool1\WObj:=WObj0;
MoveJ [[424.57,176.97,302.86],[0.320717,-0.233457,0.914293,-0.081892],[0,-1,-1,0],[0,9E9,9E9,9E9,9E9,9E9]],v150,z20,custom_tool1\WObj:=WObj0;
MoveJ [[453.71,19.13,135.5],[0,0.92388,0.382683,0],[0,-1,-1,0],[0,9E9,9E9,9E9,9E9,9E9]],v150,z20,custom_tool1\WObj:=WObj0;
MoveL [[453.71,19.13,35.5],[0,0.92388,0.382683,0],[0,-1,-1,0],[0,9E9,9E9,9E9,9E9,9E9]],v150,z20,custom_tool1\WObj:=WObj0;
WaitTime 1.5;
SetDO Stavbar_Gripper_close, 0;
SetDO Stavbar_Gripper_open, 1;
WaitTime 1;
SetDO Stavbar_Gripper_open, 0;
MoveL [[453.71,19.13,135.5],[0,0.92388,0.382683,0],[0,-1,-1,0],[0,9E9,9E9,9E9,9E9,9E9]],v150,z20,custom_tool1\WObj:=WObj0;
MoveJ [[424.57,176.97,302.86],[0.320717,-0.233457,0.914293,-0.081892],[0,-1,-1,0],[0,9E9,9E9,9E9,9E9,9E9]],v150,z20,custom_tool1\WObj:=WObj0;
MoveJ [[25,450,138.8],[-0.174713,0.907209,0.375778,0.072368],[0,-1,-1,0],[0,9E9,9E9,9E9,9E9,9E9]],v150,z20,custom_tool1\WObj:=WObj0;
MoveL [[25,550,38.8],[-0.174713,0.907209,0.375778,0.072368],[0,-1,-1,0],[0,9E9,9E9,9E9,9E9,9E9]],v150,z20,custom_tool1\WObj:=WObj0;
IF TestDI(Stavbar_opt) THEN
WaitDI Stavbar_opt, 0;
ENDIF
WaitTime 1.5;
SetDO Stavbar_Gripper_open, 0;
SetDO Stavbar_Gripper_close, 1;
WaitTime 1;
MoveL [[25,450,138.8],[-0.174713,0.907209,0.375778,0.072368],[0,-1,-1,0],[0,9E9,9E9,9E9,9E9,9E9]],v150,z20,custom_tool1\WObj:=WObj0;
MoveJ [[424.57,176.97,302.86],[0.320717,-0.233457,0.914293,-0.081892],[0,-1,-1,0],[0,9E9,9E9,9E9,9E9,9E9]],v150,z20,custom_tool1\WObj:=WObj0;
MoveJ [[453.71,126.98,135.5],[0,0.92388,0.382683,0],[0,-1,-1,0],[0,9E9,9E9,9E9,9E9,9E9]],v150,z20,custom_tool1\WObj:=WObj0;
MoveL [[453.71,126.98,35.5],[0,0.92388,0.382683,0],[0,-1,-1,0],[0,9E9,9E9,9E9,9E9,9E9]],v150,z20,custom_tool1\WObj:=WObj0;
WaitTime 1.5;
SetDO Stavbar_Gripper_close, 0;
SetDO Stavbar_Gripper_open, 1;
WaitTime 1;
SetDO Stavbar_Gripper_open, 0;
MoveL [[453.71,126.98,135.5],[0,0.92388,0.382683,0],[0,-1,-1,0],[0,9E9,9E9,9E9,9E9,9E9]],v150,z20,custom_tool1\WObj:=WObj0;
MoveJ [[424.57,176.97,302.86],[0.320717,-0.233457,0.914293,-0.081892],[0,-1,-1,0],[0,9E9,9E9,9E9,9E9,9E9]],v150,z20,custom_tool1\WObj:=WObj0;
MoveJ [[25,450,138.8],[-0.174713,0.907209,0.375778,0.072368],[0,-1,-1,0],[0,9E9,9E9,9E9,9E9,9E9]],v150,z20,custom_tool1\WObj:=WObj0;
MoveL [[25,550,38.8],[-0.174713,0.907209,0.375778,0.072368],[0,-1,-1,0],[0,9E9,9E9,9E9,9E9,9E9]],v150,z20,custom_tool1\WObj:=WObj0;
IF TestDI(Stavbar_opt) THEN
WaitDI Stavbar_opt, 0;
ENDIF
WaitTime 1.5;
SetDO Stavbar_Gripper_open, 0;
SetDO Stavbar_Gripper_close, 1;
WaitTime 1;
MoveL [[25,450,138.8],[-0.174713,0.907209,0.375778,0.072368],[0,-1,-1,0],[0,9E9,9E9,9E9,9E9,9E9]],v150,z20,custom_tool1\WObj:=WObj0;
MoveJ [[424.57,176.97,302.86],[0.320717,-0.233457,0.914293,-0.081892],[0,-1,-1,0],[0,9E9,9E9,9E9,9E9,9E9]],v150,z20,custom_tool1\WObj:=WObj0;
MoveJ [[391.65,171.59,135.5],[0,0.927427,-0.374004,0],[0,-1,-1,0],[0,9E9,9E9,9E9,9E9,9E9]],v150,z20,custom_tool1\WObj:=WObj0;
MoveL [[391.65,171.59,35.5],[0,0.927427,-0.374004,0],[0,-1,-1,0],[0,9E9,9E9,9E9,9E9,9E9]],v150,z20,custom_tool1\WObj:=WObj0;
WaitTime 1.5;
SetDO Stavbar_Gripper_close, 0;
SetDO Stavbar_Gripper_open, 1;
WaitTime 1;
SetDO Stavbar_Gripper_open, 0;
MoveL [[391.65,171.59,135.5],[0,0.927427,-0.374004,0],[0,-1,-1,0],[0,9E9,9E9,9E9,9E9,9E9]],v150,z20,custom_tool1\WObj:=WObj0;
MoveJ [[424.57,176.97,302.86],[0.320717,-0.233457,0.914293,-0.081892],[0,-1,-1,0],[0,9E9,9E9,9E9,9E9,9E9]],v150,z20,custom_tool1\WObj:=WObj0;
MoveJ [[25,450,138.8],[-0.174713,0.907209,0.375778,0.072368],[0,-1,-1,0],[0,9E9,9E9,9E9,9E9,9E9]],v150,z20,custom_tool1\WObj:=WObj0;
MoveL [[25,550,38.8],[-0.174713,0.907209,0.375778,0.072368],[0,-1,-1,0],[0,9E9,9E9,9E9,9E9,9E9]],v150,z20,custom_tool1\WObj:=WObj0;
IF TestDI(Stavbar_opt) THEN
WaitDI Stavbar_opt, 0;
ENDIF
WaitTime 1.5;
SetDO Stavbar_Gripper_open, 0;
SetDO Stavbar_Gripper_close, 1;
WaitTime 1;
MoveL [[25,450,138.8],[-0.174713,0.907209,0.375778,0.072368],[0,-1,-1,0],[0,9E9,9E9,9E9,9E9,9E9]],v150,z20,custom_tool1\WObj:=WObj0;
MoveJ [[424.57,176.97,302.86],[0.320717,-0.233457,0.914293,-0.081892],[0,-1,-1,0],[0,9E9,9E9,9E9,9E9,9E9]],v150,z20,custom_tool1\WObj:=WObj0;
MoveJ [[303.2,153.55,158.5],[0,0.923318,0.384037,0],[0,-1,-1,0],[0,9E9,9E9,9E9,9E9,9E9]],v150,z20,custom_tool1\WObj:=WObj0;
MoveL [[303.2,153.55,58.5],[0,0.923318,0.384037,0],[0,-1,-1,0],[0,9E9,9E9,9E9,9E9,9E9]],v150,z20,custom_tool1\WObj:=WObj0;
WaitTime 1.5;
SetDO Stavbar_Gripper_close, 0;
SetDO Stavbar_Gripper_open, 1;
WaitTime 1;
SetDO Stavbar_Gripper_open, 0;
MoveL [[303.2,153.55,158.5],[0,0.923318,0.384037,0],[0,-1,-1,0],[0,9E9,9E9,9E9,9E9,9E9]],v150,z20,custom_tool1\WObj:=WObj0;
MoveJ [[424.57,176.97,302.86],[0.320717,-0.233457,0.914293,-0.081892],[0,-1,-1,0],[0,9E9,9E9,9E9,9E9,9E9]],v150,z20,custom_tool1\WObj:=WObj0;
MoveJ [[25,450,138.8],[-0.174713,0.907209,0.375778,0.072368],[0,-1,-1,0],[0,9E9,9E9,9E9,9E9,9E9]],v150,z20,custom_tool1\WObj:=WObj0;
MoveL [[25,550,38.8],[-0.174713,0.907209,0.375778,0.072368],[0,-1,-1,0],[0,9E9,9E9,9E9,9E9,9E9]],v150,z20,custom_tool1\WObj:=WObj0;
IF TestDI(Stavbar_opt) THEN
WaitDI Stavbar_opt, 0;
ENDIF
WaitTime 1.5;
SetDO Stavbar_Gripper_open, 0;
SetDO Stavbar_Gripper_close, 1;
WaitTime 1;
MoveL [[25,450,138.8],[-0.174713,0.907209,0.375778,0.072368],[0,-1,-1,0],[0,9E9,9E9,9E9,9E9,9E9]],v150,z20,custom_tool1\WObj:=WObj0;
MoveJ [[424.57,176.97,302.86],[0.320717,-0.233457,0.914293,-0.081892],[0,-1,-1,0],[0,9E9,9E9,9E9,9E9,9E9]],v150,z20,custom_tool1\WObj:=WObj0;
MoveJ [[303.51,45.7,158.5],[0,0.923318,0.384037,0],[0,-1,-1,0],[0,9E9,9E9,9E9,9E9,9E9]],v150,z20,custom_tool1\WObj:=WObj0;
MoveL [[303.51,45.7,58.5],[0,0.923318,0.384037,0],[0,-1,-1,0],[0,9E9,9E9,9E9,9E9,9E9]],v150,z20,custom_tool1\WObj:=WObj0;
WaitTime 1.5;
SetDO Stavbar_Gripper_close, 0;
SetDO Stavbar_Gripper_open, 1;
WaitTime 1;
SetDO Stavbar_Gripper_open, 0;
MoveL [[303.51,45.7,158.5],[0,0.923318,0.384037,0],[0,-1,-1,0],[0,9E9,9E9,9E9,9E9,9E9]],v150,z20,custom_tool1\WObj:=WObj0;
MoveJ [[424.57,176.97,302.86],[0.320717,-0.233457,0.914293,-0.081892],[0,-1,-1,0],[0,9E9,9E9,9E9,9E9,9E9]],v150,z20,custom_tool1\WObj:=WObj0;
MoveJ [[25,450,138.8],[-0.174713,0.907209,0.375778,0.072368],[0,-1,-1,0],[0,9E9,9E9,9E9,9E9,9E9]],v150,z20,custom_tool1\WObj:=WObj0;
MoveL [[25,550,38.8],[-0.174713,0.907209,0.375778,0.072368],[0,-1,-1,0],[0,9E9,9E9,9E9,9E9,9E9]],v150,z20,custom_tool1\WObj:=WObj0;
IF TestDI(Stavbar_opt) THEN
WaitDI Stavbar_opt, 0;
ENDIF
WaitTime 1.5;
SetDO Stavbar_Gripper_open, 0;
SetDO Stavbar_Gripper_close, 1;
WaitTime 1;
MoveL [[25,450,138.8],[-0.174713,0.907209,0.375778,0.072368],[0,-1,-1,0],[0,9E9,9E9,9E9,9E9,9E9]],v150,z20,custom_tool1\WObj:=WObj0;
MoveJ [[424.57,176.97,302.86],[0.320717,-0.233457,0.914293,-0.081892],[0,-1,-1,0],[0,9E9,9E9,9E9,9E9,9E9]],v150,z20,custom_tool1\WObj:=WObj0;
MoveJ [[424.57,176.97,302.86],[0.320717,-0.233457,0.914293,-0.081892],[0,-1,-1,0],[0,9E9,9E9,9E9,9E9,9E9]],v150,z20,custom_tool1\WObj:=WObj0;
MoveJ [[303.83,-62.14,158.5],[0,0.923318,0.384037,0],[0,-1,-1,0],[0,9E9,9E9,9E9,9E9,9E9]],v150,z20,custom_tool1\WObj:=WObj0;
MoveL [[303.83,-62.14,58.5],[0,0.923318,0.384037,0],[0,-1,-1,0],[0,9E9,9E9,9E9,9E9,9E9]],v150,z20,custom_tool1\WObj:=WObj0;
WaitTime 1.5;
SetDO Stavbar_Gripper_close, 0;
SetDO Stavbar_Gripper_open, 1;
WaitTime 1;
SetDO Stavbar_Gripper_open, 0;
MoveL [[303.83,-62.14,158.5],[0,0.923318,0.384037,0],[0,-1,-1,0],[0,9E9,9E9,9E9,9E9,9E9]],v150,z20,custom_tool1\WObj:=WObj0;
MoveJ [[424.57,176.97,302.86],[0.320717,-0.233457,0.914293,-0.081892],[0,-1,-1,0],[0,9E9,9E9,9E9,9E9,9E9]],v150,z20,custom_tool1\WObj:=WObj0;
MoveJ [[424.57,176.97,302.86],[0.320717,-0.233457,0.914293,-0.081892],[0,-1,-1,0],[0,9E9,9E9,9E9,9E9,9E9]],v150,z20,custom_tool1\WObj:=WObj0;
MoveJ [[25,450,138.8],[-0.174713,0.907209,0.375778,0.072368],[0,-1,-1,0],[0,9E9,9E9,9E9,9E9,9E9]],v150,z20,custom_tool1\WObj:=WObj0;
MoveL [[25,550,38.8],[-0.174713,0.907209,0.375778,0.072368],[0,-1,-1,0],[0,9E9,9E9,9E9,9E9,9E9]],v150,z20,custom_tool1\WObj:=WObj0;
IF TestDI(Stavbar_opt) THEN
WaitDI Stavbar_opt, 0;
ENDIF
WaitTime 1.5;
SetDO Stavbar_Gripper_open, 0;
SetDO Stavbar_Gripper_close, 1;
WaitTime 1;
MoveL [[25,450,138.8],[-0.174713,0.907209,0.375778,0.072368],[0,-1,-1,0],[0,9E9,9E9,9E9,9E9,9E9]],v150,z20,custom_tool1\WObj:=WObj0;
MoveJ [[424.57,176.97,302.86],[0.320717,-0.233457,0.914293,-0.081892],[0,-1,-1,0],[0,9E9,9E9,9E9,9E9,9E9]],v150,z20,custom_tool1\WObj:=WObj0;
MoveJ [[424.57,176.97,302.86],[0.320717,-0.233457,0.914293,-0.081892],[0,-1,-1,0],[0,9E9,9E9,9E9,9E9,9E9]],v150,z20,custom_tool1\WObj:=WObj0;
MoveJ [[304.15,-169.99,158.5],[0,0.923318,0.384037,0],[0,-1,-1,0],[0,9E9,9E9,9E9,9E9,9E9]],v150,z20,custom_tool1\WObj:=WObj0;
MoveL [[304.15,-169.99,58.5],[0,0.923318,0.384037,0],[0,-1,-1,0],[0,9E9,9E9,9E9,9E9,9E9]],v150,z20,custom_tool1\WObj:=WObj0;
WaitTime 1.5;
SetDO Stavbar_Gripper_close, 0;
SetDO Stavbar_Gripper_open, 1;
WaitTime 1;
SetDO Stavbar_Gripper_open, 0;
MoveL [[304.15,-169.99,158.5],[0,0.923318,0.384037,0],[0,-1,-1,0],[0,9E9,9E9,9E9,9E9,9E9]],v150,z20,custom_tool1\WObj:=WObj0;
MoveJ [[424.57,176.97,302.86],[0.320717,-0.233457,0.914293,-0.081892],[0,-1,-1,0],[0,9E9,9E9,9E9,9E9,9E9]],v150,z20,custom_tool1\WObj:=WObj0;
MoveJ [[424.57,176.97,302.86],[0.320717,-0.233457,0.914293,-0.081892],[0,-1,-1,0],[0,9E9,9E9,9E9,9E9,9E9]],v150,z20,custom_tool1\WObj:=WObj0;
MoveJ [[25,450,138.8],[-0.174713,0.907209,0.375778,0.072368],[0,-1,-1,0],[0,9E9,9E9,9E9,9E9,9E9]],v150,z20,custom_tool1\WObj:=WObj0;
MoveL [[25,550,38.8],[-0.174713,0.907209,0.375778,0.072368],[0,-1,-1,0],[0,9E9,9E9,9E9,9E9,9E9]],v150,z20,custom_tool1\WObj:=WObj0;
IF TestDI(Stavbar_opt) THEN
WaitDI Stavbar_opt, 0;
ENDIF
WaitTime 1.5;
SetDO Stavbar_Gripper_open, 0;
SetDO Stavbar_Gripper_close, 1;
WaitTime 1;
MoveL [[25,450,138.8],[-0.174713,0.907209,0.375778,0.072368],[0,-1,-1,0],[0,9E9,9E9,9E9,9E9,9E9]],v150,z20,custom_tool1\WObj:=WObj0;
MoveJ [[424.57,176.97,302.86],[0.320717,-0.233457,0.914293,-0.081892],[0,-1,-1,0],[0,9E9,9E9,9E9,9E9,9E9]],v150,z20,custom_tool1\WObj:=WObj0;
MoveJ [[424.57,176.97,302.86],[0.320717,-0.233457,0.914293,-0.081892],[0,-1,-1,0],[0,9E9,9E9,9E9,9E9,9E9]],v150,z20,custom_tool1\WObj:=WObj0;
MoveJ [[338.79,-243.41,158.5],[0,0.382683,0.92388,0],[0,-1,-1,0],[0,9E9,9E9,9E9,9E9,9E9]],v150,z20,custom_tool1\WObj:=WObj0;
MoveL [[338.79,-243.41,58.5],[0,0.382683,0.92388,0],[0,-1,-1,0],[0,9E9,9E9,9E9,9E9,9E9]],v150,z20,custom_tool1\WObj:=WObj0;
WaitTime 1.5;
SetDO Stavbar_Gripper_close, 0;
SetDO Stavbar_Gripper_open, 1;
WaitTime 1;
SetDO Stavbar_Gripper_open, 0;
MoveL [[338.79,-243.41,158.5],[0,0.382683,0.92388,0],[0,-1,-1,0],[0,9E9,9E9,9E9,9E9,9E9]],v150,z20,custom_tool1\WObj:=WObj0;
MoveJ [[424.57,176.97,302.86],[0.320717,-0.233457,0.914293,-0.081892],[0,-1,-1,0],[0,9E9,9E9,9E9,9E9,9E9]],v150,z20,custom_tool1\WObj:=WObj0;
MoveJ [[424.57,176.97,302.86],[0.320717,-0.233457,0.914293,-0.081892],[0,-1,-1,0],[0,9E9,9E9,9E9,9E9,9E9]],v150,z20,custom_tool1\WObj:=WObj0;
MoveJ [[25,450,138.8],[-0.174713,0.907209,0.375778,0.072368],[0,-1,-1,0],[0,9E9,9E9,9E9,9E9,9E9]],v150,z20,custom_tool1\WObj:=WObj0;
MoveL [[25,550,38.8],[-0.174713,0.907209,0.375778,0.072368],[0,-1,-1,0],[0,9E9,9E9,9E9,9E9,9E9]],v150,z20,custom_tool1\WObj:=WObj0;
IF TestDI(Stavbar_opt) THEN
WaitDI Stavbar_opt, 0;
ENDIF
WaitTime 1.5;
SetDO Stavbar_Gripper_open, 0;
SetDO Stavbar_Gripper_close, 1;
WaitTime 1;
MoveL [[25,450,138.8],[-0.174713,0.907209,0.375778,0.072368],[0,-1,-1,0],[0,9E9,9E9,9E9,9E9,9E9]],v150,z20,custom_tool1\WObj:=WObj0;
MoveJ [[424.57,176.97,302.86],[0.320717,-0.233457,0.914293,-0.081892],[0,-1,-1,0],[0,9E9,9E9,9E9,9E9,9E9]],v150,z20,custom_tool1\WObj:=WObj0;
MoveJ [[424.57,176.97,302.86],[0.320717,-0.233457,0.914293,-0.081892],[0,-1,-1,0],[0,9E9,9E9,9E9,9E9,9E9]],v150,z20,custom_tool1\WObj:=WObj0;
MoveJ [[446.63,-243.41,158.5],[0,0.382683,0.92388,0],[0,-1,-1,0],[0,9E9,9E9,9E9,9E9,9E9]],v150,z20,custom_tool1\WObj:=WObj0;
MoveL [[446.63,-243.41,58.5],[0,0.382683,0.92388,0],[0,-1,-1,0],[0,9E9,9E9,9E9,9E9,9E9]],v150,z20,custom_tool1\WObj:=WObj0;
WaitTime 1.5;
SetDO Stavbar_Gripper_close, 0;
SetDO Stavbar_Gripper_open, 1;
WaitTime 1;
SetDO Stavbar_Gripper_open, 0;
MoveL [[446.63,-243.41,158.5],[0,0.382683,0.92388,0],[0,-1,-1,0],[0,9E9,9E9,9E9,9E9,9E9]],v150,z20,custom_tool1\WObj:=WObj0;
MoveJ [[424.57,176.97,302.86],[0.320717,-0.233457,0.914293,-0.081892],[0,-1,-1,0],[0,9E9,9E9,9E9,9E9,9E9]],v150,z20,custom_tool1\WObj:=WObj0;
MoveJ [[424.57,176.97,302.86],[0.320717,-0.233457,0.914293,-0.081892],[0,-1,-1,0],[0,9E9,9E9,9E9,9E9,9E9]],v150,z20,custom_tool1\WObj:=WObj0;
MoveJ [[25,450,138.8],[-0.174713,0.907209,0.375778,0.072368],[0,-1,-1,0],[0,9E9,9E9,9E9,9E9,9E9]],v150,z20,custom_tool1\WObj:=WObj0;
MoveL [[25,550,38.8],[-0.174713,0.907209,0.375778,0.072368],[0,-1,-1,0],[0,9E9,9E9,9E9,9E9,9E9]],v150,z20,custom_tool1\WObj:=WObj0;
IF TestDI(Stavbar_opt) THEN
WaitDI Stavbar_opt, 0;
ENDIF
WaitTime 1.5;
SetDO Stavbar_Gripper_open, 0;
SetDO Stavbar_Gripper_close, 1;
WaitTime 1;
MoveL [[25,450,138.8],[-0.174713,0.907209,0.375778,0.072368],[0,-1,-1,0],[0,9E9,9E9,9E9,9E9,9E9]],v150,z20,custom_tool1\WObj:=WObj0;
MoveJ [[424.57,176.97,302.86],[0.320717,-0.233457,0.914293,-0.081892],[0,-1,-1,0],[0,9E9,9E9,9E9,9E9,9E9]],v150,z20,custom_tool1\WObj:=WObj0;
MoveJ [[424.57,176.97,302.86],[0.320717,-0.233457,0.914293,-0.081892],[0,-1,-1,0],[0,9E9,9E9,9E9,9E9,9E9]],v150,z20,custom_tool1\WObj:=WObj0;
MoveJ [[453.71,-142.64,158.5],[0,0.92388,0.382683,0],[0,-1,-1,0],[0,9E9,9E9,9E9,9E9,9E9]],v150,z20,custom_tool1\WObj:=WObj0;
MoveL [[453.71,-142.64,58.5],[0,0.92388,0.382683,0],[0,-1,-1,0],[0,9E9,9E9,9E9,9E9,9E9]],v150,z20,custom_tool1\WObj:=WObj0;
WaitTime 1.5;
SetDO Stavbar_Gripper_close, 0;
SetDO Stavbar_Gripper_open, 1;
WaitTime 1;
SetDO Stavbar_Gripper_open, 0;
MoveL [[453.71,-142.64,158.5],[0,0.92388,0.382683,0],[0,-1,-1,0],[0,9E9,9E9,9E9,9E9,9E9]],v150,z20,custom_tool1\WObj:=WObj0;
MoveJ [[424.57,176.97,302.86],[0.320717,-0.233457,0.914293,-0.081892],[0,-1,-1,0],[0,9E9,9E9,9E9,9E9,9E9]],v150,z20,custom_tool1\WObj:=WObj0;
MoveJ [[424.57,176.97,302.86],[0.320717,-0.233457,0.914293,-0.081892],[0,-1,-1,0],[0,9E9,9E9,9E9,9E9,9E9]],v150,z20,custom_tool1\WObj:=WObj0;
MoveJ [[25,450,138.8],[-0.174713,0.907209,0.375778,0.072368],[0,-1,-1,0],[0,9E9,9E9,9E9,9E9,9E9]],v150,z20,custom_tool1\WObj:=WObj0;
MoveL [[25,550,38.8],[-0.174713,0.907209,0.375778,0.072368],[0,-1,-1,0],[0,9E9,9E9,9E9,9E9,9E9]],v150,z20,custom_tool1\WObj:=WObj0;
IF TestDI(Stavbar_opt) THEN
WaitDI Stavbar_opt, 0;
ENDIF
WaitTime 1.5;
SetDO Stavbar_Gripper_open, 0;
SetDO Stavbar_Gripper_close, 1;
WaitTime 1;
MoveL [[25,450,138.8],[-0.174713,0.907209,0.375778,0.072368],[0,-1,-1,0],[0,9E9,9E9,9E9,9E9,9E9]],v150,z20,custom_tool1\WObj:=WObj0;
MoveJ [[424.57,176.97,302.86],[0.320717,-0.233457,0.914293,-0.081892],[0,-1,-1,0],[0,9E9,9E9,9E9,9E9,9E9]],v150,z20,custom_tool1\WObj:=WObj0;
MoveJ [[424.57,176.97,302.86],[0.320717,-0.233457,0.914293,-0.081892],[0,-1,-1,0],[0,9E9,9E9,9E9,9E9,9E9]],v150,z20,custom_tool1\WObj:=WObj0;
MoveJ [[453.71,-34.79,158.5],[0,0.92388,0.382683,0],[0,-1,-1,0],[0,9E9,9E9,9E9,9E9,9E9]],v150,z20,custom_tool1\WObj:=WObj0;
MoveL [[453.71,-34.79,58.5],[0,0.92388,0.382683,0],[0,-1,-1,0],[0,9E9,9E9,9E9,9E9,9E9]],v150,z20,custom_tool1\WObj:=WObj0;
WaitTime 1.5;
SetDO Stavbar_Gripper_close, 0;
SetDO Stavbar_Gripper_open, 1;
WaitTime 1;
SetDO Stavbar_Gripper_open, 0;
MoveL [[453.71,-34.79,158.5],[0,0.92388,0.382683,0],[0,-1,-1,0],[0,9E9,9E9,9E9,9E9,9E9]],v150,z20,custom_tool1\WObj:=WObj0;
MoveJ [[424.57,176.97,302.86],[0.320717,-0.233457,0.914293,-0.081892],[0,-1,-1,0],[0,9E9,9E9,9E9,9E9,9E9]],v150,z20,custom_tool1\WObj:=WObj0;
MoveJ [[424.57,176.97,302.86],[0.320717,-0.233457,0.914293,-0.081892],[0,-1,-1,0],[0,9E9,9E9,9E9,9E9,9E9]],v150,z20,custom_tool1\WObj:=WObj0;
MoveJ [[25,450,138.8],[-0.174713,0.907209,0.375778,0.072368],[0,-1,-1,0],[0,9E9,9E9,9E9,9E9,9E9]],v150,z20,custom_tool1\WObj:=WObj0;
MoveL [[25,550,38.8],[-0.174713,0.907209,0.375778,0.072368],[0,-1,-1,0],[0,9E9,9E9,9E9,9E9,9E9]],v150,z20,custom_tool1\WObj:=WObj0;
IF TestDI(Stavbar_opt) THEN
WaitDI Stavbar_opt, 0;
ENDIF
WaitTime 1.5;
SetDO Stavbar_Gripper_open, 0;
SetDO Stavbar_Gripper_close, 1;
WaitTime 1;
MoveL [[25,450,138.8],[-0.174713,0.907209,0.375778,0.072368],[0,-1,-1,0],[0,9E9,9E9,9E9,9E9,9E9]],v150,z20,custom_tool1\WObj:=WObj0;
MoveJ [[424.57,176.97,302.86],[0.320717,-0.233457,0.914293,-0.081892],[0,-1,-1,0],[0,9E9,9E9,9E9,9E9,9E9]],v150,z20,custom_tool1\WObj:=WObj0;
MoveJ [[453.71,73.05,158.5],[0,0.92388,0.382683,0],[0,-1,-1,0],[0,9E9,9E9,9E9,9E9,9E9]],v150,z20,custom_tool1\WObj:=WObj0;
MoveL [[453.71,73.05,58.5],[0,0.92388,0.382683,0],[0,-1,-1,0],[0,9E9,9E9,9E9,9E9,9E9]],v150,z20,custom_tool1\WObj:=WObj0;
WaitTime 1.5;
SetDO Stavbar_Gripper_close, 0;
SetDO Stavbar_Gripper_open, 1;
WaitTime 1;
SetDO Stavbar_Gripper_open, 0;
MoveL [[453.71,73.05,158.5],[0,0.92388,0.382683,0],[0,-1,-1,0],[0,9E9,9E9,9E9,9E9,9E9]],v150,z20,custom_tool1\WObj:=WObj0;
MoveJ [[424.57,176.97,302.86],[0.320717,-0.233457,0.914293,-0.081892],[0,-1,-1,0],[0,9E9,9E9,9E9,9E9,9E9]],v150,z20,custom_tool1\WObj:=WObj0;
MoveJ [[25,450,138.8],[-0.174713,0.907209,0.375778,0.072368],[0,-1,-1,0],[0,9E9,9E9,9E9,9E9,9E9]],v150,z20,custom_tool1\WObj:=WObj0;
MoveL [[25,550,38.8],[-0.174713,0.907209,0.375778,0.072368],[0,-1,-1,0],[0,9E9,9E9,9E9,9E9,9E9]],v150,z20,custom_tool1\WObj:=WObj0;
IF TestDI(Stavbar_opt) THEN
WaitDI Stavbar_opt, 0;
ENDIF
WaitTime 1.5;
SetDO Stavbar_Gripper_open, 0;
SetDO Stavbar_Gripper_close, 1;
WaitTime 1;
MoveL [[25,450,138.8],[-0.174713,0.907209,0.375778,0.072368],[0,-1,-1,0],[0,9E9,9E9,9E9,9E9,9E9]],v150,z20,custom_tool1\WObj:=WObj0;
MoveJ [[424.57,176.97,302.86],[0.320717,-0.233457,0.914293,-0.081892],[0,-1,-1,0],[0,9E9,9E9,9E9,9E9,9E9]],v150,z20,custom_tool1\WObj:=WObj0;
MoveJ [[445.57,172.6,158.5],[0,0.927427,-0.374004,0],[0,-1,-1,0],[0,9E9,9E9,9E9,9E9,9E9]],v150,z20,custom_tool1\WObj:=WObj0;
MoveL [[445.57,172.6,58.5],[0,0.927427,-0.374004,0],[0,-1,-1,0],[0,9E9,9E9,9E9,9E9,9E9]],v150,z20,custom_tool1\WObj:=WObj0;
WaitTime 1.5;
SetDO Stavbar_Gripper_close, 0;
SetDO Stavbar_Gripper_open, 1;
WaitTime 1;
SetDO Stavbar_Gripper_open, 0;
MoveL [[445.57,172.6,158.5],[0,0.927427,-0.374004,0],[0,-1,-1,0],[0,9E9,9E9,9E9,9E9,9E9]],v150,z20,custom_tool1\WObj:=WObj0;
MoveJ [[424.57,176.97,302.86],[0.320717,-0.233457,0.914293,-0.081892],[0,-1,-1,0],[0,9E9,9E9,9E9,9E9,9E9]],v150,z20,custom_tool1\WObj:=WObj0;
MoveJ [[25,450,138.8],[-0.174713,0.907209,0.375778,0.072368],[0,-1,-1,0],[0,9E9,9E9,9E9,9E9,9E9]],v150,z20,custom_tool1\WObj:=WObj0;
MoveJ [[-63,450,138.8],[-0.174713,0.907209,0.375778,0.072368],[0,-1,-1,0],[0,9E9,9E9,9E9,9E9,9E9]],v150,z20,custom_tool1\WObj:=WObj0;
MoveL [[-63,550,38.8],[-0.174713,0.907209,0.375778,0.072368],[0,-1,-1,0],[0,9E9,9E9,9E9,9E9,9E9]],v150,z20,custom_tool1\WObj:=WObj0;
IF TestDI(Stavbar_opt) THEN
WaitDI Stavbar_opt, 0;
ENDIF
WaitTime 1.5;
SetDO Stavbar_Gripper_open, 0;
SetDO Stavbar_Gripper_close, 1;
WaitTime 1;
MoveL [[-63,450,138.8],[-0.174713,0.907209,0.375778,0.072368],[0,-1,-1,0],[0,9E9,9E9,9E9,9E9,9E9]],v150,z20,custom_tool1\WObj:=WObj0;
MoveJ [[25,450,138.8],[-0.174713,0.907209,0.375778,0.072368],[0,-1,-1,0],[0,9E9,9E9,9E9,9E9,9E9]],v150,z20,custom_tool1\WObj:=WObj0;
MoveJ [[424.57,176.97,302.86],[0.320717,-0.233457,0.914293,-0.081892],[0,-1,-1,0],[0,9E9,9E9,9E9,9E9,9E9]],v150,z20,custom_tool1\WObj:=WObj0;
MoveJ [[375.65,171.29,158.5],[0,0.927427,-0.374004,0],[0,-1,-1,0],[0,9E9,9E9,9E9,9E9,9E9]],v150,z20,custom_tool1\WObj:=WObj0;
MoveL [[375.65,171.29,58.5],[0,0.927427,-0.374004,0],[0,-1,-1,0],[0,9E9,9E9,9E9,9E9,9E9]],v150,z20,custom_tool1\WObj:=WObj0;
WaitTime 1.5;
SetDO Stavbar_Gripper_close, 0;
SetDO Stavbar_Gripper_open, 1;
WaitTime 1;
SetDO Stavbar_Gripper_open, 0;
MoveL [[375.65,171.29,158.5],[0,0.927427,-0.374004,0],[0,-1,-1,0],[0,9E9,9E9,9E9,9E9,9E9]],v150,z20,custom_tool1\WObj:=WObj0;
MoveJ [[424.57,176.97,302.86],[0.320717,-0.233457,0.914293,-0.081892],[0,-1,-1,0],[0,9E9,9E9,9E9,9E9,9E9]],v150,z20,custom_tool1\WObj:=WObj0;
MoveJ [[25,450,138.8],[-0.174713,0.907209,0.375778,0.072368],[0,-1,-1,0],[0,9E9,9E9,9E9,9E9,9E9]],v150,z20,custom_tool1\WObj:=WObj0;
MoveJ [[-63,450,138.8],[-0.174713,0.907209,0.375778,0.072368],[0,-1,-1,0],[0,9E9,9E9,9E9,9E9,9E9]],v150,z20,custom_tool1\WObj:=WObj0;
MoveL [[-63,550,38.8],[-0.174713,0.907209,0.375778,0.072368],[0,-1,-1,0],[0,9E9,9E9,9E9,9E9,9E9]],v150,z20,custom_tool1\WObj:=WObj0;
IF TestDI(Stavbar_opt) THEN
WaitDI Stavbar_opt, 0;
ENDIF
WaitTime 1.5;
SetDO Stavbar_Gripper_open, 0;
SetDO Stavbar_Gripper_close, 1;
WaitTime 1;
MoveL [[-63,450,138.8],[-0.174713,0.907209,0.375778,0.072368],[0,-1,-1,0],[0,9E9,9E9,9E9,9E9,9E9]],v150,z20,custom_tool1\WObj:=WObj0;
MoveJ [[25,450,138.8],[-0.174713,0.907209,0.375778,0.072368],[0,-1,-1,0],[0,9E9,9E9,9E9,9E9,9E9]],v150,z20,custom_tool1\WObj:=WObj0;
MoveJ [[424.57,176.97,302.86],[0.320717,-0.233457,0.914293,-0.081892],[0,-1,-1,0],[0,9E9,9E9,9E9,9E9,9E9]],v150,z20,custom_tool1\WObj:=WObj0;
MoveJ [[303.15,169.55,181.5],[0,0.923318,0.384037,0],[0,-1,-1,0],[0,9E9,9E9,9E9,9E9,9E9]],v150,z20,custom_tool1\WObj:=WObj0;
MoveL [[303.15,169.55,81.5],[0,0.923318,0.384037,0],[0,-1,-1,0],[0,9E9,9E9,9E9,9E9,9E9]],v150,z20,custom_tool1\WObj:=WObj0;
WaitTime 1.5;
SetDO Stavbar_Gripper_close, 0;
SetDO Stavbar_Gripper_open, 1;
WaitTime 1;
SetDO Stavbar_Gripper_open, 0;
MoveL [[303.15,169.55,181.5],[0,0.923318,0.384037,0],[0,-1,-1,0],[0,9E9,9E9,9E9,9E9,9E9]],v150,z20,custom_tool1\WObj:=WObj0;
MoveJ [[424.57,176.97,302.86],[0.320717,-0.233457,0.914293,-0.081892],[0,-1,-1,0],[0,9E9,9E9,9E9,9E9,9E9]],v150,z20,custom_tool1\WObj:=WObj0;
MoveJ [[25,450,138.8],[-0.174713,0.907209,0.375778,0.072368],[0,-1,-1,0],[0,9E9,9E9,9E9,9E9,9E9]],v150,z20,custom_tool1\WObj:=WObj0;
MoveL [[25,550,38.8],[-0.174713,0.907209,0.375778,0.072368],[0,-1,-1,0],[0,9E9,9E9,9E9,9E9,9E9]],v150,z20,custom_tool1\WObj:=WObj0;
IF TestDI(Stavbar_opt) THEN
WaitDI Stavbar_opt, 0;
ENDIF
WaitTime 1.5;
SetDO Stavbar_Gripper_open, 0;
SetDO Stavbar_Gripper_close, 1;
WaitTime 1;
MoveL [[25,450,138.8],[-0.174713,0.907209,0.375778,0.072368],[0,-1,-1,0],[0,9E9,9E9,9E9,9E9,9E9]],v150,z20,custom_tool1\WObj:=WObj0;
MoveJ [[424.57,176.97,302.86],[0.320717,-0.233457,0.914293,-0.081892],[0,-1,-1,0],[0,9E9,9E9,9E9,9E9,9E9]],v150,z20,custom_tool1\WObj:=WObj0;
MoveJ [[303.36,99.63,181.5],[0,0.923318,0.384037,0],[0,-1,-1,0],[0,9E9,9E9,9E9,9E9,9E9]],v150,z20,custom_tool1\WObj:=WObj0;
MoveL [[303.36,99.63,81.5],[0,0.923318,0.384037,0],[0,-1,-1,0],[0,9E9,9E9,9E9,9E9,9E9]],v150,z20,custom_tool1\WObj:=WObj0;
WaitTime 1.5;
SetDO Stavbar_Gripper_close, 0;
SetDO Stavbar_Gripper_open, 1;
WaitTime 1;
SetDO Stavbar_Gripper_open, 0;
MoveL [[303.36,99.63,181.5],[0,0.923318,0.384037,0],[0,-1,-1,0],[0,9E9,9E9,9E9,9E9,9E9]],v150,z20,custom_tool1\WObj:=WObj0;
MoveJ [[424.57,176.97,302.86],[0.320717,-0.233457,0.914293,-0.081892],[0,-1,-1,0],[0,9E9,9E9,9E9,9E9,9E9]],v150,z20,custom_tool1\WObj:=WObj0;
MoveJ [[25,450,138.8],[-0.174713,0.907209,0.375778,0.072368],[0,-1,-1,0],[0,9E9,9E9,9E9,9E9,9E9]],v150,z20,custom_tool1\WObj:=WObj0;
MoveL [[25,550,38.8],[-0.174713,0.907209,0.375778,0.072368],[0,-1,-1,0],[0,9E9,9E9,9E9,9E9,9E9]],v150,z20,custom_tool1\WObj:=WObj0;
IF TestDI(Stavbar_opt) THEN
WaitDI Stavbar_opt, 0;
ENDIF
WaitTime 1.5;
SetDO Stavbar_Gripper_open, 0;
SetDO Stavbar_Gripper_close, 1;
WaitTime 1;
MoveL [[25,450,138.8],[-0.174713,0.907209,0.375778,0.072368],[0,-1,-1,0],[0,9E9,9E9,9E9,9E9,9E9]],v150,z20,custom_tool1\WObj:=WObj0;
MoveJ [[424.57,176.97,302.86],[0.320717,-0.233457,0.914293,-0.081892],[0,-1,-1,0],[0,9E9,9E9,9E9,9E9,9E9]],v150,z20,custom_tool1\WObj:=WObj0;
MoveJ [[424.57,176.97,302.86],[0.320717,-0.233457,0.914293,-0.081892],[0,-1,-1,0],[0,9E9,9E9,9E9,9E9,9E9]],v150,z20,custom_tool1\WObj:=WObj0;
MoveJ [[303.67,-8.22,181.5],[0,0.923318,0.384037,0],[0,-1,-1,0],[0,9E9,9E9,9E9,9E9,9E9]],v150,z20,custom_tool1\WObj:=WObj0;
MoveL [[303.67,-8.22,81.5],[0,0.923318,0.384037,0],[0,-1,-1,0],[0,9E9,9E9,9E9,9E9,9E9]],v150,z20,custom_tool1\WObj:=WObj0;
WaitTime 1.5;
SetDO Stavbar_Gripper_close, 0;
SetDO Stavbar_Gripper_open, 1;
WaitTime 1;
SetDO Stavbar_Gripper_open, 0;
MoveL [[303.67,-8.22,181.5],[0,0.923318,0.384037,0],[0,-1,-1,0],[0,9E9,9E9,9E9,9E9,9E9]],v150,z20,custom_tool1\WObj:=WObj0;
MoveJ [[424.57,176.97,302.86],[0.320717,-0.233457,0.914293,-0.081892],[0,-1,-1,0],[0,9E9,9E9,9E9,9E9,9E9]],v150,z20,custom_tool1\WObj:=WObj0;
MoveJ [[424.57,176.97,302.86],[0.320717,-0.233457,0.914293,-0.081892],[0,-1,-1,0],[0,9E9,9E9,9E9,9E9,9E9]],v150,z20,custom_tool1\WObj:=WObj0;
MoveJ [[25,450,138.8],[-0.174713,0.907209,0.375778,0.072368],[0,-1,-1,0],[0,9E9,9E9,9E9,9E9,9E9]],v150,z20,custom_tool1\WObj:=WObj0;
MoveL [[25,550,38.8],[-0.174713,0.907209,0.375778,0.072368],[0,-1,-1,0],[0,9E9,9E9,9E9,9E9,9E9]],v150,z20,custom_tool1\WObj:=WObj0;
IF TestDI(Stavbar_opt) THEN
WaitDI Stavbar_opt, 0;
ENDIF
WaitTime 1.5;
SetDO Stavbar_Gripper_open, 0;
SetDO Stavbar_Gripper_close, 1;
WaitTime 1;
MoveL [[25,450,138.8],[-0.174713,0.907209,0.375778,0.072368],[0,-1,-1,0],[0,9E9,9E9,9E9,9E9,9E9]],v150,z20,custom_tool1\WObj:=WObj0;
MoveJ [[424.57,176.97,302.86],[0.320717,-0.233457,0.914293,-0.081892],[0,-1,-1,0],[0,9E9,9E9,9E9,9E9,9E9]],v150,z20,custom_tool1\WObj:=WObj0;
MoveJ [[424.57,176.97,302.86],[0.320717,-0.233457,0.914293,-0.081892],[0,-1,-1,0],[0,9E9,9E9,9E9,9E9,9E9]],v150,z20,custom_tool1\WObj:=WObj0;
MoveJ [[303.99,-116.06,181.5],[0,0.923318,0.384037,0],[0,-1,-1,0],[0,9E9,9E9,9E9,9E9,9E9]],v150,z20,custom_tool1\WObj:=WObj0;
MoveL [[303.99,-116.06,81.5],[0,0.923318,0.384037,0],[0,-1,-1,0],[0,9E9,9E9,9E9,9E9,9E9]],v150,z20,custom_tool1\WObj:=WObj0;
WaitTime 1.5;
SetDO Stavbar_Gripper_close, 0;
SetDO Stavbar_Gripper_open, 1;
WaitTime 1;
SetDO Stavbar_Gripper_open, 0;
MoveL [[303.99,-116.06,181.5],[0,0.923318,0.384037,0],[0,-1,-1,0],[0,9E9,9E9,9E9,9E9,9E9]],v150,z20,custom_tool1\WObj:=WObj0;
MoveJ [[424.57,176.97,302.86],[0.320717,-0.233457,0.914293,-0.081892],[0,-1,-1,0],[0,9E9,9E9,9E9,9E9,9E9]],v150,z20,custom_tool1\WObj:=WObj0;
MoveJ [[424.57,176.97,302.86],[0.320717,-0.233457,0.914293,-0.081892],[0,-1,-1,0],[0,9E9,9E9,9E9,9E9,9E9]],v150,z20,custom_tool1\WObj:=WObj0;
MoveJ [[25,450,138.8],[-0.174713,0.907209,0.375778,0.072368],[0,-1,-1,0],[0,9E9,9E9,9E9,9E9,9E9]],v150,z20,custom_tool1\WObj:=WObj0;
MoveL [[25,550,38.8],[-0.174713,0.907209,0.375778,0.072368],[0,-1,-1,0],[0,9E9,9E9,9E9,9E9,9E9]],v150,z20,custom_tool1\WObj:=WObj0;
IF TestDI(Stavbar_opt) THEN
WaitDI Stavbar_opt, 0;
ENDIF
WaitTime 1.5;
SetDO Stavbar_Gripper_open, 0;
SetDO Stavbar_Gripper_close, 1;
WaitTime 1;
MoveL [[25,450,138.8],[-0.174713,0.907209,0.375778,0.072368],[0,-1,-1,0],[0,9E9,9E9,9E9,9E9,9E9]],v150,z20,custom_tool1\WObj:=WObj0;
MoveJ [[424.57,176.97,302.86],[0.320717,-0.233457,0.914293,-0.081892],[0,-1,-1,0],[0,9E9,9E9,9E9,9E9,9E9]],v150,z20,custom_tool1\WObj:=WObj0;
MoveJ [[424.57,176.97,302.86],[0.320717,-0.233457,0.914293,-0.081892],[0,-1,-1,0],[0,9E9,9E9,9E9,9E9,9E9]],v150,z20,custom_tool1\WObj:=WObj0;
MoveJ [[304.3,-223.91,181.5],[0,0.923318,0.384037,0],[0,-1,-1,0],[0,9E9,9E9,9E9,9E9,9E9]],v150,z20,custom_tool1\WObj:=WObj0;
MoveL [[304.3,-223.91,81.5],[0,0.923318,0.384037,0],[0,-1,-1,0],[0,9E9,9E9,9E9,9E9,9E9]],v150,z20,custom_tool1\WObj:=WObj0;
WaitTime 1.5;
SetDO Stavbar_Gripper_close, 0;
SetDO Stavbar_Gripper_open, 1;
WaitTime 1;
SetDO Stavbar_Gripper_open, 0;
MoveL [[304.3,-223.91,181.5],[0,0.923318,0.384037,0],[0,-1,-1,0],[0,9E9,9E9,9E9,9E9,9E9]],v150,z20,custom_tool1\WObj:=WObj0;
MoveJ [[424.57,176.97,302.86],[0.320717,-0.233457,0.914293,-0.081892],[0,-1,-1,0],[0,9E9,9E9,9E9,9E9,9E9]],v150,z20,custom_tool1\WObj:=WObj0;
MoveJ [[424.57,176.97,302.86],[0.320717,-0.233457,0.914293,-0.081892],[0,-1,-1,0],[0,9E9,9E9,9E9,9E9,9E9]],v150,z20,custom_tool1\WObj:=WObj0;
MoveJ [[25,450,138.8],[-0.174713,0.907209,0.375778,0.072368],[0,-1,-1,0],[0,9E9,9E9,9E9,9E9,9E9]],v150,z20,custom_tool1\WObj:=WObj0;
MoveL [[25,550,38.8],[-0.174713,0.907209,0.375778,0.072368],[0,-1,-1,0],[0,9E9,9E9,9E9,9E9,9E9]],v150,z20,custom_tool1\WObj:=WObj0;
IF TestDI(Stavbar_opt) THEN
WaitDI Stavbar_opt, 0;
ENDIF
WaitTime 1.5;
SetDO Stavbar_Gripper_open, 0;
SetDO Stavbar_Gripper_close, 1;
WaitTime 1;
MoveL [[25,450,138.8],[-0.174713,0.907209,0.375778,0.072368],[0,-1,-1,0],[0,9E9,9E9,9E9,9E9,9E9]],v150,z20,custom_tool1\WObj:=WObj0;
MoveJ [[424.57,176.97,302.86],[0.320717,-0.233457,0.914293,-0.081892],[0,-1,-1,0],[0,9E9,9E9,9E9,9E9,9E9]],v150,z20,custom_tool1\WObj:=WObj0;
MoveJ [[424.57,176.97,302.86],[0.320717,-0.233457,0.914293,-0.081892],[0,-1,-1,0],[0,9E9,9E9,9E9,9E9,9E9]],v150,z20,custom_tool1\WObj:=WObj0;
MoveJ [[392.71,-243.41,181.5],[0,0.382683,0.92388,0],[0,-1,-1,0],[0,9E9,9E9,9E9,9E9,9E9]],v150,z20,custom_tool1\WObj:=WObj0;
MoveL [[392.71,-243.41,81.5],[0,0.382683,0.92388,0],[0,-1,-1,0],[0,9E9,9E9,9E9,9E9,9E9]],v150,z20,custom_tool1\WObj:=WObj0;
WaitTime 1.5;
SetDO Stavbar_Gripper_close, 0;
SetDO Stavbar_Gripper_open, 1;
WaitTime 1;
SetDO Stavbar_Gripper_open, 0;
MoveL [[392.71,-243.41,181.5],[0,0.382683,0.92388,0],[0,-1,-1,0],[0,9E9,9E9,9E9,9E9,9E9]],v150,z20,custom_tool1\WObj:=WObj0;
MoveJ [[424.57,176.97,302.86],[0.320717,-0.233457,0.914293,-0.081892],[0,-1,-1,0],[0,9E9,9E9,9E9,9E9,9E9]],v150,z20,custom_tool1\WObj:=WObj0;
MoveJ [[424.57,176.97,302.86],[0.320717,-0.233457,0.914293,-0.081892],[0,-1,-1,0],[0,9E9,9E9,9E9,9E9,9E9]],v150,z20,custom_tool1\WObj:=WObj0;
MoveJ [[25,450,138.8],[-0.174713,0.907209,0.375778,0.072368],[0,-1,-1,0],[0,9E9,9E9,9E9,9E9,9E9]],v150,z20,custom_tool1\WObj:=WObj0;
MoveL [[25,550,38.8],[-0.174713,0.907209,0.375778,0.072368],[0,-1,-1,0],[0,9E9,9E9,9E9,9E9,9E9]],v150,z20,custom_tool1\WObj:=WObj0;
IF TestDI(Stavbar_opt) THEN
WaitDI Stavbar_opt, 0;
ENDIF
WaitTime 1.5;
SetDO Stavbar_Gripper_open, 0;
SetDO Stavbar_Gripper_close, 1;
WaitTime 1;
MoveL [[25,450,138.8],[-0.174713,0.907209,0.375778,0.072368],[0,-1,-1,0],[0,9E9,9E9,9E9,9E9,9E9]],v150,z20,custom_tool1\WObj:=WObj0;
MoveJ [[424.57,176.97,302.86],[0.320717,-0.233457,0.914293,-0.081892],[0,-1,-1,0],[0,9E9,9E9,9E9,9E9,9E9]],v150,z20,custom_tool1\WObj:=WObj0;
MoveJ [[424.57,176.97,302.86],[0.320717,-0.233457,0.914293,-0.081892],[0,-1,-1,0],[0,9E9,9E9,9E9,9E9,9E9]],v150,z20,custom_tool1\WObj:=WObj0;
MoveJ [[453.71,-196.56,181.5],[0,0.92388,0.382683,0],[0,-1,-1,0],[0,9E9,9E9,9E9,9E9,9E9]],v150,z20,custom_tool1\WObj:=WObj0;
MoveL [[453.71,-196.56,81.5],[0,0.92388,0.382683,0],[0,-1,-1,0],[0,9E9,9E9,9E9,9E9,9E9]],v150,z20,custom_tool1\WObj:=WObj0;
WaitTime 1.5;
SetDO Stavbar_Gripper_close, 0;
SetDO Stavbar_Gripper_open, 1;
WaitTime 1;
SetDO Stavbar_Gripper_open, 0;
MoveL [[453.71,-196.56,181.5],[0,0.92388,0.382683,0],[0,-1,-1,0],[0,9E9,9E9,9E9,9E9,9E9]],v150,z20,custom_tool1\WObj:=WObj0;
MoveJ [[424.57,176.97,302.86],[0.320717,-0.233457,0.914293,-0.081892],[0,-1,-1,0],[0,9E9,9E9,9E9,9E9,9E9]],v150,z20,custom_tool1\WObj:=WObj0;
MoveJ [[424.57,176.97,302.86],[0.320717,-0.233457,0.914293,-0.081892],[0,-1,-1,0],[0,9E9,9E9,9E9,9E9,9E9]],v150,z20,custom_tool1\WObj:=WObj0;
MoveJ [[25,450,138.8],[-0.174713,0.907209,0.375778,0.072368],[0,-1,-1,0],[0,9E9,9E9,9E9,9E9,9E9]],v150,z20,custom_tool1\WObj:=WObj0;
MoveL [[25,550,38.8],[-0.174713,0.907209,0.375778,0.072368],[0,-1,-1,0],[0,9E9,9E9,9E9,9E9,9E9]],v150,z20,custom_tool1\WObj:=WObj0;
IF TestDI(Stavbar_opt) THEN
WaitDI Stavbar_opt, 0;
ENDIF
WaitTime 1.5;
SetDO Stavbar_Gripper_open, 0;
SetDO Stavbar_Gripper_close, 1;
WaitTime 1;
MoveL [[25,450,138.8],[-0.174713,0.907209,0.375778,0.072368],[0,-1,-1,0],[0,9E9,9E9,9E9,9E9,9E9]],v150,z20,custom_tool1\WObj:=WObj0;
MoveJ [[424.57,176.97,302.86],[0.320717,-0.233457,0.914293,-0.081892],[0,-1,-1,0],[0,9E9,9E9,9E9,9E9,9E9]],v150,z20,custom_tool1\WObj:=WObj0;
MoveJ [[424.57,176.97,302.86],[0.320717,-0.233457,0.914293,-0.081892],[0,-1,-1,0],[0,9E9,9E9,9E9,9E9,9E9]],v150,z20,custom_tool1\WObj:=WObj0;
MoveJ [[453.71,-88.71,181.5],[0,0.92388,0.382683,0],[0,-1,-1,0],[0,9E9,9E9,9E9,9E9,9E9]],v150,z20,custom_tool1\WObj:=WObj0;
MoveL [[453.71,-88.71,81.5],[0,0.92388,0.382683,0],[0,-1,-1,0],[0,9E9,9E9,9E9,9E9,9E9]],v150,z20,custom_tool1\WObj:=WObj0;
WaitTime 1.5;
SetDO Stavbar_Gripper_close, 0;
SetDO Stavbar_Gripper_open, 1;
WaitTime 1;
SetDO Stavbar_Gripper_open, 0;
MoveL [[453.71,-88.71,181.5],[0,0.92388,0.382683,0],[0,-1,-1,0],[0,9E9,9E9,9E9,9E9,9E9]],v150,z20,custom_tool1\WObj:=WObj0;
MoveJ [[424.57,176.97,302.86],[0.320717,-0.233457,0.914293,-0.081892],[0,-1,-1,0],[0,9E9,9E9,9E9,9E9,9E9]],v150,z20,custom_tool1\WObj:=WObj0;
MoveJ [[424.57,176.97,302.86],[0.320717,-0.233457,0.914293,-0.081892],[0,-1,-1,0],[0,9E9,9E9,9E9,9E9,9E9]],v150,z20,custom_tool1\WObj:=WObj0;
MoveJ [[25,450,138.8],[-0.174713,0.907209,0.375778,0.072368],[0,-1,-1,0],[0,9E9,9E9,9E9,9E9,9E9]],v150,z20,custom_tool1\WObj:=WObj0;
MoveL [[25,550,38.8],[-0.174713,0.907209,0.375778,0.072368],[0,-1,-1,0],[0,9E9,9E9,9E9,9E9,9E9]],v150,z20,custom_tool1\WObj:=WObj0;
IF TestDI(Stavbar_opt) THEN
WaitDI Stavbar_opt, 0;
ENDIF
WaitTime 1.5;
SetDO Stavbar_Gripper_open, 0;
SetDO Stavbar_Gripper_close, 1;
WaitTime 1;
MoveL [[25,450,138.8],[-0.174713,0.907209,0.375778,0.072368],[0,-1,-1,0],[0,9E9,9E9,9E9,9E9,9E9]],v150,z20,custom_tool1\WObj:=WObj0;
MoveJ [[424.57,176.97,302.86],[0.320717,-0.233457,0.914293,-0.081892],[0,-1,-1,0],[0,9E9,9E9,9E9,9E9,9E9]],v150,z20,custom_tool1\WObj:=WObj0;
MoveJ [[453.71,19.13,181.5],[0,0.92388,0.382683,0],[0,-1,-1,0],[0,9E9,9E9,9E9,9E9,9E9]],v150,z20,custom_tool1\WObj:=WObj0;
MoveL [[453.71,19.13,81.5],[0,0.92388,0.382683,0],[0,-1,-1,0],[0,9E9,9E9,9E9,9E9,9E9]],v150,z20,custom_tool1\WObj:=WObj0;
WaitTime 1.5;
SetDO Stavbar_Gripper_close, 0;
SetDO Stavbar_Gripper_open, 1;
WaitTime 1;
SetDO Stavbar_Gripper_open, 0;
MoveL [[453.71,19.13,181.5],[0,0.92388,0.382683,0],[0,-1,-1,0],[0,9E9,9E9,9E9,9E9,9E9]],v150,z20,custom_tool1\WObj:=WObj0;
MoveJ [[424.57,176.97,302.86],[0.320717,-0.233457,0.914293,-0.081892],[0,-1,-1,0],[0,9E9,9E9,9E9,9E9,9E9]],v150,z20,custom_tool1\WObj:=WObj0;
MoveJ [[25,450,138.8],[-0.174713,0.907209,0.375778,0.072368],[0,-1,-1,0],[0,9E9,9E9,9E9,9E9,9E9]],v150,z20,custom_tool1\WObj:=WObj0;
MoveL [[25,550,38.8],[-0.174713,0.907209,0.375778,0.072368],[0,-1,-1,0],[0,9E9,9E9,9E9,9E9,9E9]],v150,z20,custom_tool1\WObj:=WObj0;
IF TestDI(Stavbar_opt) THEN
WaitDI Stavbar_opt, 0;
ENDIF
WaitTime 1.5;
SetDO Stavbar_Gripper_open, 0;
SetDO Stavbar_Gripper_close, 1;
WaitTime 1;
MoveL [[25,450,138.8],[-0.174713,0.907209,0.375778,0.072368],[0,-1,-1,0],[0,9E9,9E9,9E9,9E9,9E9]],v150,z20,custom_tool1\WObj:=WObj0;
MoveJ [[424.57,176.97,302.86],[0.320717,-0.233457,0.914293,-0.081892],[0,-1,-1,0],[0,9E9,9E9,9E9,9E9,9E9]],v150,z20,custom_tool1\WObj:=WObj0;
MoveJ [[453.71,126.98,181.5],[0,0.92388,0.382683,0],[0,-1,-1,0],[0,9E9,9E9,9E9,9E9,9E9]],v150,z20,custom_tool1\WObj:=WObj0;
MoveL [[453.71,126.98,81.5],[0,0.92388,0.382683,0],[0,-1,-1,0],[0,9E9,9E9,9E9,9E9,9E9]],v150,z20,custom_tool1\WObj:=WObj0;
WaitTime 1.5;
SetDO Stavbar_Gripper_close, 0;
SetDO Stavbar_Gripper_open, 1;
WaitTime 1;
SetDO Stavbar_Gripper_open, 0;
MoveL [[453.71,126.98,181.5],[0,0.92388,0.382683,0],[0,-1,-1,0],[0,9E9,9E9,9E9,9E9,9E9]],v150,z20,custom_tool1\WObj:=WObj0;
MoveJ [[424.57,176.97,302.86],[0.320717,-0.233457,0.914293,-0.081892],[0,-1,-1,0],[0,9E9,9E9,9E9,9E9,9E9]],v150,z20,custom_tool1\WObj:=WObj0;
MoveJ [[25,450,138.8],[-0.174713,0.907209,0.375778,0.072368],[0,-1,-1,0],[0,9E9,9E9,9E9,9E9,9E9]],v150,z20,custom_tool1\WObj:=WObj0;
MoveL [[25,550,38.8],[-0.174713,0.907209,0.375778,0.072368],[0,-1,-1,0],[0,9E9,9E9,9E9,9E9,9E9]],v150,z20,custom_tool1\WObj:=WObj0;
IF TestDI(Stavbar_opt) THEN
WaitDI Stavbar_opt, 0;
ENDIF
WaitTime 1.5;
SetDO Stavbar_Gripper_open, 0;
SetDO Stavbar_Gripper_close, 1;
WaitTime 1;
MoveL [[25,450,138.8],[-0.174713,0.907209,0.375778,0.072368],[0,-1,-1,0],[0,9E9,9E9,9E9,9E9,9E9]],v150,z20,custom_tool1\WObj:=WObj0;
MoveJ [[424.57,176.97,302.86],[0.320717,-0.233457,0.914293,-0.081892],[0,-1,-1,0],[0,9E9,9E9,9E9,9E9,9E9]],v150,z20,custom_tool1\WObj:=WObj0;
MoveJ [[391.65,171.59,181.5],[0,0.927427,-0.374004,0],[0,-1,-1,0],[0,9E9,9E9,9E9,9E9,9E9]],v150,z20,custom_tool1\WObj:=WObj0;
MoveL [[391.65,171.59,81.5],[0,0.927427,-0.374004,0],[0,-1,-1,0],[0,9E9,9E9,9E9,9E9,9E9]],v150,z20,custom_tool1\WObj:=WObj0;
WaitTime 1.5;
SetDO Stavbar_Gripper_close, 0;
SetDO Stavbar_Gripper_open, 1;
WaitTime 1;
SetDO Stavbar_Gripper_open, 0;
MoveL [[391.65,171.59,181.5],[0,0.927427,-0.374004,0],[0,-1,-1,0],[0,9E9,9E9,9E9,9E9,9E9]],v150,z20,custom_tool1\WObj:=WObj0;
MoveJ [[424.57,176.97,302.86],[0.320717,-0.233457,0.914293,-0.081892],[0,-1,-1,0],[0,9E9,9E9,9E9,9E9,9E9]],v150,z20,custom_tool1\WObj:=WObj0;
MoveJ [[25,450,138.8],[-0.174713,0.907209,0.375778,0.072368],[0,-1,-1,0],[0,9E9,9E9,9E9,9E9,9E9]],v150,z20,custom_tool1\WObj:=WObj0;
MoveL [[25,550,38.8],[-0.174713,0.907209,0.375778,0.072368],[0,-1,-1,0],[0,9E9,9E9,9E9,9E9,9E9]],v150,z20,custom_tool1\WObj:=WObj0;
IF TestDI(Stavbar_opt) THEN
WaitDI Stavbar_opt, 0;
ENDIF
WaitTime 1.5;
SetDO Stavbar_Gripper_open, 0;
SetDO Stavbar_Gripper_close, 1;
WaitTime 1;
MoveL [[25,450,138.8],[-0.174713,0.907209,0.375778,0.072368],[0,-1,-1,0],[0,9E9,9E9,9E9,9E9,9E9]],v150,z20,custom_tool1\WObj:=WObj0;
MoveJ [[424.57,176.97,302.86],[0.320717,-0.233457,0.914293,-0.081892],[0,-1,-1,0],[0,9E9,9E9,9E9,9E9,9E9]],v150,z20,custom_tool1\WObj:=WObj0;
MoveJ [[303.2,153.55,204.5],[0,0.923318,0.384037,0],[0,-1,-1,0],[0,9E9,9E9,9E9,9E9,9E9]],v150,z20,custom_tool1\WObj:=WObj0;
MoveL [[303.2,153.55,104.5],[0,0.923318,0.384037,0],[0,-1,-1,0],[0,9E9,9E9,9E9,9E9,9E9]],v150,z20,custom_tool1\WObj:=WObj0;
WaitTime 1.5;
SetDO Stavbar_Gripper_close, 0;
SetDO Stavbar_Gripper_open, 1;
WaitTime 1;
SetDO Stavbar_Gripper_open, 0;
MoveL [[303.2,153.55,204.5],[0,0.923318,0.384037,0],[0,-1,-1,0],[0,9E9,9E9,9E9,9E9,9E9]],v150,z20,custom_tool1\WObj:=WObj0;
MoveJ [[424.57,176.97,302.86],[0.320717,-0.233457,0.914293,-0.081892],[0,-1,-1,0],[0,9E9,9E9,9E9,9E9,9E9]],v150,z20,custom_tool1\WObj:=WObj0;
MoveJ [[25,450,138.8],[-0.174713,0.907209,0.375778,0.072368],[0,-1,-1,0],[0,9E9,9E9,9E9,9E9,9E9]],v150,z20,custom_tool1\WObj:=WObj0;
MoveL [[25,550,38.8],[-0.174713,0.907209,0.375778,0.072368],[0,-1,-1,0],[0,9E9,9E9,9E9,9E9,9E9]],v150,z20,custom_tool1\WObj:=WObj0;
IF TestDI(Stavbar_opt) THEN
WaitDI Stavbar_opt, 0;
ENDIF
WaitTime 1.5;
SetDO Stavbar_Gripper_open, 0;
SetDO Stavbar_Gripper_close, 1;
WaitTime 1;
MoveL [[25,450,138.8],[-0.174713,0.907209,0.375778,0.072368],[0,-1,-1,0],[0,9E9,9E9,9E9,9E9,9E9]],v150,z20,custom_tool1\WObj:=WObj0;
MoveJ [[424.57,176.97,302.86],[0.320717,-0.233457,0.914293,-0.081892],[0,-1,-1,0],[0,9E9,9E9,9E9,9E9,9E9]],v150,z20,custom_tool1\WObj:=WObj0;
MoveJ [[303.51,45.7,204.5],[0,0.923318,0.384037,0],[0,-1,-1,0],[0,9E9,9E9,9E9,9E9,9E9]],v150,z20,custom_tool1\WObj:=WObj0;
MoveL [[303.51,45.7,104.5],[0,0.923318,0.384037,0],[0,-1,-1,0],[0,9E9,9E9,9E9,9E9,9E9]],v150,z20,custom_tool1\WObj:=WObj0;
WaitTime 1.5;
SetDO Stavbar_Gripper_close, 0;
SetDO Stavbar_Gripper_open, 1;
WaitTime 1;
SetDO Stavbar_Gripper_open, 0;
MoveL [[303.51,45.7,204.5],[0,0.923318,0.384037,0],[0,-1,-1,0],[0,9E9,9E9,9E9,9E9,9E9]],v150,z20,custom_tool1\WObj:=WObj0;
MoveJ [[424.57,176.97,302.86],[0.320717,-0.233457,0.914293,-0.081892],[0,-1,-1,0],[0,9E9,9E9,9E9,9E9,9E9]],v150,z20,custom_tool1\WObj:=WObj0;
MoveJ [[25,450,138.8],[-0.174713,0.907209,0.375778,0.072368],[0,-1,-1,0],[0,9E9,9E9,9E9,9E9,9E9]],v150,z20,custom_tool1\WObj:=WObj0;
MoveL [[25,550,38.8],[-0.174713,0.907209,0.375778,0.072368],[0,-1,-1,0],[0,9E9,9E9,9E9,9E9,9E9]],v150,z20,custom_tool1\WObj:=WObj0;
IF TestDI(Stavbar_opt) THEN
WaitDI Stavbar_opt, 0;
ENDIF
WaitTime 1.5;
SetDO Stavbar_Gripper_open, 0;
SetDO Stavbar_Gripper_close, 1;
WaitTime 1;
MoveL [[25,450,138.8],[-0.174713,0.907209,0.375778,0.072368],[0,-1,-1,0],[0,9E9,9E9,9E9,9E9,9E9]],v150,z20,custom_tool1\WObj:=WObj0;
MoveJ [[424.57,176.97,302.86],[0.320717,-0.233457,0.914293,-0.081892],[0,-1,-1,0],[0,9E9,9E9,9E9,9E9,9E9]],v150,z20,custom_tool1\WObj:=WObj0;
MoveJ [[424.57,176.97,302.86],[0.320717,-0.233457,0.914293,-0.081892],[0,-1,-1,0],[0,9E9,9E9,9E9,9E9,9E9]],v150,z20,custom_tool1\WObj:=WObj0;
MoveJ [[303.83,-62.14,204.5],[0,0.923318,0.384037,0],[0,-1,-1,0],[0,9E9,9E9,9E9,9E9,9E9]],v150,z20,custom_tool1\WObj:=WObj0;
MoveL [[303.83,-62.14,104.5],[0,0.923318,0.384037,0],[0,-1,-1,0],[0,9E9,9E9,9E9,9E9,9E9]],v150,z20,custom_tool1\WObj:=WObj0;
WaitTime 1.5;
SetDO Stavbar_Gripper_close, 0;
SetDO Stavbar_Gripper_open, 1;
WaitTime 1;
SetDO Stavbar_Gripper_open, 0;
MoveL [[303.83,-62.14,204.5],[0,0.923318,0.384037,0],[0,-1,-1,0],[0,9E9,9E9,9E9,9E9,9E9]],v150,z20,custom_tool1\WObj:=WObj0;
MoveJ [[424.57,176.97,302.86],[0.320717,-0.233457,0.914293,-0.081892],[0,-1,-1,0],[0,9E9,9E9,9E9,9E9,9E9]],v150,z20,custom_tool1\WObj:=WObj0;
MoveJ [[424.57,176.97,302.86],[0.320717,-0.233457,0.914293,-0.081892],[0,-1,-1,0],[0,9E9,9E9,9E9,9E9,9E9]],v150,z20,custom_tool1\WObj:=WObj0;
MoveJ [[25,450,138.8],[-0.174713,0.907209,0.375778,0.072368],[0,-1,-1,0],[0,9E9,9E9,9E9,9E9,9E9]],v150,z20,custom_tool1\WObj:=WObj0;
MoveL [[25,550,38.8],[-0.174713,0.907209,0.375778,0.072368],[0,-1,-1,0],[0,9E9,9E9,9E9,9E9,9E9]],v150,z20,custom_tool1\WObj:=WObj0;
IF TestDI(Stavbar_opt) THEN
WaitDI Stavbar_opt, 0;
ENDIF
WaitTime 1.5;
SetDO Stavbar_Gripper_open, 0;
SetDO Stavbar_Gripper_close, 1;
WaitTime 1;
MoveL [[25,450,138.8],[-0.174713,0.907209,0.375778,0.072368],[0,-1,-1,0],[0,9E9,9E9,9E9,9E9,9E9]],v150,z20,custom_tool1\WObj:=WObj0;
MoveJ [[424.57,176.97,302.86],[0.320717,-0.233457,0.914293,-0.081892],[0,-1,-1,0],[0,9E9,9E9,9E9,9E9,9E9]],v150,z20,custom_tool1\WObj:=WObj0;
MoveJ [[424.57,176.97,302.86],[0.320717,-0.233457,0.914293,-0.081892],[0,-1,-1,0],[0,9E9,9E9,9E9,9E9,9E9]],v150,z20,custom_tool1\WObj:=WObj0;
MoveJ [[304.15,-169.99,204.5],[0,0.923318,0.384037,0],[0,-1,-1,0],[0,9E9,9E9,9E9,9E9,9E9]],v150,z20,custom_tool1\WObj:=WObj0;
MoveL [[304.15,-169.99,104.5],[0,0.923318,0.384037,0],[0,-1,-1,0],[0,9E9,9E9,9E9,9E9,9E9]],v150,z20,custom_tool1\WObj:=WObj0;
WaitTime 1.5;
SetDO Stavbar_Gripper_close, 0;
SetDO Stavbar_Gripper_open, 1;
WaitTime 1;
SetDO Stavbar_Gripper_open, 0;
MoveL [[304.15,-169.99,204.5],[0,0.923318,0.384037,0],[0,-1,-1,0],[0,9E9,9E9,9E9,9E9,9E9]],v150,z20,custom_tool1\WObj:=WObj0;
MoveJ [[424.57,176.97,302.86],[0.320717,-0.233457,0.914293,-0.081892],[0,-1,-1,0],[0,9E9,9E9,9E9,9E9,9E9]],v150,z20,custom_tool1\WObj:=WObj0;
MoveJ [[424.57,176.97,302.86],[0.320717,-0.233457,0.914293,-0.081892],[0,-1,-1,0],[0,9E9,9E9,9E9,9E9,9E9]],v150,z20,custom_tool1\WObj:=WObj0;
MoveJ [[25,450,138.8],[-0.174713,0.907209,0.375778,0.072368],[0,-1,-1,0],[0,9E9,9E9,9E9,9E9,9E9]],v150,z20,custom_tool1\WObj:=WObj0;
MoveL [[25,550,38.8],[-0.174713,0.907209,0.375778,0.072368],[0,-1,-1,0],[0,9E9,9E9,9E9,9E9,9E9]],v150,z20,custom_tool1\WObj:=WObj0;
IF TestDI(Stavbar_opt) THEN
WaitDI Stavbar_opt, 0;
ENDIF
WaitTime 1.5;
SetDO Stavbar_Gripper_open, 0;
SetDO Stavbar_Gripper_close, 1;
WaitTime 1;
MoveL [[25,450,138.8],[-0.174713,0.907209,0.375778,0.072368],[0,-1,-1,0],[0,9E9,9E9,9E9,9E9,9E9]],v150,z20,custom_tool1\WObj:=WObj0;
MoveJ [[424.57,176.97,302.86],[0.320717,-0.233457,0.914293,-0.081892],[0,-1,-1,0],[0,9E9,9E9,9E9,9E9,9E9]],v150,z20,custom_tool1\WObj:=WObj0;
MoveJ [[424.57,176.97,302.86],[0.320717,-0.233457,0.914293,-0.081892],[0,-1,-1,0],[0,9E9,9E9,9E9,9E9,9E9]],v150,z20,custom_tool1\WObj:=WObj0;
MoveJ [[338.79,-243.41,204.5],[0,0.382683,0.92388,0],[0,-1,-1,0],[0,9E9,9E9,9E9,9E9,9E9]],v150,z20,custom_tool1\WObj:=WObj0;
MoveL [[338.79,-243.41,104.5],[0,0.382683,0.92388,0],[0,-1,-1,0],[0,9E9,9E9,9E9,9E9,9E9]],v150,z20,custom_tool1\WObj:=WObj0;
WaitTime 1.5;
SetDO Stavbar_Gripper_close, 0;
SetDO Stavbar_Gripper_open, 1;
WaitTime 1;
SetDO Stavbar_Gripper_open, 0;
MoveL [[338.79,-243.41,204.5],[0,0.382683,0.92388,0],[0,-1,-1,0],[0,9E9,9E9,9E9,9E9,9E9]],v150,z20,custom_tool1\WObj:=WObj0;
MoveJ [[424.57,176.97,302.86],[0.320717,-0.233457,0.914293,-0.081892],[0,-1,-1,0],[0,9E9,9E9,9E9,9E9,9E9]],v150,z20,custom_tool1\WObj:=WObj0;
MoveJ [[424.57,176.97,302.86],[0.320717,-0.233457,0.914293,-0.081892],[0,-1,-1,0],[0,9E9,9E9,9E9,9E9,9E9]],v150,z20,custom_tool1\WObj:=WObj0;
MoveJ [[25,450,138.8],[-0.174713,0.907209,0.375778,0.072368],[0,-1,-1,0],[0,9E9,9E9,9E9,9E9,9E9]],v150,z20,custom_tool1\WObj:=WObj0;
MoveL [[25,550,38.8],[-0.174713,0.907209,0.375778,0.072368],[0,-1,-1,0],[0,9E9,9E9,9E9,9E9,9E9]],v150,z20,custom_tool1\WObj:=WObj0;
IF TestDI(Stavbar_opt) THEN
WaitDI Stavbar_opt, 0;
ENDIF
WaitTime 1.5;
SetDO Stavbar_Gripper_open, 0;
SetDO Stavbar_Gripper_close, 1;
WaitTime 1;
MoveL [[25,450,138.8],[-0.174713,0.907209,0.375778,0.072368],[0,-1,-1,0],[0,9E9,9E9,9E9,9E9,9E9]],v150,z20,custom_tool1\WObj:=WObj0;
MoveJ [[424.57,176.97,302.86],[0.320717,-0.233457,0.914293,-0.081892],[0,-1,-1,0],[0,9E9,9E9,9E9,9E9,9E9]],v150,z20,custom_tool1\WObj:=WObj0;
MoveJ [[424.57,176.97,302.86],[0.320717,-0.233457,0.914293,-0.081892],[0,-1,-1,0],[0,9E9,9E9,9E9,9E9,9E9]],v150,z20,custom_tool1\WObj:=WObj0;
MoveJ [[446.63,-243.41,204.5],[0,0.382683,0.92388,0],[0,-1,-1,0],[0,9E9,9E9,9E9,9E9,9E9]],v150,z20,custom_tool1\WObj:=WObj0;
MoveL [[446.63,-243.41,104.5],[0,0.382683,0.92388,0],[0,-1,-1,0],[0,9E9,9E9,9E9,9E9,9E9]],v150,z20,custom_tool1\WObj:=WObj0;
WaitTime 1.5;
SetDO Stavbar_Gripper_close, 0;
SetDO Stavbar_Gripper_open, 1;
WaitTime 1;
SetDO Stavbar_Gripper_open, 0;
MoveL [[446.63,-243.41,204.5],[0,0.382683,0.92388,0],[0,-1,-1,0],[0,9E9,9E9,9E9,9E9,9E9]],v150,z20,custom_tool1\WObj:=WObj0;
MoveJ [[424.57,176.97,302.86],[0.320717,-0.233457,0.914293,-0.081892],[0,-1,-1,0],[0,9E9,9E9,9E9,9E9,9E9]],v150,z20,custom_tool1\WObj:=WObj0;
MoveJ [[424.57,176.97,302.86],[0.320717,-0.233457,0.914293,-0.081892],[0,-1,-1,0],[0,9E9,9E9,9E9,9E9,9E9]],v150,z20,custom_tool1\WObj:=WObj0;
MoveJ [[25,450,138.8],[-0.174713,0.907209,0.375778,0.072368],[0,-1,-1,0],[0,9E9,9E9,9E9,9E9,9E9]],v150,z20,custom_tool1\WObj:=WObj0;
MoveL [[25,550,38.8],[-0.174713,0.907209,0.375778,0.072368],[0,-1,-1,0],[0,9E9,9E9,9E9,9E9,9E9]],v150,z20,custom_tool1\WObj:=WObj0;
IF TestDI(Stavbar_opt) THEN
WaitDI Stavbar_opt, 0;
ENDIF
WaitTime 1.5;
SetDO Stavbar_Gripper_open, 0;
SetDO Stavbar_Gripper_close, 1;
WaitTime 1;
MoveL [[25,450,138.8],[-0.174713,0.907209,0.375778,0.072368],[0,-1,-1,0],[0,9E9,9E9,9E9,9E9,9E9]],v150,z20,custom_tool1\WObj:=WObj0;
MoveJ [[424.57,176.97,302.86],[0.320717,-0.233457,0.914293,-0.081892],[0,-1,-1,0],[0,9E9,9E9,9E9,9E9,9E9]],v150,z20,custom_tool1\WObj:=WObj0;
MoveJ [[424.57,176.97,302.86],[0.320717,-0.233457,0.914293,-0.081892],[0,-1,-1,0],[0,9E9,9E9,9E9,9E9,9E9]],v150,z20,custom_tool1\WObj:=WObj0;
MoveJ [[453.71,-142.64,204.5],[0,0.92388,0.382683,0],[0,-1,-1,0],[0,9E9,9E9,9E9,9E9,9E9]],v150,z20,custom_tool1\WObj:=WObj0;
MoveL [[453.71,-142.64,104.5],[0,0.92388,0.382683,0],[0,-1,-1,0],[0,9E9,9E9,9E9,9E9,9E9]],v150,z20,custom_tool1\WObj:=WObj0;
WaitTime 1.5;
SetDO Stavbar_Gripper_close, 0;
SetDO Stavbar_Gripper_open, 1;
WaitTime 1;
SetDO Stavbar_Gripper_open, 0;
MoveL [[453.71,-142.64,204.5],[0,0.92388,0.382683,0],[0,-1,-1,0],[0,9E9,9E9,9E9,9E9,9E9]],v150,z20,custom_tool1\WObj:=WObj0;
MoveJ [[424.57,176.97,302.86],[0.320717,-0.233457,0.914293,-0.081892],[0,-1,-1,0],[0,9E9,9E9,9E9,9E9,9E9]],v150,z20,custom_tool1\WObj:=WObj0;
MoveJ [[424.57,176.97,302.86],[0.320717,-0.233457,0.914293,-0.081892],[0,-1,-1,0],[0,9E9,9E9,9E9,9E9,9E9]],v150,z20,custom_tool1\WObj:=WObj0;
MoveJ [[25,450,138.8],[-0.174713,0.907209,0.375778,0.072368],[0,-1,-1,0],[0,9E9,9E9,9E9,9E9,9E9]],v150,z20,custom_tool1\WObj:=WObj0;
MoveL [[25,550,38.8],[-0.174713,0.907209,0.375778,0.072368],[0,-1,-1,0],[0,9E9,9E9,9E9,9E9,9E9]],v150,z20,custom_tool1\WObj:=WObj0;
IF TestDI(Stavbar_opt) THEN
WaitDI Stavbar_opt, 0;
ENDIF
WaitTime 1.5;
SetDO Stavbar_Gripper_open, 0;
SetDO Stavbar_Gripper_close, 1;
WaitTime 1;
MoveL [[25,450,138.8],[-0.174713,0.907209,0.375778,0.072368],[0,-1,-1,0],[0,9E9,9E9,9E9,9E9,9E9]],v150,z20,custom_tool1\WObj:=WObj0;
MoveJ [[424.57,176.97,302.86],[0.320717,-0.233457,0.914293,-0.081892],[0,-1,-1,0],[0,9E9,9E9,9E9,9E9,9E9]],v150,z20,custom_tool1\WObj:=WObj0;
MoveJ [[424.57,176.97,302.86],[0.320717,-0.233457,0.914293,-0.081892],[0,-1,-1,0],[0,9E9,9E9,9E9,9E9,9E9]],v150,z20,custom_tool1\WObj:=WObj0;
MoveJ [[453.71,-34.79,204.5],[0,0.92388,0.382683,0],[0,-1,-1,0],[0,9E9,9E9,9E9,9E9,9E9]],v150,z20,custom_tool1\WObj:=WObj0;
MoveL [[453.71,-34.79,104.5],[0,0.92388,0.382683,0],[0,-1,-1,0],[0,9E9,9E9,9E9,9E9,9E9]],v150,z20,custom_tool1\WObj:=WObj0;
WaitTime 1.5;
SetDO Stavbar_Gripper_close, 0;
SetDO Stavbar_Gripper_open, 1;
WaitTime 1;
SetDO Stavbar_Gripper_open, 0;
MoveL [[453.71,-34.79,204.5],[0,0.92388,0.382683,0],[0,-1,-1,0],[0,9E9,9E9,9E9,9E9,9E9]],v150,z20,custom_tool1\WObj:=WObj0;
MoveJ [[424.57,176.97,302.86],[0.320717,-0.233457,0.914293,-0.081892],[0,-1,-1,0],[0,9E9,9E9,9E9,9E9,9E9]],v150,z20,custom_tool1\WObj:=WObj0;
MoveJ [[424.57,176.97,302.86],[0.320717,-0.233457,0.914293,-0.081892],[0,-1,-1,0],[0,9E9,9E9,9E9,9E9,9E9]],v150,z20,custom_tool1\WObj:=WObj0;
MoveJ [[25,450,138.8],[-0.174713,0.907209,0.375778,0.072368],[0,-1,-1,0],[0,9E9,9E9,9E9,9E9,9E9]],v150,z20,custom_tool1\WObj:=WObj0;
MoveL [[25,550,38.8],[-0.174713,0.907209,0.375778,0.072368],[0,-1,-1,0],[0,9E9,9E9,9E9,9E9,9E9]],v150,z20,custom_tool1\WObj:=WObj0;
IF TestDI(Stavbar_opt) THEN
WaitDI Stavbar_opt, 0;
ENDIF
WaitTime 1.5;
SetDO Stavbar_Gripper_open, 0;
SetDO Stavbar_Gripper_close, 1;
WaitTime 1;
MoveL [[25,450,138.8],[-0.174713,0.907209,0.375778,0.072368],[0,-1,-1,0],[0,9E9,9E9,9E9,9E9,9E9]],v150,z20,custom_tool1\WObj:=WObj0;
MoveJ [[424.57,176.97,302.86],[0.320717,-0.233457,0.914293,-0.081892],[0,-1,-1,0],[0,9E9,9E9,9E9,9E9,9E9]],v150,z20,custom_tool1\WObj:=WObj0;
MoveJ [[453.71,73.05,204.5],[0,0.92388,0.382683,0],[0,-1,-1,0],[0,9E9,9E9,9E9,9E9,9E9]],v150,z20,custom_tool1\WObj:=WObj0;
MoveL [[453.71,73.05,104.5],[0,0.92388,0.382683,0],[0,-1,-1,0],[0,9E9,9E9,9E9,9E9,9E9]],v150,z20,custom_tool1\WObj:=WObj0;
WaitTime 1.5;
SetDO Stavbar_Gripper_close, 0;
SetDO Stavbar_Gripper_open, 1;
WaitTime 1;
SetDO Stavbar_Gripper_open, 0;
MoveL [[453.71,73.05,204.5],[0,0.92388,0.382683,0],[0,-1,-1,0],[0,9E9,9E9,9E9,9E9,9E9]],v150,z20,custom_tool1\WObj:=WObj0;
MoveJ [[424.57,176.97,302.86],[0.320717,-0.233457,0.914293,-0.081892],[0,-1,-1,0],[0,9E9,9E9,9E9,9E9,9E9]],v150,z20,custom_tool1\WObj:=WObj0;
MoveJ [[25,450,138.8],[-0.174713,0.907209,0.375778,0.072368],[0,-1,-1,0],[0,9E9,9E9,9E9,9E9,9E9]],v150,z20,custom_tool1\WObj:=WObj0;
MoveL [[25,550,38.8],[-0.174713,0.907209,0.375778,0.072368],[0,-1,-1,0],[0,9E9,9E9,9E9,9E9,9E9]],v150,z20,custom_tool1\WObj:=WObj0;
IF TestDI(Stavbar_opt) THEN
WaitDI Stavbar_opt, 0;
ENDIF
WaitTime 1.5;
SetDO Stavbar_Gripper_open, 0;
SetDO Stavbar_Gripper_close, 1;
WaitTime 1;
MoveL [[25,450,138.8],[-0.174713,0.907209,0.375778,0.072368],[0,-1,-1,0],[0,9E9,9E9,9E9,9E9,9E9]],v150,z20,custom_tool1\WObj:=WObj0;
MoveJ [[424.57,176.97,302.86],[0.320717,-0.233457,0.914293,-0.081892],[0,-1,-1,0],[0,9E9,9E9,9E9,9E9,9E9]],v150,z20,custom_tool1\WObj:=WObj0;
MoveJ [[445.57,172.6,204.5],[0,0.927427,-0.374004,0],[0,-1,-1,0],[0,9E9,9E9,9E9,9E9,9E9]],v150,z20,custom_tool1\WObj:=WObj0;
MoveL [[445.57,172.6,104.5],[0,0.927427,-0.374004,0],[0,-1,-1,0],[0,9E9,9E9,9E9,9E9,9E9]],v150,z20,custom_tool1\WObj:=WObj0;
WaitTime 1.5;
SetDO Stavbar_Gripper_close, 0;
SetDO Stavbar_Gripper_open, 1;
WaitTime 1;
SetDO Stavbar_Gripper_open, 0;
MoveL [[445.57,172.6,204.5],[0,0.927427,-0.374004,0],[0,-1,-1,0],[0,9E9,9E9,9E9,9E9,9E9]],v150,z20,custom_tool1\WObj:=WObj0;
MoveJ [[424.57,176.97,302.86],[0.320717,-0.233457,0.914293,-0.081892],[0,-1,-1,0],[0,9E9,9E9,9E9,9E9,9E9]],v150,z20,custom_tool1\WObj:=WObj0;
MoveJ [[25,450,138.8],[-0.174713,0.907209,0.375778,0.072368],[0,-1,-1,0],[0,9E9,9E9,9E9,9E9,9E9]],v150,z20,custom_tool1\WObj:=WObj0;
MoveJ [[-63,450,138.8],[-0.174713,0.907209,0.375778,0.072368],[0,-1,-1,0],[0,9E9,9E9,9E9,9E9,9E9]],v150,z20,custom_tool1\WObj:=WObj0;
MoveL [[-63,550,38.8],[-0.174713,0.907209,0.375778,0.072368],[0,-1,-1,0],[0,9E9,9E9,9E9,9E9,9E9]],v150,z20,custom_tool1\WObj:=WObj0;
IF TestDI(Stavbar_opt) THEN
WaitDI Stavbar_opt, 0;
ENDIF
WaitTime 1.5;
SetDO Stavbar_Gripper_open, 0;
SetDO Stavbar_Gripper_close, 1;
WaitTime 1;
MoveL [[-63,450,138.8],[-0.174713,0.907209,0.375778,0.072368],[0,-1,-1,0],[0,9E9,9E9,9E9,9E9,9E9]],v150,z20,custom_tool1\WObj:=WObj0;
MoveJ [[25,450,138.8],[-0.174713,0.907209,0.375778,0.072368],[0,-1,-1,0],[0,9E9,9E9,9E9,9E9,9E9]],v150,z20,custom_tool1\WObj:=WObj0;
MoveJ [[424.57,176.97,302.86],[0.320717,-0.233457,0.914293,-0.081892],[0,-1,-1,0],[0,9E9,9E9,9E9,9E9,9E9]],v150,z20,custom_tool1\WObj:=WObj0;
MoveJ [[375.65,171.29,204.5],[0,0.927427,-0.374004,0],[0,-1,-1,0],[0,9E9,9E9,9E9,9E9,9E9]],v150,z20,custom_tool1\WObj:=WObj0;
MoveL [[375.65,171.29,104.5],[0,0.927427,-0.374004,0],[0,-1,-1,0],[0,9E9,9E9,9E9,9E9,9E9]],v150,z20,custom_tool1\WObj:=WObj0;
WaitTime 1.5;
SetDO Stavbar_Gripper_close, 0;
SetDO Stavbar_Gripper_open, 1;
WaitTime 1;
SetDO Stavbar_Gripper_open, 0;
MoveL [[375.65,171.29,204.5],[0,0.927427,-0.374004,0],[0,-1,-1,0],[0,9E9,9E9,9E9,9E9,9E9]],v150,z20,custom_tool1\WObj:=WObj0;
MoveJ [[424.57,176.97,302.86],[0.320717,-0.233457,0.914293,-0.081892],[0,-1,-1,0],[0,9E9,9E9,9E9,9E9,9E9]],v150,z20,custom_tool1\WObj:=WObj0;
MoveJ [[25,450,138.8],[-0.174713,0.907209,0.375778,0.072368],[0,-1,-1,0],[0,9E9,9E9,9E9,9E9,9E9]],v150,z20,custom_tool1\WObj:=WObj0;
MoveJ [[-63,450,138.8],[-0.174713,0.907209,0.375778,0.072368],[0,-1,-1,0],[0,9E9,9E9,9E9,9E9,9E9]],v150,z20,custom_tool1\WObj:=WObj0;
MoveL [[-63,550,38.8],[-0.174713,0.907209,0.375778,0.072368],[0,-1,-1,0],[0,9E9,9E9,9E9,9E9,9E9]],v150,z20,custom_tool1\WObj:=WObj0;
IF TestDI(Stavbar_opt) THEN
WaitDI Stavbar_opt, 0;
ENDIF
WaitTime 1.5;
SetDO Stavbar_Gripper_open, 0;
SetDO Stavbar_Gripper_close, 1;
WaitTime 1;
MoveL [[-63,450,138.8],[-0.174713,0.907209,0.375778,0.072368],[0,-1,-1,0],[0,9E9,9E9,9E9,9E9,9E9]],v150,z20,custom_tool1\WObj:=WObj0;
MoveJ [[25,450,138.8],[-0.174713,0.907209,0.375778,0.072368],[0,-1,-1,0],[0,9E9,9E9,9E9,9E9,9E9]],v150,z20,custom_tool1\WObj:=WObj0;
MoveJ [[424.57,176.97,302.86],[0.320717,-0.233457,0.914293,-0.081892],[0,-1,-1,0],[0,9E9,9E9,9E9,9E9,9E9]],v150,z20,custom_tool1\WObj:=WObj0;
MoveJ [[303.15,169.55,227.5],[0,0.923318,0.384037,0],[0,-1,-1,0],[0,9E9,9E9,9E9,9E9,9E9]],v150,z20,custom_tool1\WObj:=WObj0;
MoveL [[303.15,169.55,127.5],[0,0.923318,0.384037,0],[0,-1,-1,0],[0,9E9,9E9,9E9,9E9,9E9]],v150,z20,custom_tool1\WObj:=WObj0;
WaitTime 1.5;
SetDO Stavbar_Gripper_close, 0;
SetDO Stavbar_Gripper_open, 1;
WaitTime 1;
SetDO Stavbar_Gripper_open, 0;
MoveL [[303.15,169.55,227.5],[0,0.923318,0.384037,0],[0,-1,-1,0],[0,9E9,9E9,9E9,9E9,9E9]],v150,z20,custom_tool1\WObj:=WObj0;
MoveJ [[424.57,176.97,302.86],[0.320717,-0.233457,0.914293,-0.081892],[0,-1,-1,0],[0,9E9,9E9,9E9,9E9,9E9]],v150,z20,custom_tool1\WObj:=WObj0;
MoveJ [[25,450,138.8],[-0.174713,0.907209,0.375778,0.072368],[0,-1,-1,0],[0,9E9,9E9,9E9,9E9,9E9]],v150,z20,custom_tool1\WObj:=WObj0;
MoveL [[25,550,38.8],[-0.174713,0.907209,0.375778,0.072368],[0,-1,-1,0],[0,9E9,9E9,9E9,9E9,9E9]],v150,z20,custom_tool1\WObj:=WObj0;
IF TestDI(Stavbar_opt) THEN
WaitDI Stavbar_opt, 0;
ENDIF
WaitTime 1.5;
SetDO Stavbar_Gripper_open, 0;
SetDO Stavbar_Gripper_close, 1;
WaitTime 1;
MoveL [[25,450,138.8],[-0.174713,0.907209,0.375778,0.072368],[0,-1,-1,0],[0,9E9,9E9,9E9,9E9,9E9]],v150,z20,custom_tool1\WObj:=WObj0;
MoveJ [[424.57,176.97,302.86],[0.320717,-0.233457,0.914293,-0.081892],[0,-1,-1,0],[0,9E9,9E9,9E9,9E9,9E9]],v150,z20,custom_tool1\WObj:=WObj0;
MoveJ [[303.36,99.63,227.5],[0,0.923318,0.384037,0],[0,-1,-1,0],[0,9E9,9E9,9E9,9E9,9E9]],v150,z20,custom_tool1\WObj:=WObj0;
MoveL [[303.36,99.63,127.5],[0,0.923318,0.384037,0],[0,-1,-1,0],[0,9E9,9E9,9E9,9E9,9E9]],v150,z20,custom_tool1\WObj:=WObj0;
WaitTime 1.5;
SetDO Stavbar_Gripper_close, 0;
SetDO Stavbar_Gripper_open, 1;
WaitTime 1;
SetDO Stavbar_Gripper_open, 0;
MoveL [[303.36,99.63,227.5],[0,0.923318,0.384037,0],[0,-1,-1,0],[0,9E9,9E9,9E9,9E9,9E9]],v150,z20,custom_tool1\WObj:=WObj0;
MoveJ [[424.57,176.97,302.86],[0.320717,-0.233457,0.914293,-0.081892],[0,-1,-1,0],[0,9E9,9E9,9E9,9E9,9E9]],v150,z20,custom_tool1\WObj:=WObj0;
MoveJ [[25,450,138.8],[-0.174713,0.907209,0.375778,0.072368],[0,-1,-1,0],[0,9E9,9E9,9E9,9E9,9E9]],v150,z20,custom_tool1\WObj:=WObj0;
MoveL [[25,550,38.8],[-0.174713,0.907209,0.375778,0.072368],[0,-1,-1,0],[0,9E9,9E9,9E9,9E9,9E9]],v150,z20,custom_tool1\WObj:=WObj0;
IF TestDI(Stavbar_opt) THEN
WaitDI Stavbar_opt, 0;
ENDIF
WaitTime 1.5;
SetDO Stavbar_Gripper_open, 0;
SetDO Stavbar_Gripper_close, 1;
WaitTime 1;
MoveL [[25,450,138.8],[-0.174713,0.907209,0.375778,0.072368],[0,-1,-1,0],[0,9E9,9E9,9E9,9E9,9E9]],v150,z20,custom_tool1\WObj:=WObj0;
MoveJ [[424.57,176.97,302.86],[0.320717,-0.233457,0.914293,-0.081892],[0,-1,-1,0],[0,9E9,9E9,9E9,9E9,9E9]],v150,z20,custom_tool1\WObj:=WObj0;
MoveJ [[424.57,176.97,302.86],[0.320717,-0.233457,0.914293,-0.081892],[0,-1,-1,0],[0,9E9,9E9,9E9,9E9,9E9]],v150,z20,custom_tool1\WObj:=WObj0;
MoveJ [[303.67,-8.22,227.5],[0,0.923318,0.384037,0],[0,-1,-1,0],[0,9E9,9E9,9E9,9E9,9E9]],v150,z20,custom_tool1\WObj:=WObj0;
MoveL [[303.67,-8.22,127.5],[0,0.923318,0.384037,0],[0,-1,-1,0],[0,9E9,9E9,9E9,9E9,9E9]],v150,z20,custom_tool1\WObj:=WObj0;
WaitTime 1.5;
SetDO Stavbar_Gripper_close, 0;
SetDO Stavbar_Gripper_open, 1;
WaitTime 1;
SetDO Stavbar_Gripper_open, 0;
MoveL [[303.67,-8.22,227.5],[0,0.923318,0.384037,0],[0,-1,-1,0],[0,9E9,9E9,9E9,9E9,9E9]],v150,z20,custom_tool1\WObj:=WObj0;
MoveJ [[424.57,176.97,302.86],[0.320717,-0.233457,0.914293,-0.081892],[0,-1,-1,0],[0,9E9,9E9,9E9,9E9,9E9]],v150,z20,custom_tool1\WObj:=WObj0;
MoveJ [[424.57,176.97,302.86],[0.320717,-0.233457,0.914293,-0.081892],[0,-1,-1,0],[0,9E9,9E9,9E9,9E9,9E9]],v150,z20,custom_tool1\WObj:=WObj0;
MoveJ [[25,450,138.8],[-0.174713,0.907209,0.375778,0.072368],[0,-1,-1,0],[0,9E9,9E9,9E9,9E9,9E9]],v150,z20,custom_tool1\WObj:=WObj0;
MoveL [[25,550,38.8],[-0.174713,0.907209,0.375778,0.072368],[0,-1,-1,0],[0,9E9,9E9,9E9,9E9,9E9]],v150,z20,custom_tool1\WObj:=WObj0;
IF TestDI(Stavbar_opt) THEN
WaitDI Stavbar_opt, 0;
ENDIF
WaitTime 1.5;
SetDO Stavbar_Gripper_open, 0;
SetDO Stavbar_Gripper_close, 1;
WaitTime 1;
MoveL [[25,450,138.8],[-0.174713,0.907209,0.375778,0.072368],[0,-1,-1,0],[0,9E9,9E9,9E9,9E9,9E9]],v150,z20,custom_tool1\WObj:=WObj0;
MoveJ [[424.57,176.97,302.86],[0.320717,-0.233457,0.914293,-0.081892],[0,-1,-1,0],[0,9E9,9E9,9E9,9E9,9E9]],v150,z20,custom_tool1\WObj:=WObj0;
MoveJ [[424.57,176.97,302.86],[0.320717,-0.233457,0.914293,-0.081892],[0,-1,-1,0],[0,9E9,9E9,9E9,9E9,9E9]],v150,z20,custom_tool1\WObj:=WObj0;
MoveJ [[303.99,-116.06,227.5],[0,0.923318,0.384037,0],[0,-1,-1,0],[0,9E9,9E9,9E9,9E9,9E9]],v150,z20,custom_tool1\WObj:=WObj0;
MoveL [[303.99,-116.06,127.5],[0,0.923318,0.384037,0],[0,-1,-1,0],[0,9E9,9E9,9E9,9E9,9E9]],v150,z20,custom_tool1\WObj:=WObj0;
WaitTime 1.5;
SetDO Stavbar_Gripper_close, 0;
SetDO Stavbar_Gripper_open, 1;
WaitTime 1;
SetDO Stavbar_Gripper_open, 0;
MoveL [[303.99,-116.06,227.5],[0,0.923318,0.384037,0],[0,-1,-1,0],[0,9E9,9E9,9E9,9E9,9E9]],v150,z20,custom_tool1\WObj:=WObj0;
MoveJ [[424.57,176.97,302.86],[0.320717,-0.233457,0.914293,-0.081892],[0,-1,-1,0],[0,9E9,9E9,9E9,9E9,9E9]],v150,z20,custom_tool1\WObj:=WObj0;
MoveJ [[424.57,176.97,302.86],[0.320717,-0.233457,0.914293,-0.081892],[0,-1,-1,0],[0,9E9,9E9,9E9,9E9,9E9]],v150,z20,custom_tool1\WObj:=WObj0;
MoveJ [[25,450,138.8],[-0.174713,0.907209,0.375778,0.072368],[0,-1,-1,0],[0,9E9,9E9,9E9,9E9,9E9]],v150,z20,custom_tool1\WObj:=WObj0;
MoveL [[25,550,38.8],[-0.174713,0.907209,0.375778,0.072368],[0,-1,-1,0],[0,9E9,9E9,9E9,9E9,9E9]],v150,z20,custom_tool1\WObj:=WObj0;
IF TestDI(Stavbar_opt) THEN
WaitDI Stavbar_opt, 0;
ENDIF
WaitTime 1.5;
SetDO Stavbar_Gripper_open, 0;
SetDO Stavbar_Gripper_close, 1;
WaitTime 1;
MoveL [[25,450,138.8],[-0.174713,0.907209,0.375778,0.072368],[0,-1,-1,0],[0,9E9,9E9,9E9,9E9,9E9]],v150,z20,custom_tool1\WObj:=WObj0;
MoveJ [[424.57,176.97,302.86],[0.320717,-0.233457,0.914293,-0.081892],[0,-1,-1,0],[0,9E9,9E9,9E9,9E9,9E9]],v150,z20,custom_tool1\WObj:=WObj0;
MoveJ [[424.57,176.97,302.86],[0.320717,-0.233457,0.914293,-0.081892],[0,-1,-1,0],[0,9E9,9E9,9E9,9E9,9E9]],v150,z20,custom_tool1\WObj:=WObj0;
MoveJ [[304.3,-223.91,227.5],[0,0.923318,0.384037,0],[0,-1,-1,0],[0,9E9,9E9,9E9,9E9,9E9]],v150,z20,custom_tool1\WObj:=WObj0;
MoveL [[304.3,-223.91,127.5],[0,0.923318,0.384037,0],[0,-1,-1,0],[0,9E9,9E9,9E9,9E9,9E9]],v150,z20,custom_tool1\WObj:=WObj0;
WaitTime 1.5;
SetDO Stavbar_Gripper_close, 0;
SetDO Stavbar_Gripper_open, 1;
WaitTime 1;
SetDO Stavbar_Gripper_open, 0;
MoveL [[304.3,-223.91,227.5],[0,0.923318,0.384037,0],[0,-1,-1,0],[0,9E9,9E9,9E9,9E9,9E9]],v150,z20,custom_tool1\WObj:=WObj0;
MoveJ [[424.57,176.97,302.86],[0.320717,-0.233457,0.914293,-0.081892],[0,-1,-1,0],[0,9E9,9E9,9E9,9E9,9E9]],v150,z20,custom_tool1\WObj:=WObj0;
MoveJ [[424.57,176.97,302.86],[0.320717,-0.233457,0.914293,-0.081892],[0,-1,-1,0],[0,9E9,9E9,9E9,9E9,9E9]],v150,z20,custom_tool1\WObj:=WObj0;
MoveJ [[25,450,138.8],[-0.174713,0.907209,0.375778,0.072368],[0,-1,-1,0],[0,9E9,9E9,9E9,9E9,9E9]],v150,z20,custom_tool1\WObj:=WObj0;
MoveL [[25,550,38.8],[-0.174713,0.907209,0.375778,0.072368],[0,-1,-1,0],[0,9E9,9E9,9E9,9E9,9E9]],v150,z20,custom_tool1\WObj:=WObj0;
IF TestDI(Stavbar_opt) THEN
WaitDI Stavbar_opt, 0;
ENDIF
WaitTime 1.5;
SetDO Stavbar_Gripper_open, 0;
SetDO Stavbar_Gripper_close, 1;
WaitTime 1;
MoveL [[25,450,138.8],[-0.174713,0.907209,0.375778,0.072368],[0,-1,-1,0],[0,9E9,9E9,9E9,9E9,9E9]],v150,z20,custom_tool1\WObj:=WObj0;
MoveJ [[424.57,176.97,302.86],[0.320717,-0.233457,0.914293,-0.081892],[0,-1,-1,0],[0,9E9,9E9,9E9,9E9,9E9]],v150,z20,custom_tool1\WObj:=WObj0;
MoveJ [[424.57,176.97,302.86],[0.320717,-0.233457,0.914293,-0.081892],[0,-1,-1,0],[0,9E9,9E9,9E9,9E9,9E9]],v150,z20,custom_tool1\WObj:=WObj0;
MoveJ [[392.71,-243.41,227.5],[0,0.382683,0.92388,0],[0,-1,-1,0],[0,9E9,9E9,9E9,9E9,9E9]],v150,z20,custom_tool1\WObj:=WObj0;
MoveL [[392.71,-243.41,127.5],[0,0.382683,0.92388,0],[0,-1,-1,0],[0,9E9,9E9,9E9,9E9,9E9]],v150,z20,custom_tool1\WObj:=WObj0;
WaitTime 1.5;
SetDO Stavbar_Gripper_close, 0;
SetDO Stavbar_Gripper_open, 1;
WaitTime 1;
SetDO Stavbar_Gripper_open, 0;
MoveL [[392.71,-243.41,227.5],[0,0.382683,0.92388,0],[0,-1,-1,0],[0,9E9,9E9,9E9,9E9,9E9]],v150,z20,custom_tool1\WObj:=WObj0;
MoveJ [[424.57,176.97,302.86],[0.320717,-0.233457,0.914293,-0.081892],[0,-1,-1,0],[0,9E9,9E9,9E9,9E9,9E9]],v150,z20,custom_tool1\WObj:=WObj0;
MoveJ [[424.57,176.97,302.86],[0.320717,-0.233457,0.914293,-0.081892],[0,-1,-1,0],[0,9E9,9E9,9E9,9E9,9E9]],v150,z20,custom_tool1\WObj:=WObj0;
MoveJ [[25,450,138.8],[-0.174713,0.907209,0.375778,0.072368],[0,-1,-1,0],[0,9E9,9E9,9E9,9E9,9E9]],v150,z20,custom_tool1\WObj:=WObj0;
MoveL [[25,550,38.8],[-0.174713,0.907209,0.375778,0.072368],[0,-1,-1,0],[0,9E9,9E9,9E9,9E9,9E9]],v150,z20,custom_tool1\WObj:=WObj0;
IF TestDI(Stavbar_opt) THEN
WaitDI Stavbar_opt, 0;
ENDIF
WaitTime 1.5;
SetDO Stavbar_Gripper_open, 0;
SetDO Stavbar_Gripper_close, 1;
WaitTime 1;
MoveL [[25,450,138.8],[-0.174713,0.907209,0.375778,0.072368],[0,-1,-1,0],[0,9E9,9E9,9E9,9E9,9E9]],v150,z20,custom_tool1\WObj:=WObj0;
MoveJ [[424.57,176.97,302.86],[0.320717,-0.233457,0.914293,-0.081892],[0,-1,-1,0],[0,9E9,9E9,9E9,9E9,9E9]],v150,z20,custom_tool1\WObj:=WObj0;
MoveJ [[424.57,176.97,302.86],[0.320717,-0.233457,0.914293,-0.081892],[0,-1,-1,0],[0,9E9,9E9,9E9,9E9,9E9]],v150,z20,custom_tool1\WObj:=WObj0;
MoveJ [[453.71,-196.56,227.5],[0,0.92388,0.382683,0],[0,-1,-1,0],[0,9E9,9E9,9E9,9E9,9E9]],v150,z20,custom_tool1\WObj:=WObj0;
MoveL [[453.71,-196.56,127.5],[0,0.92388,0.382683,0],[0,-1,-1,0],[0,9E9,9E9,9E9,9E9,9E9]],v150,z20,custom_tool1\WObj:=WObj0;
WaitTime 1.5;
SetDO Stavbar_Gripper_close, 0;
SetDO Stavbar_Gripper_open, 1;
WaitTime 1;
SetDO Stavbar_Gripper_open, 0;
MoveL [[453.71,-196.56,227.5],[0,0.92388,0.382683,0],[0,-1,-1,0],[0,9E9,9E9,9E9,9E9,9E9]],v150,z20,custom_tool1\WObj:=WObj0;
MoveJ [[424.57,176.97,302.86],[0.320717,-0.233457,0.914293,-0.081892],[0,-1,-1,0],[0,9E9,9E9,9E9,9E9,9E9]],v150,z20,custom_tool1\WObj:=WObj0;
MoveJ [[424.57,176.97,302.86],[0.320717,-0.233457,0.914293,-0.081892],[0,-1,-1,0],[0,9E9,9E9,9E9,9E9,9E9]],v150,z20,custom_tool1\WObj:=WObj0;
MoveJ [[25,450,138.8],[-0.174713,0.907209,0.375778,0.072368],[0,-1,-1,0],[0,9E9,9E9,9E9,9E9,9E9]],v150,z20,custom_tool1\WObj:=WObj0;
MoveL [[25,550,38.8],[-0.174713,0.907209,0.375778,0.072368],[0,-1,-1,0],[0,9E9,9E9,9E9,9E9,9E9]],v150,z20,custom_tool1\WObj:=WObj0;
IF TestDI(Stavbar_opt) THEN
WaitDI Stavbar_opt, 0;
ENDIF
WaitTime 1.5;
SetDO Stavbar_Gripper_open, 0;
SetDO Stavbar_Gripper_close, 1;
WaitTime 1;
MoveL [[25,450,138.8],[-0.174713,0.907209,0.375778,0.072368],[0,-1,-1,0],[0,9E9,9E9,9E9,9E9,9E9]],v150,z20,custom_tool1\WObj:=WObj0;
MoveJ [[424.57,176.97,302.86],[0.320717,-0.233457,0.914293,-0.081892],[0,-1,-1,0],[0,9E9,9E9,9E9,9E9,9E9]],v150,z20,custom_tool1\WObj:=WObj0;
MoveJ [[424.57,176.97,302.86],[0.320717,-0.233457,0.914293,-0.081892],[0,-1,-1,0],[0,9E9,9E9,9E9,9E9,9E9]],v150,z20,custom_tool1\WObj:=WObj0;
MoveJ [[453.71,-88.71,227.5],[0,0.92388,0.382683,0],[0,-1,-1,0],[0,9E9,9E9,9E9,9E9,9E9]],v150,z20,custom_tool1\WObj:=WObj0;
MoveL [[453.71,-88.71,127.5],[0,0.92388,0.382683,0],[0,-1,-1,0],[0,9E9,9E9,9E9,9E9,9E9]],v150,z20,custom_tool1\WObj:=WObj0;
WaitTime 1.5;
SetDO Stavbar_Gripper_close, 0;
SetDO Stavbar_Gripper_open, 1;
WaitTime 1;
SetDO Stavbar_Gripper_open, 0;
MoveL [[453.71,-88.71,227.5],[0,0.92388,0.382683,0],[0,-1,-1,0],[0,9E9,9E9,9E9,9E9,9E9]],v150,z20,custom_tool1\WObj:=WObj0;
MoveJ [[424.57,176.97,302.86],[0.320717,-0.233457,0.914293,-0.081892],[0,-1,-1,0],[0,9E9,9E9,9E9,9E9,9E9]],v150,z20,custom_tool1\WObj:=WObj0;
MoveJ [[424.57,176.97,302.86],[0.320717,-0.233457,0.914293,-0.081892],[0,-1,-1,0],[0,9E9,9E9,9E9,9E9,9E9]],v150,z20,custom_tool1\WObj:=WObj0;
MoveJ [[25,450,138.8],[-0.174713,0.907209,0.375778,0.072368],[0,-1,-1,0],[0,9E9,9E9,9E9,9E9,9E9]],v150,z20,custom_tool1\WObj:=WObj0;
MoveL [[25,550,38.8],[-0.174713,0.907209,0.375778,0.072368],[0,-1,-1,0],[0,9E9,9E9,9E9,9E9,9E9]],v150,z20,custom_tool1\WObj:=WObj0;
IF TestDI(Stavbar_opt) THEN
WaitDI Stavbar_opt, 0;
ENDIF
WaitTime 1.5;
SetDO Stavbar_Gripper_open, 0;
SetDO Stavbar_Gripper_close, 1;
WaitTime 1;
MoveL [[25,450,138.8],[-0.174713,0.907209,0.375778,0.072368],[0,-1,-1,0],[0,9E9,9E9,9E9,9E9,9E9]],v150,z20,custom_tool1\WObj:=WObj0;
MoveJ [[424.57,176.97,302.86],[0.320717,-0.233457,0.914293,-0.081892],[0,-1,-1,0],[0,9E9,9E9,9E9,9E9,9E9]],v150,z20,custom_tool1\WObj:=WObj0;
MoveJ [[453.71,19.13,227.5],[0,0.92388,0.382683,0],[0,-1,-1,0],[0,9E9,9E9,9E9,9E9,9E9]],v150,z20,custom_tool1\WObj:=WObj0;
MoveL [[453.71,19.13,127.5],[0,0.92388,0.382683,0],[0,-1,-1,0],[0,9E9,9E9,9E9,9E9,9E9]],v150,z20,custom_tool1\WObj:=WObj0;
WaitTime 1.5;
SetDO Stavbar_Gripper_close, 0;
SetDO Stavbar_Gripper_open, 1;
WaitTime 1;
SetDO Stavbar_Gripper_open, 0;
MoveL [[453.71,19.13,227.5],[0,0.92388,0.382683,0],[0,-1,-1,0],[0,9E9,9E9,9E9,9E9,9E9]],v150,z20,custom_tool1\WObj:=WObj0;
MoveJ [[424.57,176.97,302.86],[0.320717,-0.233457,0.914293,-0.081892],[0,-1,-1,0],[0,9E9,9E9,9E9,9E9,9E9]],v150,z20,custom_tool1\WObj:=WObj0;
MoveJ [[25,450,138.8],[-0.174713,0.907209,0.375778,0.072368],[0,-1,-1,0],[0,9E9,9E9,9E9,9E9,9E9]],v150,z20,custom_tool1\WObj:=WObj0;
MoveL [[25,550,38.8],[-0.174713,0.907209,0.375778,0.072368],[0,-1,-1,0],[0,9E9,9E9,9E9,9E9,9E9]],v150,z20,custom_tool1\WObj:=WObj0;
IF TestDI(Stavbar_opt) THEN
WaitDI Stavbar_opt, 0;
ENDIF
WaitTime 1.5;
SetDO Stavbar_Gripper_open, 0;
SetDO Stavbar_Gripper_close, 1;
WaitTime 1;
MoveL [[25,450,138.8],[-0.174713,0.907209,0.375778,0.072368],[0,-1,-1,0],[0,9E9,9E9,9E9,9E9,9E9]],v150,z20,custom_tool1\WObj:=WObj0;
MoveJ [[424.57,176.97,302.86],[0.320717,-0.233457,0.914293,-0.081892],[0,-1,-1,0],[0,9E9,9E9,9E9,9E9,9E9]],v150,z20,custom_tool1\WObj:=WObj0;
MoveJ [[453.71,126.98,227.5],[0,0.92388,0.382683,0],[0,-1,-1,0],[0,9E9,9E9,9E9,9E9,9E9]],v150,z20,custom_tool1\WObj:=WObj0;
MoveL [[453.71,126.98,127.5],[0,0.92388,0.382683,0],[0,-1,-1,0],[0,9E9,9E9,9E9,9E9,9E9]],v150,z20,custom_tool1\WObj:=WObj0;
WaitTime 1.5;
SetDO Stavbar_Gripper_close, 0;
SetDO Stavbar_Gripper_open, 1;
WaitTime 1;
SetDO Stavbar_Gripper_open, 0;
MoveL [[453.71,126.98,227.5],[0,0.92388,0.382683,0],[0,-1,-1,0],[0,9E9,9E9,9E9,9E9,9E9]],v150,z20,custom_tool1\WObj:=WObj0;
MoveJ [[424.57,176.97,302.86],[0.320717,-0.233457,0.914293,-0.081892],[0,-1,-1,0],[0,9E9,9E9,9E9,9E9,9E9]],v150,z20,custom_tool1\WObj:=WObj0;
MoveJ [[25,450,138.8],[-0.174713,0.907209,0.375778,0.072368],[0,-1,-1,0],[0,9E9,9E9,9E9,9E9,9E9]],v150,z20,custom_tool1\WObj:=WObj0;
MoveL [[25,550,38.8],[-0.174713,0.907209,0.375778,0.072368],[0,-1,-1,0],[0,9E9,9E9,9E9,9E9,9E9]],v150,z20,custom_tool1\WObj:=WObj0;
IF TestDI(Stavbar_opt) THEN
WaitDI Stavbar_opt, 0;
ENDIF
WaitTime 1.5;
SetDO Stavbar_Gripper_open, 0;
SetDO Stavbar_Gripper_close, 1;
WaitTime 1;
MoveL [[25,450,138.8],[-0.174713,0.907209,0.375778,0.072368],[0,-1,-1,0],[0,9E9,9E9,9E9,9E9,9E9]],v150,z20,custom_tool1\WObj:=WObj0;
