! TACO Target Robot: T_ROB1
MODULE MainModule
VAR speeddata Work:= [100,20,5000,1000];
PERS tooldata custom_tool1 := [TRUE, [[-144.18,-154.4,34.77], [0.707107,0.5,-0.5,0]], [0.1,[0.10,0.00,0.00],[1,0,0,0],0,0,0]];
PROC Main()
ConfL \Off;
ConfJ \Off;
MoveJ [[25,440,145.8],[-0.174713,0.907209,0.375778,0.072368],[0,-1,-1,0],[0,9E9,9E9,9E9,9E9,9E9]],v150,z20,custom_tool1\WObj:=WObj0;
MoveL [[25,540,45.8],[-0.174713,0.907209,0.375778,0.072368],[0,-1,-1,0],[0,9E9,9E9,9E9,9E9,9E9]],v150,z20,custom_tool1\WObj:=WObj0;
IF TestDI(Stavbar_opt) THEN
WaitDI Stavbar_opt, 0;
ENDIF
WaitTime 1.5;
SetDO Stavbar_Gripper_open, 0;
SetDO Stavbar_Gripper_close, 1;
WaitTime 1;
MoveL [[25,440,145.8],[-0.174713,0.907209,0.375778,0.072368],[0,-1,-1,0],[0,9E9,9E9,9E9,9E9,9E9]],v150,z20,custom_tool1\WObj:=WObj0;
MoveJ [[424.57,176.97,252.86],[0.320717,-0.233457,0.914293,-0.081892],[0,-1,-1,0],[0,9E9,9E9,9E9,9E9,9E9]],v150,z20,custom_tool1\WObj:=WObj0;
MoveJ [[222.7,538.8,112.5],[0,0.601948,0.798535,0],[0,-1,-1,0],[0,9E9,9E9,9E9,9E9,9E9]],v150,z20,custom_tool1\WObj:=WObj0;
MoveL [[222.7,538.8,12.5],[0,0.601948,0.798535,0],[0,-1,-1,0],[0,9E9,9E9,9E9,9E9,9E9]],v150,z20,custom_tool1\WObj:=WObj0;
WaitTime 1.5;
SetDO Stavbar_Gripper_close, 0;
SetDO Stavbar_Gripper_open, 1;
WaitTime 1;
SetDO Stavbar_Gripper_open, 0;
MoveL [[222.7,538.8,112.5],[0,0.601948,0.798535,0],[0,-1,-1,0],[0,9E9,9E9,9E9,9E9,9E9]],v150,z20,custom_tool1\WObj:=WObj0;
MoveJ [[424.57,176.97,252.86],[0.320717,-0.233457,0.914293,-0.081892],[0,-1,-1,0],[0,9E9,9E9,9E9,9E9,9E9]],v150,z20,custom_tool1\WObj:=WObj0;
MoveJ [[25,440,145.8],[-0.174713,0.907209,0.375778,0.072368],[0,-1,-1,0],[0,9E9,9E9,9E9,9E9,9E9]],v150,z20,custom_tool1\WObj:=WObj0;
MoveL [[25,540,45.8],[-0.174713,0.907209,0.375778,0.072368],[0,-1,-1,0],[0,9E9,9E9,9E9,9E9,9E9]],v150,z20,custom_tool1\WObj:=WObj0;
IF TestDI(Stavbar_opt) THEN
WaitDI Stavbar_opt, 0;
ENDIF
WaitTime 1.5;
SetDO Stavbar_Gripper_open, 0;
SetDO Stavbar_Gripper_close, 1;
WaitTime 1;
MoveL [[25,440,145.8],[-0.174713,0.907209,0.375778,0.072368],[0,-1,-1,0],[0,9E9,9E9,9E9,9E9,9E9]],v150,z20,custom_tool1\WObj:=WObj0;
MoveJ [[424.57,176.97,252.86],[0.320717,-0.233457,0.914293,-0.081892],[0,-1,-1,0],[0,9E9,9E9,9E9,9E9,9E9]],v150,z20,custom_tool1\WObj:=WObj0;
MoveJ [[329.41,455.66,112.5],[0,0.708973,0.705235,0],[0,-1,-1,0],[0,9E9,9E9,9E9,9E9,9E9]],v150,z20,custom_tool1\WObj:=WObj0;
MoveL [[329.41,455.66,12.5],[0,0.708973,0.705235,0],[0,-1,-1,0],[0,9E9,9E9,9E9,9E9,9E9]],v150,z20,custom_tool1\WObj:=WObj0;
WaitTime 1.5;
SetDO Stavbar_Gripper_close, 0;
SetDO Stavbar_Gripper_open, 1;
WaitTime 1;
SetDO Stavbar_Gripper_open, 0;
MoveL [[329.41,455.66,112.5],[0,0.708973,0.705235,0],[0,-1,-1,0],[0,9E9,9E9,9E9,9E9,9E9]],v150,z20,custom_tool1\WObj:=WObj0;
MoveJ [[424.57,176.97,252.86],[0.320717,-0.233457,0.914293,-0.081892],[0,-1,-1,0],[0,9E9,9E9,9E9,9E9,9E9]],v150,z20,custom_tool1\WObj:=WObj0;
MoveJ [[25,440,145.8],[-0.174713,0.907209,0.375778,0.072368],[0,-1,-1,0],[0,9E9,9E9,9E9,9E9,9E9]],v150,z20,custom_tool1\WObj:=WObj0;
MoveL [[25,540,45.8],[-0.174713,0.907209,0.375778,0.072368],[0,-1,-1,0],[0,9E9,9E9,9E9,9E9,9E9]],v150,z20,custom_tool1\WObj:=WObj0;
IF TestDI(Stavbar_opt) THEN
WaitDI Stavbar_opt, 0;
ENDIF
WaitTime 1.5;
SetDO Stavbar_Gripper_open, 0;
SetDO Stavbar_Gripper_close, 1;
WaitTime 1;
MoveL [[25,440,145.8],[-0.174713,0.907209,0.375778,0.072368],[0,-1,-1,0],[0,9E9,9E9,9E9,9E9,9E9]],v150,z20,custom_tool1\WObj:=WObj0;
MoveJ [[424.57,176.97,252.86],[0.320717,-0.233457,0.914293,-0.081892],[0,-1,-1,0],[0,9E9,9E9,9E9,9E9,9E9]],v150,z20,custom_tool1\WObj:=WObj0;
MoveJ [[414.96,350.54,112.5],[0,0.770994,0.636842,0],[0,-1,-1,0],[0,9E9,9E9,9E9,9E9,9E9]],v150,z20,custom_tool1\WObj:=WObj0;
MoveL [[414.96,350.54,12.5],[0,0.770994,0.636842,0],[0,-1,-1,0],[0,9E9,9E9,9E9,9E9,9E9]],v150,z20,custom_tool1\WObj:=WObj0;
WaitTime 1.5;
SetDO Stavbar_Gripper_close, 0;
SetDO Stavbar_Gripper_open, 1;
WaitTime 1;
SetDO Stavbar_Gripper_open, 0;
MoveL [[414.96,350.54,112.5],[0,0.770994,0.636842,0],[0,-1,-1,0],[0,9E9,9E9,9E9,9E9,9E9]],v150,z20,custom_tool1\WObj:=WObj0;
MoveJ [[424.57,176.97,252.86],[0.320717,-0.233457,0.914293,-0.081892],[0,-1,-1,0],[0,9E9,9E9,9E9,9E9,9E9]],v150,z20,custom_tool1\WObj:=WObj0;
MoveJ [[25,440,145.8],[-0.174713,0.907209,0.375778,0.072368],[0,-1,-1,0],[0,9E9,9E9,9E9,9E9,9E9]],v150,z20,custom_tool1\WObj:=WObj0;
MoveL [[25,540,45.8],[-0.174713,0.907209,0.375778,0.072368],[0,-1,-1,0],[0,9E9,9E9,9E9,9E9,9E9]],v150,z20,custom_tool1\WObj:=WObj0;
IF TestDI(Stavbar_opt) THEN
WaitDI Stavbar_opt, 0;
ENDIF
WaitTime 1.5;
SetDO Stavbar_Gripper_open, 0;
SetDO Stavbar_Gripper_close, 1;
WaitTime 1;
MoveL [[25,440,145.8],[-0.174713,0.907209,0.375778,0.072368],[0,-1,-1,0],[0,9E9,9E9,9E9,9E9,9E9]],v150,z20,custom_tool1\WObj:=WObj0;
MoveJ [[424.57,176.97,252.86],[0.320717,-0.233457,0.914293,-0.081892],[0,-1,-1,0],[0,9E9,9E9,9E9,9E9,9E9]],v150,z20,custom_tool1\WObj:=WObj0;
MoveJ [[482.19,232.77,112.5],[0,0.816713,0.577044,0],[0,-1,-1,0],[0,9E9,9E9,9E9,9E9,9E9]],v150,z20,custom_tool1\WObj:=WObj0;
MoveL [[482.19,232.77,12.5],[0,0.816713,0.577044,0],[0,-1,-1,0],[0,9E9,9E9,9E9,9E9,9E9]],v150,z20,custom_tool1\WObj:=WObj0;
WaitTime 1.5;
SetDO Stavbar_Gripper_close, 0;
SetDO Stavbar_Gripper_open, 1;
WaitTime 1;
SetDO Stavbar_Gripper_open, 0;
MoveL [[482.19,232.77,112.5],[0,0.816713,0.577044,0],[0,-1,-1,0],[0,9E9,9E9,9E9,9E9,9E9]],v150,z20,custom_tool1\WObj:=WObj0;
MoveJ [[424.57,176.97,252.86],[0.320717,-0.233457,0.914293,-0.081892],[0,-1,-1,0],[0,9E9,9E9,9E9,9E9,9E9]],v150,z20,custom_tool1\WObj:=WObj0;
MoveJ [[25,440,145.8],[-0.174713,0.907209,0.375778,0.072368],[0,-1,-1,0],[0,9E9,9E9,9E9,9E9,9E9]],v150,z20,custom_tool1\WObj:=WObj0;
MoveL [[25,540,45.8],[-0.174713,0.907209,0.375778,0.072368],[0,-1,-1,0],[0,9E9,9E9,9E9,9E9,9E9]],v150,z20,custom_tool1\WObj:=WObj0;
IF TestDI(Stavbar_opt) THEN
WaitDI Stavbar_opt, 0;
ENDIF
WaitTime 1.5;
SetDO Stavbar_Gripper_open, 0;
SetDO Stavbar_Gripper_close, 1;
WaitTime 1;
MoveL [[25,440,145.8],[-0.174713,0.907209,0.375778,0.072368],[0,-1,-1,0],[0,9E9,9E9,9E9,9E9,9E9]],v150,z20,custom_tool1\WObj:=WObj0;
MoveJ [[424.57,176.97,252.86],[0.320717,-0.233457,0.914293,-0.081892],[0,-1,-1,0],[0,9E9,9E9,9E9,9E9,9E9]],v150,z20,custom_tool1\WObj:=WObj0;
MoveJ [[531.54,106.46,112.5],[0,0.85659,0.515998,0],[0,-1,-1,0],[0,9E9,9E9,9E9,9E9,9E9]],v150,z20,custom_tool1\WObj:=WObj0;
MoveL [[531.54,106.46,12.5],[0,0.85659,0.515998,0],[0,-1,-1,0],[0,9E9,9E9,9E9,9E9,9E9]],v150,z20,custom_tool1\WObj:=WObj0;
WaitTime 1.5;
SetDO Stavbar_Gripper_close, 0;
SetDO Stavbar_Gripper_open, 1;
WaitTime 1;
SetDO Stavbar_Gripper_open, 0;
MoveL [[531.54,106.46,112.5],[0,0.85659,0.515998,0],[0,-1,-1,0],[0,9E9,9E9,9E9,9E9,9E9]],v150,z20,custom_tool1\WObj:=WObj0;
MoveJ [[424.57,176.97,252.86],[0.320717,-0.233457,0.914293,-0.081892],[0,-1,-1,0],[0,9E9,9E9,9E9,9E9,9E9]],v150,z20,custom_tool1\WObj:=WObj0;
MoveJ [[25,440,145.8],[-0.174713,0.907209,0.375778,0.072368],[0,-1,-1,0],[0,9E9,9E9,9E9,9E9,9E9]],v150,z20,custom_tool1\WObj:=WObj0;
MoveL [[25,540,45.8],[-0.174713,0.907209,0.375778,0.072368],[0,-1,-1,0],[0,9E9,9E9,9E9,9E9,9E9]],v150,z20,custom_tool1\WObj:=WObj0;
IF TestDI(Stavbar_opt) THEN
WaitDI Stavbar_opt, 0;
ENDIF
WaitTime 1.5;
SetDO Stavbar_Gripper_open, 0;
SetDO Stavbar_Gripper_close, 1;
WaitTime 1;
MoveL [[25,440,145.8],[-0.174713,0.907209,0.375778,0.072368],[0,-1,-1,0],[0,9E9,9E9,9E9,9E9,9E9]],v150,z20,custom_tool1\WObj:=WObj0;
MoveJ [[424.57,176.97,252.86],[0.320717,-0.233457,0.914293,-0.081892],[0,-1,-1,0],[0,9E9,9E9,9E9,9E9,9E9]],v150,z20,custom_tool1\WObj:=WObj0;
MoveJ [[424.57,176.97,252.86],[0.320717,-0.233457,0.914293,-0.081892],[0,-1,-1,0],[0,9E9,9E9,9E9,9E9,9E9]],v150,z20,custom_tool1\WObj:=WObj0;
MoveJ [[550.67,-25.63,112.5],[0,0.959505,0.28169,0],[0,-1,-1,0],[0,9E9,9E9,9E9,9E9,9E9]],v150,z20,custom_tool1\WObj:=WObj0;
MoveL [[550.67,-25.63,12.5],[0,0.959505,0.28169,0],[0,-1,-1,0],[0,9E9,9E9,9E9,9E9,9E9]],v150,z20,custom_tool1\WObj:=WObj0;
WaitTime 1.5;
SetDO Stavbar_Gripper_close, 0;
SetDO Stavbar_Gripper_open, 1;
WaitTime 1;
SetDO Stavbar_Gripper_open, 0;
MoveL [[550.67,-25.63,112.5],[0,0.959505,0.28169,0],[0,-1,-1,0],[0,9E9,9E9,9E9,9E9,9E9]],v150,z20,custom_tool1\WObj:=WObj0;
MoveJ [[424.57,176.97,252.86],[0.320717,-0.233457,0.914293,-0.081892],[0,-1,-1,0],[0,9E9,9E9,9E9,9E9,9E9]],v150,z20,custom_tool1\WObj:=WObj0;
MoveJ [[424.57,176.97,252.86],[0.320717,-0.233457,0.914293,-0.081892],[0,-1,-1,0],[0,9E9,9E9,9E9,9E9,9E9]],v150,z20,custom_tool1\WObj:=WObj0;
MoveJ [[25,440,145.8],[-0.174713,0.907209,0.375778,0.072368],[0,-1,-1,0],[0,9E9,9E9,9E9,9E9,9E9]],v150,z20,custom_tool1\WObj:=WObj0;
MoveL [[25,540,45.8],[-0.174713,0.907209,0.375778,0.072368],[0,-1,-1,0],[0,9E9,9E9,9E9,9E9,9E9]],v150,z20,custom_tool1\WObj:=WObj0;
IF TestDI(Stavbar_opt) THEN
WaitDI Stavbar_opt, 0;
ENDIF
WaitTime 1.5;
SetDO Stavbar_Gripper_open, 0;
SetDO Stavbar_Gripper_close, 1;
WaitTime 1;
MoveL [[25,440,145.8],[-0.174713,0.907209,0.375778,0.072368],[0,-1,-1,0],[0,9E9,9E9,9E9,9E9,9E9]],v150,z20,custom_tool1\WObj:=WObj0;
MoveJ [[424.57,176.97,252.86],[0.320717,-0.233457,0.914293,-0.081892],[0,-1,-1,0],[0,9E9,9E9,9E9,9E9,9E9]],v150,z20,custom_tool1\WObj:=WObj0;
MoveJ [[424.57,176.97,252.86],[0.320717,-0.233457,0.914293,-0.081892],[0,-1,-1,0],[0,9E9,9E9,9E9,9E9,9E9]],v150,z20,custom_tool1\WObj:=WObj0;
MoveJ [[511.81,-155.52,112.5],[0,0.979505,0.201419,0],[0,-1,-1,0],[0,9E9,9E9,9E9,9E9,9E9]],v150,z20,custom_tool1\WObj:=WObj0;
MoveL [[511.81,-155.52,12.5],[0,0.979505,0.201419,0],[0,-1,-1,0],[0,9E9,9E9,9E9,9E9,9E9]],v150,z20,custom_tool1\WObj:=WObj0;
WaitTime 1.5;
SetDO Stavbar_Gripper_close, 0;
SetDO Stavbar_Gripper_open, 1;
WaitTime 1;
SetDO Stavbar_Gripper_open, 0;
MoveL [[511.81,-155.52,112.5],[0,0.979505,0.201419,0],[0,-1,-1,0],[0,9E9,9E9,9E9,9E9,9E9]],v150,z20,custom_tool1\WObj:=WObj0;
MoveJ [[424.57,176.97,252.86],[0.320717,-0.233457,0.914293,-0.081892],[0,-1,-1,0],[0,9E9,9E9,9E9,9E9,9E9]],v150,z20,custom_tool1\WObj:=WObj0;
MoveJ [[424.57,176.97,252.86],[0.320717,-0.233457,0.914293,-0.081892],[0,-1,-1,0],[0,9E9,9E9,9E9,9E9,9E9]],v150,z20,custom_tool1\WObj:=WObj0;
MoveJ [[25,440,145.8],[-0.174713,0.907209,0.375778,0.072368],[0,-1,-1,0],[0,9E9,9E9,9E9,9E9,9E9]],v150,z20,custom_tool1\WObj:=WObj0;
MoveL [[25,540,45.8],[-0.174713,0.907209,0.375778,0.072368],[0,-1,-1,0],[0,9E9,9E9,9E9,9E9,9E9]],v150,z20,custom_tool1\WObj:=WObj0;
IF TestDI(Stavbar_opt) THEN
WaitDI Stavbar_opt, 0;
ENDIF
WaitTime 1.5;
SetDO Stavbar_Gripper_open, 0;
SetDO Stavbar_Gripper_close, 1;
WaitTime 1;
MoveL [[25,440,145.8],[-0.174713,0.907209,0.375778,0.072368],[0,-1,-1,0],[0,9E9,9E9,9E9,9E9,9E9]],v150,z20,custom_tool1\WObj:=WObj0;
MoveJ [[424.57,176.97,252.86],[0.320717,-0.233457,0.914293,-0.081892],[0,-1,-1,0],[0,9E9,9E9,9E9,9E9,9E9]],v150,z20,custom_tool1\WObj:=WObj0;
MoveJ [[424.57,176.97,252.86],[0.320717,-0.233457,0.914293,-0.081892],[0,-1,-1,0],[0,9E9,9E9,9E9,9E9,9E9]],v150,z20,custom_tool1\WObj:=WObj0;
MoveJ [[444.35,-272.55,112.5],[0,0.999536,0.030472,0],[0,-1,-1,0],[0,9E9,9E9,9E9,9E9,9E9]],v150,z20,custom_tool1\WObj:=WObj0;
MoveL [[444.35,-272.55,12.5],[0,0.999536,0.030472,0],[0,-1,-1,0],[0,9E9,9E9,9E9,9E9,9E9]],v150,z20,custom_tool1\WObj:=WObj0;
WaitTime 1.5;
SetDO Stavbar_Gripper_close, 0;
SetDO Stavbar_Gripper_open, 1;
WaitTime 1;
SetDO Stavbar_Gripper_open, 0;
MoveL [[444.35,-272.55,112.5],[0,0.999536,0.030472,0],[0,-1,-1,0],[0,9E9,9E9,9E9,9E9,9E9]],v150,z20,custom_tool1\WObj:=WObj0;
MoveJ [[424.57,176.97,252.86],[0.320717,-0.233457,0.914293,-0.081892],[0,-1,-1,0],[0,9E9,9E9,9E9,9E9,9E9]],v150,z20,custom_tool1\WObj:=WObj0;
MoveJ [[424.57,176.97,252.86],[0.320717,-0.233457,0.914293,-0.081892],[0,-1,-1,0],[0,9E9,9E9,9E9,9E9,9E9]],v150,z20,custom_tool1\WObj:=WObj0;
MoveJ [[25,440,145.8],[-0.174713,0.907209,0.375778,0.072368],[0,-1,-1,0],[0,9E9,9E9,9E9,9E9,9E9]],v150,z20,custom_tool1\WObj:=WObj0;
MoveL [[25,540,45.8],[-0.174713,0.907209,0.375778,0.072368],[0,-1,-1,0],[0,9E9,9E9,9E9,9E9,9E9]],v150,z20,custom_tool1\WObj:=WObj0;
IF TestDI(Stavbar_opt) THEN
WaitDI Stavbar_opt, 0;
ENDIF
WaitTime 1.5;
SetDO Stavbar_Gripper_open, 0;
SetDO Stavbar_Gripper_close, 1;
WaitTime 1;
MoveL [[25,440,145.8],[-0.174713,0.907209,0.375778,0.072368],[0,-1,-1,0],[0,9E9,9E9,9E9,9E9,9E9]],v150,z20,custom_tool1\WObj:=WObj0;
MoveJ [[424.57,176.97,252.86],[0.320717,-0.233457,0.914293,-0.081892],[0,-1,-1,0],[0,9E9,9E9,9E9,9E9,9E9]],v150,z20,custom_tool1\WObj:=WObj0;
MoveJ [[424.57,176.97,252.86],[0.320717,-0.233457,0.914293,-0.081892],[0,-1,-1,0],[0,9E9,9E9,9E9,9E9,9E9]],v150,z20,custom_tool1\WObj:=WObj0;
MoveJ [[324.88,-312.76,112.5],[0,0.568194,0.822895,0],[0,-1,-1,0],[0,9E9,9E9,9E9,9E9,9E9]],v150,z20,custom_tool1\WObj:=WObj0;
MoveL [[324.88,-312.76,12.5],[0,0.568194,0.822895,0],[0,-1,-1,0],[0,9E9,9E9,9E9,9E9,9E9]],v150,z20,custom_tool1\WObj:=WObj0;
WaitTime 1.5;
SetDO Stavbar_Gripper_close, 0;
SetDO Stavbar_Gripper_open, 1;
WaitTime 1;
SetDO Stavbar_Gripper_open, 0;
MoveL [[324.88,-312.76,112.5],[0,0.568194,0.822895,0],[0,-1,-1,0],[0,9E9,9E9,9E9,9E9,9E9]],v150,z20,custom_tool1\WObj:=WObj0;
MoveJ [[424.57,176.97,252.86],[0.320717,-0.233457,0.914293,-0.081892],[0,-1,-1,0],[0,9E9,9E9,9E9,9E9,9E9]],v150,z20,custom_tool1\WObj:=WObj0;
MoveJ [[424.57,176.97,252.86],[0.320717,-0.233457,0.914293,-0.081892],[0,-1,-1,0],[0,9E9,9E9,9E9,9E9,9E9]],v150,z20,custom_tool1\WObj:=WObj0;
MoveJ [[25,440,145.8],[-0.174713,0.907209,0.375778,0.072368],[0,-1,-1,0],[0,9E9,9E9,9E9,9E9,9E9]],v150,z20,custom_tool1\WObj:=WObj0;
MoveL [[25,540,45.8],[-0.174713,0.907209,0.375778,0.072368],[0,-1,-1,0],[0,9E9,9E9,9E9,9E9,9E9]],v150,z20,custom_tool1\WObj:=WObj0;
IF TestDI(Stavbar_opt) THEN
WaitDI Stavbar_opt, 0;
ENDIF
WaitTime 1.5;
SetDO Stavbar_Gripper_open, 0;
SetDO Stavbar_Gripper_close, 1;
WaitTime 1;
MoveL [[25,440,145.8],[-0.174713,0.907209,0.375778,0.072368],[0,-1,-1,0],[0,9E9,9E9,9E9,9E9,9E9]],v150,z20,custom_tool1\WObj:=WObj0;
MoveJ [[424.57,176.97,252.86],[0.320717,-0.233457,0.914293,-0.081892],[0,-1,-1,0],[0,9E9,9E9,9E9,9E9,9E9]],v150,z20,custom_tool1\WObj:=WObj0;
MoveJ [[424.57,176.97,252.86],[0.320717,-0.233457,0.914293,-0.081892],[0,-1,-1,0],[0,9E9,9E9,9E9,9E9,9E9]],v150,z20,custom_tool1\WObj:=WObj0;
MoveJ [[288.98,-192.74,112.5],[0,0.959437,0.281923,0],[0,-1,-1,0],[0,9E9,9E9,9E9,9E9,9E9]],v150,z20,custom_tool1\WObj:=WObj0;
MoveL [[288.98,-192.74,12.5],[0,0.959437,0.281923,0],[0,-1,-1,0],[0,9E9,9E9,9E9,9E9,9E9]],v150,z20,custom_tool1\WObj:=WObj0;
WaitTime 1.5;
SetDO Stavbar_Gripper_close, 0;
SetDO Stavbar_Gripper_open, 1;
WaitTime 1;
SetDO Stavbar_Gripper_open, 0;
MoveL [[288.98,-192.74,112.5],[0,0.959437,0.281923,0],[0,-1,-1,0],[0,9E9,9E9,9E9,9E9,9E9]],v150,z20,custom_tool1\WObj:=WObj0;
MoveJ [[424.57,176.97,252.86],[0.320717,-0.233457,0.914293,-0.081892],[0,-1,-1,0],[0,9E9,9E9,9E9,9E9,9E9]],v150,z20,custom_tool1\WObj:=WObj0;
MoveJ [[424.57,176.97,252.86],[0.320717,-0.233457,0.914293,-0.081892],[0,-1,-1,0],[0,9E9,9E9,9E9,9E9,9E9]],v150,z20,custom_tool1\WObj:=WObj0;
MoveJ [[25,440,145.8],[-0.174713,0.907209,0.375778,0.072368],[0,-1,-1,0],[0,9E9,9E9,9E9,9E9,9E9]],v150,z20,custom_tool1\WObj:=WObj0;
MoveL [[25,540,45.8],[-0.174713,0.907209,0.375778,0.072368],[0,-1,-1,0],[0,9E9,9E9,9E9,9E9,9E9]],v150,z20,custom_tool1\WObj:=WObj0;
IF TestDI(Stavbar_opt) THEN
WaitDI Stavbar_opt, 0;
ENDIF
WaitTime 1.5;
SetDO Stavbar_Gripper_open, 0;
SetDO Stavbar_Gripper_close, 1;
WaitTime 1;
MoveL [[25,440,145.8],[-0.174713,0.907209,0.375778,0.072368],[0,-1,-1,0],[0,9E9,9E9,9E9,9E9,9E9]],v150,z20,custom_tool1\WObj:=WObj0;
MoveJ [[424.57,176.97,252.86],[0.320717,-0.233457,0.914293,-0.081892],[0,-1,-1,0],[0,9E9,9E9,9E9,9E9,9E9]],v150,z20,custom_tool1\WObj:=WObj0;
MoveJ [[424.57,176.97,252.86],[0.320717,-0.233457,0.914293,-0.081892],[0,-1,-1,0],[0,9E9,9E9,9E9,9E9,9E9]],v150,z20,custom_tool1\WObj:=WObj0;
MoveJ [[336.52,-66.22,112.5],[0,0.958664,0.284542,0],[0,-1,-1,0],[0,9E9,9E9,9E9,9E9,9E9]],v150,z20,custom_tool1\WObj:=WObj0;
MoveL [[336.52,-66.22,12.5],[0,0.958664,0.284542,0],[0,-1,-1,0],[0,9E9,9E9,9E9,9E9,9E9]],v150,z20,custom_tool1\WObj:=WObj0;
WaitTime 1.5;
SetDO Stavbar_Gripper_close, 0;
SetDO Stavbar_Gripper_open, 1;
WaitTime 1;
SetDO Stavbar_Gripper_open, 0;
MoveL [[336.52,-66.22,112.5],[0,0.958664,0.284542,0],[0,-1,-1,0],[0,9E9,9E9,9E9,9E9,9E9]],v150,z20,custom_tool1\WObj:=WObj0;
MoveJ [[424.57,176.97,252.86],[0.320717,-0.233457,0.914293,-0.081892],[0,-1,-1,0],[0,9E9,9E9,9E9,9E9,9E9]],v150,z20,custom_tool1\WObj:=WObj0;
MoveJ [[424.57,176.97,252.86],[0.320717,-0.233457,0.914293,-0.081892],[0,-1,-1,0],[0,9E9,9E9,9E9,9E9,9E9]],v150,z20,custom_tool1\WObj:=WObj0;
MoveJ [[25,440,145.8],[-0.174713,0.907209,0.375778,0.072368],[0,-1,-1,0],[0,9E9,9E9,9E9,9E9,9E9]],v150,z20,custom_tool1\WObj:=WObj0;
MoveL [[25,540,45.8],[-0.174713,0.907209,0.375778,0.072368],[0,-1,-1,0],[0,9E9,9E9,9E9,9E9,9E9]],v150,z20,custom_tool1\WObj:=WObj0;
IF TestDI(Stavbar_opt) THEN
WaitDI Stavbar_opt, 0;
ENDIF
WaitTime 1.5;
SetDO Stavbar_Gripper_open, 0;
SetDO Stavbar_Gripper_close, 1;
WaitTime 1;
MoveL [[25,440,145.8],[-0.174713,0.907209,0.375778,0.072368],[0,-1,-1,0],[0,9E9,9E9,9E9,9E9,9E9]],v150,z20,custom_tool1\WObj:=WObj0;
MoveJ [[424.57,176.97,252.86],[0.320717,-0.233457,0.914293,-0.081892],[0,-1,-1,0],[0,9E9,9E9,9E9,9E9,9E9]],v150,z20,custom_tool1\WObj:=WObj0;
MoveJ [[335.31,68.59,112.5],[0,0.879946,0.475073,0],[0,-1,-1,0],[0,9E9,9E9,9E9,9E9,9E9]],v150,z20,custom_tool1\WObj:=WObj0;
MoveL [[335.31,68.59,12.5],[0,0.879946,0.475073,0],[0,-1,-1,0],[0,9E9,9E9,9E9,9E9,9E9]],v150,z20,custom_tool1\WObj:=WObj0;
WaitTime 1.5;
SetDO Stavbar_Gripper_close, 0;
SetDO Stavbar_Gripper_open, 1;
WaitTime 1;
SetDO Stavbar_Gripper_open, 0;
MoveL [[335.31,68.59,112.5],[0,0.879946,0.475073,0],[0,-1,-1,0],[0,9E9,9E9,9E9,9E9,9E9]],v150,z20,custom_tool1\WObj:=WObj0;
MoveJ [[424.57,176.97,252.86],[0.320717,-0.233457,0.914293,-0.081892],[0,-1,-1,0],[0,9E9,9E9,9E9,9E9,9E9]],v150,z20,custom_tool1\WObj:=WObj0;
MoveJ [[25,440,145.8],[-0.174713,0.907209,0.375778,0.072368],[0,-1,-1,0],[0,9E9,9E9,9E9,9E9,9E9]],v150,z20,custom_tool1\WObj:=WObj0;
MoveJ [[-63,440,145.8],[-0.174713,0.907209,0.375778,0.072368],[0,-1,-1,0],[0,9E9,9E9,9E9,9E9,9E9]],v150,z20,custom_tool1\WObj:=WObj0;
MoveL [[-63,540,45.8],[-0.174713,0.907209,0.375778,0.072368],[0,-1,-1,0],[0,9E9,9E9,9E9,9E9,9E9]],v150,z20,custom_tool1\WObj:=WObj0;
IF TestDI(Stavbar_opt) THEN
WaitDI Stavbar_opt, 0;
ENDIF
WaitTime 1.5;
SetDO Stavbar_Gripper_open, 0;
SetDO Stavbar_Gripper_close, 1;
WaitTime 1;
MoveL [[-63,440,145.8],[-0.174713,0.907209,0.375778,0.072368],[0,-1,-1,0],[0,9E9,9E9,9E9,9E9,9E9]],v150,z20,custom_tool1\WObj:=WObj0;
MoveJ [[25,440,145.8],[-0.174713,0.907209,0.375778,0.072368],[0,-1,-1,0],[0,9E9,9E9,9E9,9E9,9E9]],v150,z20,custom_tool1\WObj:=WObj0;
MoveJ [[424.57,176.97,252.86],[0.320717,-0.233457,0.914293,-0.081892],[0,-1,-1,0],[0,9E9,9E9,9E9,9E9,9E9]],v150,z20,custom_tool1\WObj:=WObj0;
MoveJ [[307.42,147.4,112.5],[0,0.817022,0.576606,0],[0,-1,-1,0],[0,9E9,9E9,9E9,9E9,9E9]],v150,z20,custom_tool1\WObj:=WObj0;
MoveL [[307.42,147.4,12.5],[0,0.817022,0.576606,0],[0,-1,-1,0],[0,9E9,9E9,9E9,9E9,9E9]],v150,z20,custom_tool1\WObj:=WObj0;
WaitTime 1.5;
SetDO Stavbar_Gripper_close, 0;
SetDO Stavbar_Gripper_open, 1;
WaitTime 1;
SetDO Stavbar_Gripper_open, 0;
MoveL [[307.42,147.4,112.5],[0,0.817022,0.576606,0],[0,-1,-1,0],[0,9E9,9E9,9E9,9E9,9E9]],v150,z20,custom_tool1\WObj:=WObj0;
MoveJ [[424.57,176.97,252.86],[0.320717,-0.233457,0.914293,-0.081892],[0,-1,-1,0],[0,9E9,9E9,9E9,9E9,9E9]],v150,z20,custom_tool1\WObj:=WObj0;
MoveJ [[25,440,145.8],[-0.174713,0.907209,0.375778,0.072368],[0,-1,-1,0],[0,9E9,9E9,9E9,9E9,9E9]],v150,z20,custom_tool1\WObj:=WObj0;
MoveJ [[-63,440,145.8],[-0.174713,0.907209,0.375778,0.072368],[0,-1,-1,0],[0,9E9,9E9,9E9,9E9,9E9]],v150,z20,custom_tool1\WObj:=WObj0;
MoveL [[-63,540,45.8],[-0.174713,0.907209,0.375778,0.072368],[0,-1,-1,0],[0,9E9,9E9,9E9,9E9,9E9]],v150,z20,custom_tool1\WObj:=WObj0;
IF TestDI(Stavbar_opt) THEN
WaitDI Stavbar_opt, 0;
ENDIF
WaitTime 1.5;
SetDO Stavbar_Gripper_open, 0;
SetDO Stavbar_Gripper_close, 1;
WaitTime 1;
MoveL [[-63,440,145.8],[-0.174713,0.907209,0.375778,0.072368],[0,-1,-1,0],[0,9E9,9E9,9E9,9E9,9E9]],v150,z20,custom_tool1\WObj:=WObj0;
MoveJ [[25,440,145.8],[-0.174713,0.907209,0.375778,0.072368],[0,-1,-1,0],[0,9E9,9E9,9E9,9E9,9E9]],v150,z20,custom_tool1\WObj:=WObj0;
MoveJ [[424.57,176.97,252.86],[0.320717,-0.233457,0.914293,-0.081892],[0,-1,-1,0],[0,9E9,9E9,9E9,9E9,9E9]],v150,z20,custom_tool1\WObj:=WObj0;
MoveJ [[208.71,546.56,135.5],[0,0.601948,0.798535,0],[0,-1,-1,0],[0,9E9,9E9,9E9,9E9,9E9]],v150,z20,custom_tool1\WObj:=WObj0;
MoveL [[208.71,546.56,35.5],[0,0.601948,0.798535,0],[0,-1,-1,0],[0,9E9,9E9,9E9,9E9,9E9]],v150,z20,custom_tool1\WObj:=WObj0;
WaitTime 1.5;
SetDO Stavbar_Gripper_close, 0;
SetDO Stavbar_Gripper_open, 1;
WaitTime 1;
SetDO Stavbar_Gripper_open, 0;
MoveL [[208.71,546.56,135.5],[0,0.601948,0.798535,0],[0,-1,-1,0],[0,9E9,9E9,9E9,9E9,9E9]],v150,z20,custom_tool1\WObj:=WObj0;
MoveJ [[424.57,176.97,252.86],[0.320717,-0.233457,0.914293,-0.081892],[0,-1,-1,0],[0,9E9,9E9,9E9,9E9,9E9]],v150,z20,custom_tool1\WObj:=WObj0;
MoveJ [[25,440,145.8],[-0.174713,0.907209,0.375778,0.072368],[0,-1,-1,0],[0,9E9,9E9,9E9,9E9,9E9]],v150,z20,custom_tool1\WObj:=WObj0;
MoveL [[25,540,45.8],[-0.174713,0.907209,0.375778,0.072368],[0,-1,-1,0],[0,9E9,9E9,9E9,9E9,9E9]],v150,z20,custom_tool1\WObj:=WObj0;
IF TestDI(Stavbar_opt) THEN
WaitDI Stavbar_opt, 0;
ENDIF
WaitTime 1.5;
SetDO Stavbar_Gripper_open, 0;
SetDO Stavbar_Gripper_close, 1;
WaitTime 1;
MoveL [[25,440,145.8],[-0.174713,0.907209,0.375778,0.072368],[0,-1,-1,0],[0,9E9,9E9,9E9,9E9,9E9]],v150,z20,custom_tool1\WObj:=WObj0;
MoveJ [[424.57,176.97,252.86],[0.320717,-0.233457,0.914293,-0.081892],[0,-1,-1,0],[0,9E9,9E9,9E9,9E9,9E9]],v150,z20,custom_tool1\WObj:=WObj0;
MoveJ [[278.96,500.99,135.5],[0,0.664558,0.747236,0],[0,-1,-1,0],[0,9E9,9E9,9E9,9E9,9E9]],v150,z20,custom_tool1\WObj:=WObj0;
MoveL [[278.96,500.99,35.5],[0,0.664558,0.747236,0],[0,-1,-1,0],[0,9E9,9E9,9E9,9E9,9E9]],v150,z20,custom_tool1\WObj:=WObj0;
WaitTime 1.5;
SetDO Stavbar_Gripper_close, 0;
SetDO Stavbar_Gripper_open, 1;
WaitTime 1;
SetDO Stavbar_Gripper_open, 0;
MoveL [[278.96,500.99,135.5],[0,0.664558,0.747236,0],[0,-1,-1,0],[0,9E9,9E9,9E9,9E9,9E9]],v150,z20,custom_tool1\WObj:=WObj0;
MoveJ [[424.57,176.97,252.86],[0.320717,-0.233457,0.914293,-0.081892],[0,-1,-1,0],[0,9E9,9E9,9E9,9E9,9E9]],v150,z20,custom_tool1\WObj:=WObj0;
MoveJ [[25,440,145.8],[-0.174713,0.907209,0.375778,0.072368],[0,-1,-1,0],[0,9E9,9E9,9E9,9E9,9E9]],v150,z20,custom_tool1\WObj:=WObj0;
MoveL [[25,540,45.8],[-0.174713,0.907209,0.375778,0.072368],[0,-1,-1,0],[0,9E9,9E9,9E9,9E9,9E9]],v150,z20,custom_tool1\WObj:=WObj0;
IF TestDI(Stavbar_opt) THEN
WaitDI Stavbar_opt, 0;
ENDIF
WaitTime 1.5;
SetDO Stavbar_Gripper_open, 0;
SetDO Stavbar_Gripper_close, 1;
WaitTime 1;
MoveL [[25,440,145.8],[-0.174713,0.907209,0.375778,0.072368],[0,-1,-1,0],[0,9E9,9E9,9E9,9E9,9E9]],v150,z20,custom_tool1\WObj:=WObj0;
MoveJ [[424.57,176.97,252.86],[0.320717,-0.233457,0.914293,-0.081892],[0,-1,-1,0],[0,9E9,9E9,9E9,9E9,9E9]],v150,z20,custom_tool1\WObj:=WObj0;
MoveJ [[374.6,405.06,135.5],[0,0.74308,0.669202,0],[0,-1,-1,0],[0,9E9,9E9,9E9,9E9,9E9]],v150,z20,custom_tool1\WObj:=WObj0;
MoveL [[374.6,405.06,35.5],[0,0.74308,0.669202,0],[0,-1,-1,0],[0,9E9,9E9,9E9,9E9,9E9]],v150,z20,custom_tool1\WObj:=WObj0;
WaitTime 1.5;
SetDO Stavbar_Gripper_close, 0;
SetDO Stavbar_Gripper_open, 1;
WaitTime 1;
SetDO Stavbar_Gripper_open, 0;
MoveL [[374.6,405.06,135.5],[0,0.74308,0.669202,0],[0,-1,-1,0],[0,9E9,9E9,9E9,9E9,9E9]],v150,z20,custom_tool1\WObj:=WObj0;
MoveJ [[424.57,176.97,252.86],[0.320717,-0.233457,0.914293,-0.081892],[0,-1,-1,0],[0,9E9,9E9,9E9,9E9,9E9]],v150,z20,custom_tool1\WObj:=WObj0;
MoveJ [[25,440,145.8],[-0.174713,0.907209,0.375778,0.072368],[0,-1,-1,0],[0,9E9,9E9,9E9,9E9,9E9]],v150,z20,custom_tool1\WObj:=WObj0;
MoveL [[25,540,45.8],[-0.174713,0.907209,0.375778,0.072368],[0,-1,-1,0],[0,9E9,9E9,9E9,9E9,9E9]],v150,z20,custom_tool1\WObj:=WObj0;
IF TestDI(Stavbar_opt) THEN
WaitDI Stavbar_opt, 0;
ENDIF
WaitTime 1.5;
SetDO Stavbar_Gripper_open, 0;
SetDO Stavbar_Gripper_close, 1;
WaitTime 1;
MoveL [[25,440,145.8],[-0.174713,0.907209,0.375778,0.072368],[0,-1,-1,0],[0,9E9,9E9,9E9,9E9,9E9]],v150,z20,custom_tool1\WObj:=WObj0;
MoveJ [[424.57,176.97,252.86],[0.320717,-0.233457,0.914293,-0.081892],[0,-1,-1,0],[0,9E9,9E9,9E9,9E9,9E9]],v150,z20,custom_tool1\WObj:=WObj0;
MoveJ [[450.79,292.92,135.5],[0,0.795054,0.606539,0],[0,-1,-1,0],[0,9E9,9E9,9E9,9E9,9E9]],v150,z20,custom_tool1\WObj:=WObj0;
MoveL [[450.79,292.92,35.5],[0,0.795054,0.606539,0],[0,-1,-1,0],[0,9E9,9E9,9E9,9E9,9E9]],v150,z20,custom_tool1\WObj:=WObj0;
WaitTime 1.5;
SetDO Stavbar_Gripper_close, 0;
SetDO Stavbar_Gripper_open, 1;
WaitTime 1;
SetDO Stavbar_Gripper_open, 0;
MoveL [[450.79,292.92,135.5],[0,0.795054,0.606539,0],[0,-1,-1,0],[0,9E9,9E9,9E9,9E9,9E9]],v150,z20,custom_tool1\WObj:=WObj0;
MoveJ [[424.57,176.97,252.86],[0.320717,-0.233457,0.914293,-0.081892],[0,-1,-1,0],[0,9E9,9E9,9E9,9E9,9E9]],v150,z20,custom_tool1\WObj:=WObj0;
MoveJ [[25,440,145.8],[-0.174713,0.907209,0.375778,0.072368],[0,-1,-1,0],[0,9E9,9E9,9E9,9E9,9E9]],v150,z20,custom_tool1\WObj:=WObj0;
MoveL [[25,540,45.8],[-0.174713,0.907209,0.375778,0.072368],[0,-1,-1,0],[0,9E9,9E9,9E9,9E9,9E9]],v150,z20,custom_tool1\WObj:=WObj0;
IF TestDI(Stavbar_opt) THEN
WaitDI Stavbar_opt, 0;
ENDIF
WaitTime 1.5;
SetDO Stavbar_Gripper_open, 0;
SetDO Stavbar_Gripper_close, 1;
WaitTime 1;
MoveL [[25,440,145.8],[-0.174713,0.907209,0.375778,0.072368],[0,-1,-1,0],[0,9E9,9E9,9E9,9E9,9E9]],v150,z20,custom_tool1\WObj:=WObj0;
MoveJ [[424.57,176.97,252.86],[0.320717,-0.233457,0.914293,-0.081892],[0,-1,-1,0],[0,9E9,9E9,9E9,9E9,9E9]],v150,z20,custom_tool1\WObj:=WObj0;
MoveJ [[509.16,170.51,135.5],[0,0.83697,0.547248,0],[0,-1,-1,0],[0,9E9,9E9,9E9,9E9,9E9]],v150,z20,custom_tool1\WObj:=WObj0;
MoveL [[509.16,170.51,35.5],[0,0.83697,0.547248,0],[0,-1,-1,0],[0,9E9,9E9,9E9,9E9,9E9]],v150,z20,custom_tool1\WObj:=WObj0;
WaitTime 1.5;
SetDO Stavbar_Gripper_close, 0;
SetDO Stavbar_Gripper_open, 1;
WaitTime 1;
SetDO Stavbar_Gripper_open, 0;
MoveL [[509.16,170.51,135.5],[0,0.83697,0.547248,0],[0,-1,-1,0],[0,9E9,9E9,9E9,9E9,9E9]],v150,z20,custom_tool1\WObj:=WObj0;
MoveJ [[424.57,176.97,252.86],[0.320717,-0.233457,0.914293,-0.081892],[0,-1,-1,0],[0,9E9,9E9,9E9,9E9,9E9]],v150,z20,custom_tool1\WObj:=WObj0;
MoveJ [[25,440,145.8],[-0.174713,0.907209,0.375778,0.072368],[0,-1,-1,0],[0,9E9,9E9,9E9,9E9,9E9]],v150,z20,custom_tool1\WObj:=WObj0;
MoveL [[25,540,45.8],[-0.174713,0.907209,0.375778,0.072368],[0,-1,-1,0],[0,9E9,9E9,9E9,9E9,9E9]],v150,z20,custom_tool1\WObj:=WObj0;
IF TestDI(Stavbar_opt) THEN
WaitDI Stavbar_opt, 0;
ENDIF
WaitTime 1.5;
SetDO Stavbar_Gripper_open, 0;
SetDO Stavbar_Gripper_close, 1;
WaitTime 1;
MoveL [[25,440,145.8],[-0.174713,0.907209,0.375778,0.072368],[0,-1,-1,0],[0,9E9,9E9,9E9,9E9,9E9]],v150,z20,custom_tool1\WObj:=WObj0;
MoveJ [[424.57,176.97,252.86],[0.320717,-0.233457,0.914293,-0.081892],[0,-1,-1,0],[0,9E9,9E9,9E9,9E9,9E9]],v150,z20,custom_tool1\WObj:=WObj0;
MoveJ [[548.99,40.9,135.5],[0,0.876232,0.48189,0],[0,-1,-1,0],[0,9E9,9E9,9E9,9E9,9E9]],v150,z20,custom_tool1\WObj:=WObj0;
MoveL [[548.99,40.9,35.5],[0,0.876232,0.48189,0],[0,-1,-1,0],[0,9E9,9E9,9E9,9E9,9E9]],v150,z20,custom_tool1\WObj:=WObj0;
WaitTime 1.5;
SetDO Stavbar_Gripper_close, 0;
SetDO Stavbar_Gripper_open, 1;
WaitTime 1;
SetDO Stavbar_Gripper_open, 0;
MoveL [[548.99,40.9,135.5],[0,0.876232,0.48189,0],[0,-1,-1,0],[0,9E9,9E9,9E9,9E9,9E9]],v150,z20,custom_tool1\WObj:=WObj0;
MoveJ [[424.57,176.97,252.86],[0.320717,-0.233457,0.914293,-0.081892],[0,-1,-1,0],[0,9E9,9E9,9E9,9E9,9E9]],v150,z20,custom_tool1\WObj:=WObj0;
MoveJ [[25,440,145.8],[-0.174713,0.907209,0.375778,0.072368],[0,-1,-1,0],[0,9E9,9E9,9E9,9E9,9E9]],v150,z20,custom_tool1\WObj:=WObj0;
MoveL [[25,540,45.8],[-0.174713,0.907209,0.375778,0.072368],[0,-1,-1,0],[0,9E9,9E9,9E9,9E9,9E9]],v150,z20,custom_tool1\WObj:=WObj0;
IF TestDI(Stavbar_opt) THEN
WaitDI Stavbar_opt, 0;
ENDIF
WaitTime 1.5;
SetDO Stavbar_Gripper_open, 0;
SetDO Stavbar_Gripper_close, 1;
WaitTime 1;
MoveL [[25,440,145.8],[-0.174713,0.907209,0.375778,0.072368],[0,-1,-1,0],[0,9E9,9E9,9E9,9E9,9E9]],v150,z20,custom_tool1\WObj:=WObj0;
MoveJ [[424.57,176.97,252.86],[0.320717,-0.233457,0.914293,-0.081892],[0,-1,-1,0],[0,9E9,9E9,9E9,9E9,9E9]],v150,z20,custom_tool1\WObj:=WObj0;
MoveJ [[424.57,176.97,252.86],[0.320717,-0.233457,0.914293,-0.081892],[0,-1,-1,0],[0,9E9,9E9,9E9,9E9,9E9]],v150,z20,custom_tool1\WObj:=WObj0;
MoveJ [[533.9,-91.37,135.5],[0,0.969186,0.246329,0],[0,-1,-1,0],[0,9E9,9E9,9E9,9E9,9E9]],v150,z20,custom_tool1\WObj:=WObj0;
MoveL [[533.9,-91.37,35.5],[0,0.969186,0.246329,0],[0,-1,-1,0],[0,9E9,9E9,9E9,9E9,9E9]],v150,z20,custom_tool1\WObj:=WObj0;
WaitTime 1.5;
SetDO Stavbar_Gripper_close, 0;
SetDO Stavbar_Gripper_open, 1;
WaitTime 1;
SetDO Stavbar_Gripper_open, 0;
MoveL [[533.9,-91.37,135.5],[0,0.969186,0.246329,0],[0,-1,-1,0],[0,9E9,9E9,9E9,9E9,9E9]],v150,z20,custom_tool1\WObj:=WObj0;
MoveJ [[424.57,176.97,252.86],[0.320717,-0.233457,0.914293,-0.081892],[0,-1,-1,0],[0,9E9,9E9,9E9,9E9,9E9]],v150,z20,custom_tool1\WObj:=WObj0;
MoveJ [[424.57,176.97,252.86],[0.320717,-0.233457,0.914293,-0.081892],[0,-1,-1,0],[0,9E9,9E9,9E9,9E9,9E9]],v150,z20,custom_tool1\WObj:=WObj0;
MoveJ [[25,440,145.8],[-0.174713,0.907209,0.375778,0.072368],[0,-1,-1,0],[0,9E9,9E9,9E9,9E9,9E9]],v150,z20,custom_tool1\WObj:=WObj0;
MoveL [[25,540,45.8],[-0.174713,0.907209,0.375778,0.072368],[0,-1,-1,0],[0,9E9,9E9,9E9,9E9,9E9]],v150,z20,custom_tool1\WObj:=WObj0;
IF TestDI(Stavbar_opt) THEN
WaitDI Stavbar_opt, 0;
ENDIF
WaitTime 1.5;
SetDO Stavbar_Gripper_open, 0;
SetDO Stavbar_Gripper_close, 1;
WaitTime 1;
MoveL [[25,440,145.8],[-0.174713,0.907209,0.375778,0.072368],[0,-1,-1,0],[0,9E9,9E9,9E9,9E9,9E9]],v150,z20,custom_tool1\WObj:=WObj0;
MoveJ [[424.57,176.97,252.86],[0.320717,-0.233457,0.914293,-0.081892],[0,-1,-1,0],[0,9E9,9E9,9E9,9E9,9E9]],v150,z20,custom_tool1\WObj:=WObj0;
MoveJ [[424.57,176.97,252.86],[0.320717,-0.233457,0.914293,-0.081892],[0,-1,-1,0],[0,9E9,9E9,9E9,9E9,9E9]],v150,z20,custom_tool1\WObj:=WObj0;
MoveJ [[482.92,-216.87,135.5],[0,0.990477,0.13768,0],[0,-1,-1,0],[0,9E9,9E9,9E9,9E9,9E9]],v150,z20,custom_tool1\WObj:=WObj0;
MoveL [[482.92,-216.87,35.5],[0,0.990477,0.13768,0],[0,-1,-1,0],[0,9E9,9E9,9E9,9E9,9E9]],v150,z20,custom_tool1\WObj:=WObj0;
WaitTime 1.5;
SetDO Stavbar_Gripper_close, 0;
SetDO Stavbar_Gripper_open, 1;
WaitTime 1;
SetDO Stavbar_Gripper_open, 0;
MoveL [[482.92,-216.87,135.5],[0,0.990477,0.13768,0],[0,-1,-1,0],[0,9E9,9E9,9E9,9E9,9E9]],v150,z20,custom_tool1\WObj:=WObj0;
MoveJ [[424.57,176.97,252.86],[0.320717,-0.233457,0.914293,-0.081892],[0,-1,-1,0],[0,9E9,9E9,9E9,9E9,9E9]],v150,z20,custom_tool1\WObj:=WObj0;
MoveJ [[424.57,176.97,252.86],[0.320717,-0.233457,0.914293,-0.081892],[0,-1,-1,0],[0,9E9,9E9,9E9,9E9,9E9]],v150,z20,custom_tool1\WObj:=WObj0;
MoveJ [[25,440,145.8],[-0.174713,0.907209,0.375778,0.072368],[0,-1,-1,0],[0,9E9,9E9,9E9,9E9,9E9]],v150,z20,custom_tool1\WObj:=WObj0;
MoveL [[25,540,45.8],[-0.174713,0.907209,0.375778,0.072368],[0,-1,-1,0],[0,9E9,9E9,9E9,9E9,9E9]],v150,z20,custom_tool1\WObj:=WObj0;
IF TestDI(Stavbar_opt) THEN
WaitDI Stavbar_opt, 0;
ENDIF
WaitTime 1.5;
SetDO Stavbar_Gripper_open, 0;
SetDO Stavbar_Gripper_close, 1;
WaitTime 1;
MoveL [[25,440,145.8],[-0.174713,0.907209,0.375778,0.072368],[0,-1,-1,0],[0,9E9,9E9,9E9,9E9,9E9]],v150,z20,custom_tool1\WObj:=WObj0;
MoveJ [[424.57,176.97,252.86],[0.320717,-0.233457,0.914293,-0.081892],[0,-1,-1,0],[0,9E9,9E9,9E9,9E9,9E9]],v150,z20,custom_tool1\WObj:=WObj0;
MoveJ [[424.57,176.97,252.86],[0.320717,-0.233457,0.914293,-0.081892],[0,-1,-1,0],[0,9E9,9E9,9E9,9E9,9E9]],v150,z20,custom_tool1\WObj:=WObj0;
MoveJ [[390.8,-313.29,135.5],[0,0.980551,-0.196267,0],[0,-1,-1,0],[0,9E9,9E9,9E9,9E9,9E9]],v150,z20,custom_tool1\WObj:=WObj0;
MoveL [[390.8,-313.29,35.5],[0,0.980551,-0.196267,0],[0,-1,-1,0],[0,9E9,9E9,9E9,9E9,9E9]],v150,z20,custom_tool1\WObj:=WObj0;
WaitTime 1.5;
SetDO Stavbar_Gripper_close, 0;
SetDO Stavbar_Gripper_open, 1;
WaitTime 1;
SetDO Stavbar_Gripper_open, 0;
MoveL [[390.8,-313.29,135.5],[0,0.980551,-0.196267,0],[0,-1,-1,0],[0,9E9,9E9,9E9,9E9,9E9]],v150,z20,custom_tool1\WObj:=WObj0;
MoveJ [[424.57,176.97,252.86],[0.320717,-0.233457,0.914293,-0.081892],[0,-1,-1,0],[0,9E9,9E9,9E9,9E9,9E9]],v150,z20,custom_tool1\WObj:=WObj0;
MoveJ [[424.57,176.97,252.86],[0.320717,-0.233457,0.914293,-0.081892],[0,-1,-1,0],[0,9E9,9E9,9E9,9E9,9E9]],v150,z20,custom_tool1\WObj:=WObj0;
MoveJ [[25,440,145.8],[-0.174713,0.907209,0.375778,0.072368],[0,-1,-1,0],[0,9E9,9E9,9E9,9E9,9E9]],v150,z20,custom_tool1\WObj:=WObj0;
MoveL [[25,540,45.8],[-0.174713,0.907209,0.375778,0.072368],[0,-1,-1,0],[0,9E9,9E9,9E9,9E9,9E9]],v150,z20,custom_tool1\WObj:=WObj0;
IF TestDI(Stavbar_opt) THEN
WaitDI Stavbar_opt, 0;
ENDIF
WaitTime 1.5;
SetDO Stavbar_Gripper_open, 0;
SetDO Stavbar_Gripper_close, 1;
WaitTime 1;
MoveL [[25,440,145.8],[-0.174713,0.907209,0.375778,0.072368],[0,-1,-1,0],[0,9E9,9E9,9E9,9E9,9E9]],v150,z20,custom_tool1\WObj:=WObj0;
MoveJ [[424.57,176.97,252.86],[0.320717,-0.233457,0.914293,-0.081892],[0,-1,-1,0],[0,9E9,9E9,9E9,9E9,9E9]],v150,z20,custom_tool1\WObj:=WObj0;
MoveJ [[424.57,176.97,252.86],[0.320717,-0.233457,0.914293,-0.081892],[0,-1,-1,0],[0,9E9,9E9,9E9,9E9,9E9]],v150,z20,custom_tool1\WObj:=WObj0;
MoveJ [[286.45,-260.09,135.5],[0,0.881668,0.47187,0],[0,-1,-1,0],[0,9E9,9E9,9E9,9E9,9E9]],v150,z20,custom_tool1\WObj:=WObj0;
MoveL [[286.45,-260.09,35.5],[0,0.881668,0.47187,0],[0,-1,-1,0],[0,9E9,9E9,9E9,9E9,9E9]],v150,z20,custom_tool1\WObj:=WObj0;
WaitTime 1.5;
SetDO Stavbar_Gripper_close, 0;
SetDO Stavbar_Gripper_open, 1;
WaitTime 1;
SetDO Stavbar_Gripper_open, 0;
MoveL [[286.45,-260.09,135.5],[0,0.881668,0.47187,0],[0,-1,-1,0],[0,9E9,9E9,9E9,9E9,9E9]],v150,z20,custom_tool1\WObj:=WObj0;
MoveJ [[424.57,176.97,252.86],[0.320717,-0.233457,0.914293,-0.081892],[0,-1,-1,0],[0,9E9,9E9,9E9,9E9,9E9]],v150,z20,custom_tool1\WObj:=WObj0;
MoveJ [[424.57,176.97,252.86],[0.320717,-0.233457,0.914293,-0.081892],[0,-1,-1,0],[0,9E9,9E9,9E9,9E9,9E9]],v150,z20,custom_tool1\WObj:=WObj0;
MoveJ [[25,440,145.8],[-0.174713,0.907209,0.375778,0.072368],[0,-1,-1,0],[0,9E9,9E9,9E9,9E9,9E9]],v150,z20,custom_tool1\WObj:=WObj0;
MoveL [[25,540,45.8],[-0.174713,0.907209,0.375778,0.072368],[0,-1,-1,0],[0,9E9,9E9,9E9,9E9,9E9]],v150,z20,custom_tool1\WObj:=WObj0;
IF TestDI(Stavbar_opt) THEN
WaitDI Stavbar_opt, 0;
ENDIF
WaitTime 1.5;
SetDO Stavbar_Gripper_open, 0;
SetDO Stavbar_Gripper_close, 1;
WaitTime 1;
MoveL [[25,440,145.8],[-0.174713,0.907209,0.375778,0.072368],[0,-1,-1,0],[0,9E9,9E9,9E9,9E9,9E9]],v150,z20,custom_tool1\WObj:=WObj0;
MoveJ [[424.57,176.97,252.86],[0.320717,-0.233457,0.914293,-0.081892],[0,-1,-1,0],[0,9E9,9E9,9E9,9E9,9E9]],v150,z20,custom_tool1\WObj:=WObj0;
MoveJ [[424.57,176.97,252.86],[0.320717,-0.233457,0.914293,-0.081892],[0,-1,-1,0],[0,9E9,9E9,9E9,9E9,9E9]],v150,z20,custom_tool1\WObj:=WObj0;
MoveJ [[310.77,-128.6,135.5],[0,0.983789,0.179332,0],[0,-1,-1,0],[0,9E9,9E9,9E9,9E9,9E9]],v150,z20,custom_tool1\WObj:=WObj0;
MoveL [[310.77,-128.6,35.5],[0,0.983789,0.179332,0],[0,-1,-1,0],[0,9E9,9E9,9E9,9E9,9E9]],v150,z20,custom_tool1\WObj:=WObj0;
WaitTime 1.5;
SetDO Stavbar_Gripper_close, 0;
SetDO Stavbar_Gripper_open, 1;
WaitTime 1;
SetDO Stavbar_Gripper_open, 0;
MoveL [[310.77,-128.6,135.5],[0,0.983789,0.179332,0],[0,-1,-1,0],[0,9E9,9E9,9E9,9E9,9E9]],v150,z20,custom_tool1\WObj:=WObj0;
MoveJ [[424.57,176.97,252.86],[0.320717,-0.233457,0.914293,-0.081892],[0,-1,-1,0],[0,9E9,9E9,9E9,9E9,9E9]],v150,z20,custom_tool1\WObj:=WObj0;
MoveJ [[424.57,176.97,252.86],[0.320717,-0.233457,0.914293,-0.081892],[0,-1,-1,0],[0,9E9,9E9,9E9,9E9,9E9]],v150,z20,custom_tool1\WObj:=WObj0;
MoveJ [[25,440,145.8],[-0.174713,0.907209,0.375778,0.072368],[0,-1,-1,0],[0,9E9,9E9,9E9,9E9,9E9]],v150,z20,custom_tool1\WObj:=WObj0;
MoveL [[25,540,45.8],[-0.174713,0.907209,0.375778,0.072368],[0,-1,-1,0],[0,9E9,9E9,9E9,9E9,9E9]],v150,z20,custom_tool1\WObj:=WObj0;
IF TestDI(Stavbar_opt) THEN
WaitDI Stavbar_opt, 0;
ENDIF
WaitTime 1.5;
SetDO Stavbar_Gripper_open, 0;
SetDO Stavbar_Gripper_close, 1;
WaitTime 1;
MoveL [[25,440,145.8],[-0.174713,0.907209,0.375778,0.072368],[0,-1,-1,0],[0,9E9,9E9,9E9,9E9,9E9]],v150,z20,custom_tool1\WObj:=WObj0;
MoveJ [[424.57,176.97,252.86],[0.320717,-0.233457,0.914293,-0.081892],[0,-1,-1,0],[0,9E9,9E9,9E9,9E9,9E9]],v150,z20,custom_tool1\WObj:=WObj0;
MoveJ [[342.67,1.23,135.5],[0,0.921184,0.389128,0],[0,-1,-1,0],[0,9E9,9E9,9E9,9E9,9E9]],v150,z20,custom_tool1\WObj:=WObj0;
MoveL [[342.67,1.23,35.5],[0,0.921184,0.389128,0],[0,-1,-1,0],[0,9E9,9E9,9E9,9E9,9E9]],v150,z20,custom_tool1\WObj:=WObj0;
WaitTime 1.5;
SetDO Stavbar_Gripper_close, 0;
SetDO Stavbar_Gripper_open, 1;
WaitTime 1;
SetDO Stavbar_Gripper_open, 0;
MoveL [[342.67,1.23,135.5],[0,0.921184,0.389128,0],[0,-1,-1,0],[0,9E9,9E9,9E9,9E9,9E9]],v150,z20,custom_tool1\WObj:=WObj0;
MoveJ [[424.57,176.97,252.86],[0.320717,-0.233457,0.914293,-0.081892],[0,-1,-1,0],[0,9E9,9E9,9E9,9E9,9E9]],v150,z20,custom_tool1\WObj:=WObj0;
MoveJ [[25,440,145.8],[-0.174713,0.907209,0.375778,0.072368],[0,-1,-1,0],[0,9E9,9E9,9E9,9E9,9E9]],v150,z20,custom_tool1\WObj:=WObj0;
MoveL [[25,540,45.8],[-0.174713,0.907209,0.375778,0.072368],[0,-1,-1,0],[0,9E9,9E9,9E9,9E9,9E9]],v150,z20,custom_tool1\WObj:=WObj0;
IF TestDI(Stavbar_opt) THEN
WaitDI Stavbar_opt, 0;
ENDIF
WaitTime 1.5;
SetDO Stavbar_Gripper_open, 0;
SetDO Stavbar_Gripper_close, 1;
WaitTime 1;
MoveL [[25,440,145.8],[-0.174713,0.907209,0.375778,0.072368],[0,-1,-1,0],[0,9E9,9E9,9E9,9E9,9E9]],v150,z20,custom_tool1\WObj:=WObj0;
MoveJ [[424.57,176.97,252.86],[0.320717,-0.233457,0.914293,-0.081892],[0,-1,-1,0],[0,9E9,9E9,9E9,9E9,9E9]],v150,z20,custom_tool1\WObj:=WObj0;
MoveJ [[314.29,132.95,135.5],[0,0.817022,0.576606,0],[0,-1,-1,0],[0,9E9,9E9,9E9,9E9,9E9]],v150,z20,custom_tool1\WObj:=WObj0;
MoveL [[314.29,132.95,35.5],[0,0.817022,0.576606,0],[0,-1,-1,0],[0,9E9,9E9,9E9,9E9,9E9]],v150,z20,custom_tool1\WObj:=WObj0;
WaitTime 1.5;
SetDO Stavbar_Gripper_close, 0;
SetDO Stavbar_Gripper_open, 1;
WaitTime 1;
SetDO Stavbar_Gripper_open, 0;
MoveL [[314.29,132.95,135.5],[0,0.817022,0.576606,0],[0,-1,-1,0],[0,9E9,9E9,9E9,9E9,9E9]],v150,z20,custom_tool1\WObj:=WObj0;
MoveJ [[424.57,176.97,252.86],[0.320717,-0.233457,0.914293,-0.081892],[0,-1,-1,0],[0,9E9,9E9,9E9,9E9,9E9]],v150,z20,custom_tool1\WObj:=WObj0;
MoveJ [[25,440,145.8],[-0.174713,0.907209,0.375778,0.072368],[0,-1,-1,0],[0,9E9,9E9,9E9,9E9,9E9]],v150,z20,custom_tool1\WObj:=WObj0;
MoveL [[25,540,45.8],[-0.174713,0.907209,0.375778,0.072368],[0,-1,-1,0],[0,9E9,9E9,9E9,9E9,9E9]],v150,z20,custom_tool1\WObj:=WObj0;
IF TestDI(Stavbar_opt) THEN
WaitDI Stavbar_opt, 0;
ENDIF
WaitTime 1.5;
SetDO Stavbar_Gripper_open, 0;
SetDO Stavbar_Gripper_close, 1;
WaitTime 1;
MoveL [[25,440,145.8],[-0.174713,0.907209,0.375778,0.072368],[0,-1,-1,0],[0,9E9,9E9,9E9,9E9,9E9]],v150,z20,custom_tool1\WObj:=WObj0;
MoveJ [[424.57,176.97,252.86],[0.320717,-0.233457,0.914293,-0.081892],[0,-1,-1,0],[0,9E9,9E9,9E9,9E9,9E9]],v150,z20,custom_tool1\WObj:=WObj0;
MoveJ [[222.7,538.8,158.5],[0,0.601948,0.798535,0],[0,-1,-1,0],[0,9E9,9E9,9E9,9E9,9E9]],v150,z20,custom_tool1\WObj:=WObj0;
MoveL [[222.7,538.8,58.5],[0,0.601948,0.798535,0],[0,-1,-1,0],[0,9E9,9E9,9E9,9E9,9E9]],v150,z20,custom_tool1\WObj:=WObj0;
WaitTime 1.5;
SetDO Stavbar_Gripper_close, 0;
SetDO Stavbar_Gripper_open, 1;
WaitTime 1;
SetDO Stavbar_Gripper_open, 0;
MoveL [[222.7,538.8,158.5],[0,0.601948,0.798535,0],[0,-1,-1,0],[0,9E9,9E9,9E9,9E9,9E9]],v150,z20,custom_tool1\WObj:=WObj0;
MoveJ [[424.57,176.97,252.86],[0.320717,-0.233457,0.914293,-0.081892],[0,-1,-1,0],[0,9E9,9E9,9E9,9E9,9E9]],v150,z20,custom_tool1\WObj:=WObj0;
MoveJ [[25,440,145.8],[-0.174713,0.907209,0.375778,0.072368],[0,-1,-1,0],[0,9E9,9E9,9E9,9E9,9E9]],v150,z20,custom_tool1\WObj:=WObj0;
MoveL [[25,540,45.8],[-0.174713,0.907209,0.375778,0.072368],[0,-1,-1,0],[0,9E9,9E9,9E9,9E9,9E9]],v150,z20,custom_tool1\WObj:=WObj0;
IF TestDI(Stavbar_opt) THEN
WaitDI Stavbar_opt, 0;
ENDIF
WaitTime 1.5;
SetDO Stavbar_Gripper_open, 0;
SetDO Stavbar_Gripper_close, 1;
WaitTime 1;
MoveL [[25,440,145.8],[-0.174713,0.907209,0.375778,0.072368],[0,-1,-1,0],[0,9E9,9E9,9E9,9E9,9E9]],v150,z20,custom_tool1\WObj:=WObj0;
MoveJ [[424.57,176.97,252.86],[0.320717,-0.233457,0.914293,-0.081892],[0,-1,-1,0],[0,9E9,9E9,9E9,9E9,9E9]],v150,z20,custom_tool1\WObj:=WObj0;
MoveJ [[329.41,455.66,158.5],[0,0.708973,0.705235,0],[0,-1,-1,0],[0,9E9,9E9,9E9,9E9,9E9]],v150,z20,custom_tool1\WObj:=WObj0;
MoveL [[329.41,455.66,58.5],[0,0.708973,0.705235,0],[0,-1,-1,0],[0,9E9,9E9,9E9,9E9,9E9]],v150,z20,custom_tool1\WObj:=WObj0;
WaitTime 1.5;
SetDO Stavbar_Gripper_close, 0;
SetDO Stavbar_Gripper_open, 1;
WaitTime 1;
SetDO Stavbar_Gripper_open, 0;
MoveL [[329.41,455.66,158.5],[0,0.708973,0.705235,0],[0,-1,-1,0],[0,9E9,9E9,9E9,9E9,9E9]],v150,z20,custom_tool1\WObj:=WObj0;
MoveJ [[424.57,176.97,252.86],[0.320717,-0.233457,0.914293,-0.081892],[0,-1,-1,0],[0,9E9,9E9,9E9,9E9,9E9]],v150,z20,custom_tool1\WObj:=WObj0;
MoveJ [[25,440,145.8],[-0.174713,0.907209,0.375778,0.072368],[0,-1,-1,0],[0,9E9,9E9,9E9,9E9,9E9]],v150,z20,custom_tool1\WObj:=WObj0;
MoveL [[25,540,45.8],[-0.174713,0.907209,0.375778,0.072368],[0,-1,-1,0],[0,9E9,9E9,9E9,9E9,9E9]],v150,z20,custom_tool1\WObj:=WObj0;
IF TestDI(Stavbar_opt) THEN
WaitDI Stavbar_opt, 0;
ENDIF
WaitTime 1.5;
SetDO Stavbar_Gripper_open, 0;
SetDO Stavbar_Gripper_close, 1;
WaitTime 1;
MoveL [[25,440,145.8],[-0.174713,0.907209,0.375778,0.072368],[0,-1,-1,0],[0,9E9,9E9,9E9,9E9,9E9]],v150,z20,custom_tool1\WObj:=WObj0;
MoveJ [[424.57,176.97,252.86],[0.320717,-0.233457,0.914293,-0.081892],[0,-1,-1,0],[0,9E9,9E9,9E9,9E9,9E9]],v150,z20,custom_tool1\WObj:=WObj0;
MoveJ [[414.96,350.54,158.5],[0,0.770994,0.636842,0],[0,-1,-1,0],[0,9E9,9E9,9E9,9E9,9E9]],v150,z20,custom_tool1\WObj:=WObj0;
MoveL [[414.96,350.54,58.5],[0,0.770994,0.636842,0],[0,-1,-1,0],[0,9E9,9E9,9E9,9E9,9E9]],v150,z20,custom_tool1\WObj:=WObj0;
WaitTime 1.5;
SetDO Stavbar_Gripper_close, 0;
SetDO Stavbar_Gripper_open, 1;
WaitTime 1;
SetDO Stavbar_Gripper_open, 0;
MoveL [[414.96,350.54,158.5],[0,0.770994,0.636842,0],[0,-1,-1,0],[0,9E9,9E9,9E9,9E9,9E9]],v150,z20,custom_tool1\WObj:=WObj0;
MoveJ [[424.57,176.97,252.86],[0.320717,-0.233457,0.914293,-0.081892],[0,-1,-1,0],[0,9E9,9E9,9E9,9E9,9E9]],v150,z20,custom_tool1\WObj:=WObj0;
MoveJ [[25,440,145.8],[-0.174713,0.907209,0.375778,0.072368],[0,-1,-1,0],[0,9E9,9E9,9E9,9E9,9E9]],v150,z20,custom_tool1\WObj:=WObj0;
MoveL [[25,540,45.8],[-0.174713,0.907209,0.375778,0.072368],[0,-1,-1,0],[0,9E9,9E9,9E9,9E9,9E9]],v150,z20,custom_tool1\WObj:=WObj0;
IF TestDI(Stavbar_opt) THEN
WaitDI Stavbar_opt, 0;
ENDIF
WaitTime 1.5;
SetDO Stavbar_Gripper_open, 0;
SetDO Stavbar_Gripper_close, 1;
WaitTime 1;
MoveL [[25,440,145.8],[-0.174713,0.907209,0.375778,0.072368],[0,-1,-1,0],[0,9E9,9E9,9E9,9E9,9E9]],v150,z20,custom_tool1\WObj:=WObj0;
MoveJ [[424.57,176.97,252.86],[0.320717,-0.233457,0.914293,-0.081892],[0,-1,-1,0],[0,9E9,9E9,9E9,9E9,9E9]],v150,z20,custom_tool1\WObj:=WObj0;
MoveJ [[482.19,232.77,158.5],[0,0.816713,0.577044,0],[0,-1,-1,0],[0,9E9,9E9,9E9,9E9,9E9]],v150,z20,custom_tool1\WObj:=WObj0;
MoveL [[482.19,232.77,58.5],[0,0.816713,0.577044,0],[0,-1,-1,0],[0,9E9,9E9,9E9,9E9,9E9]],v150,z20,custom_tool1\WObj:=WObj0;
WaitTime 1.5;
SetDO Stavbar_Gripper_close, 0;
SetDO Stavbar_Gripper_open, 1;
WaitTime 1;
SetDO Stavbar_Gripper_open, 0;
MoveL [[482.19,232.77,158.5],[0,0.816713,0.577044,0],[0,-1,-1,0],[0,9E9,9E9,9E9,9E9,9E9]],v150,z20,custom_tool1\WObj:=WObj0;
MoveJ [[424.57,176.97,252.86],[0.320717,-0.233457,0.914293,-0.081892],[0,-1,-1,0],[0,9E9,9E9,9E9,9E9,9E9]],v150,z20,custom_tool1\WObj:=WObj0;
MoveJ [[25,440,145.8],[-0.174713,0.907209,0.375778,0.072368],[0,-1,-1,0],[0,9E9,9E9,9E9,9E9,9E9]],v150,z20,custom_tool1\WObj:=WObj0;
MoveL [[25,540,45.8],[-0.174713,0.907209,0.375778,0.072368],[0,-1,-1,0],[0,9E9,9E9,9E9,9E9,9E9]],v150,z20,custom_tool1\WObj:=WObj0;
IF TestDI(Stavbar_opt) THEN
WaitDI Stavbar_opt, 0;
ENDIF
WaitTime 1.5;
SetDO Stavbar_Gripper_open, 0;
SetDO Stavbar_Gripper_close, 1;
WaitTime 1;
MoveL [[25,440,145.8],[-0.174713,0.907209,0.375778,0.072368],[0,-1,-1,0],[0,9E9,9E9,9E9,9E9,9E9]],v150,z20,custom_tool1\WObj:=WObj0;
MoveJ [[424.57,176.97,252.86],[0.320717,-0.233457,0.914293,-0.081892],[0,-1,-1,0],[0,9E9,9E9,9E9,9E9,9E9]],v150,z20,custom_tool1\WObj:=WObj0;
MoveJ [[531.54,106.46,158.5],[0,0.85659,0.515998,0],[0,-1,-1,0],[0,9E9,9E9,9E9,9E9,9E9]],v150,z20,custom_tool1\WObj:=WObj0;
MoveL [[531.54,106.46,58.5],[0,0.85659,0.515998,0],[0,-1,-1,0],[0,9E9,9E9,9E9,9E9,9E9]],v150,z20,custom_tool1\WObj:=WObj0;
WaitTime 1.5;
SetDO Stavbar_Gripper_close, 0;
SetDO Stavbar_Gripper_open, 1;
WaitTime 1;
SetDO Stavbar_Gripper_open, 0;
MoveL [[531.54,106.46,158.5],[0,0.85659,0.515998,0],[0,-1,-1,0],[0,9E9,9E9,9E9,9E9,9E9]],v150,z20,custom_tool1\WObj:=WObj0;
MoveJ [[424.57,176.97,252.86],[0.320717,-0.233457,0.914293,-0.081892],[0,-1,-1,0],[0,9E9,9E9,9E9,9E9,9E9]],v150,z20,custom_tool1\WObj:=WObj0;
MoveJ [[25,440,145.8],[-0.174713,0.907209,0.375778,0.072368],[0,-1,-1,0],[0,9E9,9E9,9E9,9E9,9E9]],v150,z20,custom_tool1\WObj:=WObj0;
MoveL [[25,540,45.8],[-0.174713,0.907209,0.375778,0.072368],[0,-1,-1,0],[0,9E9,9E9,9E9,9E9,9E9]],v150,z20,custom_tool1\WObj:=WObj0;
IF TestDI(Stavbar_opt) THEN
WaitDI Stavbar_opt, 0;
ENDIF
WaitTime 1.5;
SetDO Stavbar_Gripper_open, 0;
SetDO Stavbar_Gripper_close, 1;
WaitTime 1;
MoveL [[25,440,145.8],[-0.174713,0.907209,0.375778,0.072368],[0,-1,-1,0],[0,9E9,9E9,9E9,9E9,9E9]],v150,z20,custom_tool1\WObj:=WObj0;
MoveJ [[424.57,176.97,252.86],[0.320717,-0.233457,0.914293,-0.081892],[0,-1,-1,0],[0,9E9,9E9,9E9,9E9,9E9]],v150,z20,custom_tool1\WObj:=WObj0;
MoveJ [[424.57,176.97,252.86],[0.320717,-0.233457,0.914293,-0.081892],[0,-1,-1,0],[0,9E9,9E9,9E9,9E9,9E9]],v150,z20,custom_tool1\WObj:=WObj0;
MoveJ [[550.67,-25.63,158.5],[0,0.959505,0.28169,0],[0,-1,-1,0],[0,9E9,9E9,9E9,9E9,9E9]],v150,z20,custom_tool1\WObj:=WObj0;
MoveL [[550.67,-25.63,58.5],[0,0.959505,0.28169,0],[0,-1,-1,0],[0,9E9,9E9,9E9,9E9,9E9]],v150,z20,custom_tool1\WObj:=WObj0;
WaitTime 1.5;
SetDO Stavbar_Gripper_close, 0;
SetDO Stavbar_Gripper_open, 1;
WaitTime 1;
SetDO Stavbar_Gripper_open, 0;
MoveL [[550.67,-25.63,158.5],[0,0.959505,0.28169,0],[0,-1,-1,0],[0,9E9,9E9,9E9,9E9,9E9]],v150,z20,custom_tool1\WObj:=WObj0;
MoveJ [[424.57,176.97,252.86],[0.320717,-0.233457,0.914293,-0.081892],[0,-1,-1,0],[0,9E9,9E9,9E9,9E9,9E9]],v150,z20,custom_tool1\WObj:=WObj0;
MoveJ [[424.57,176.97,252.86],[0.320717,-0.233457,0.914293,-0.081892],[0,-1,-1,0],[0,9E9,9E9,9E9,9E9,9E9]],v150,z20,custom_tool1\WObj:=WObj0;
MoveJ [[25,440,145.8],[-0.174713,0.907209,0.375778,0.072368],[0,-1,-1,0],[0,9E9,9E9,9E9,9E9,9E9]],v150,z20,custom_tool1\WObj:=WObj0;
MoveL [[25,540,45.8],[-0.174713,0.907209,0.375778,0.072368],[0,-1,-1,0],[0,9E9,9E9,9E9,9E9,9E9]],v150,z20,custom_tool1\WObj:=WObj0;
IF TestDI(Stavbar_opt) THEN
WaitDI Stavbar_opt, 0;
ENDIF
WaitTime 1.5;
SetDO Stavbar_Gripper_open, 0;
SetDO Stavbar_Gripper_close, 1;
WaitTime 1;
MoveL [[25,440,145.8],[-0.174713,0.907209,0.375778,0.072368],[0,-1,-1,0],[0,9E9,9E9,9E9,9E9,9E9]],v150,z20,custom_tool1\WObj:=WObj0;
MoveJ [[424.57,176.97,252.86],[0.320717,-0.233457,0.914293,-0.081892],[0,-1,-1,0],[0,9E9,9E9,9E9,9E9,9E9]],v150,z20,custom_tool1\WObj:=WObj0;
MoveJ [[424.57,176.97,252.86],[0.320717,-0.233457,0.914293,-0.081892],[0,-1,-1,0],[0,9E9,9E9,9E9,9E9,9E9]],v150,z20,custom_tool1\WObj:=WObj0;
MoveJ [[511.81,-155.52,158.5],[0,0.979505,0.201419,0],[0,-1,-1,0],[0,9E9,9E9,9E9,9E9,9E9]],v150,z20,custom_tool1\WObj:=WObj0;
MoveL [[511.81,-155.52,58.5],[0,0.979505,0.201419,0],[0,-1,-1,0],[0,9E9,9E9,9E9,9E9,9E9]],v150,z20,custom_tool1\WObj:=WObj0;
WaitTime 1.5;
SetDO Stavbar_Gripper_close, 0;
SetDO Stavbar_Gripper_open, 1;
WaitTime 1;
SetDO Stavbar_Gripper_open, 0;
MoveL [[511.81,-155.52,158.5],[0,0.979505,0.201419,0],[0,-1,-1,0],[0,9E9,9E9,9E9,9E9,9E9]],v150,z20,custom_tool1\WObj:=WObj0;
MoveJ [[424.57,176.97,252.86],[0.320717,-0.233457,0.914293,-0.081892],[0,-1,-1,0],[0,9E9,9E9,9E9,9E9,9E9]],v150,z20,custom_tool1\WObj:=WObj0;
MoveJ [[424.57,176.97,252.86],[0.320717,-0.233457,0.914293,-0.081892],[0,-1,-1,0],[0,9E9,9E9,9E9,9E9,9E9]],v150,z20,custom_tool1\WObj:=WObj0;
MoveJ [[25,440,145.8],[-0.174713,0.907209,0.375778,0.072368],[0,-1,-1,0],[0,9E9,9E9,9E9,9E9,9E9]],v150,z20,custom_tool1\WObj:=WObj0;
MoveL [[25,540,45.8],[-0.174713,0.907209,0.375778,0.072368],[0,-1,-1,0],[0,9E9,9E9,9E9,9E9,9E9]],v150,z20,custom_tool1\WObj:=WObj0;
IF TestDI(Stavbar_opt) THEN
WaitDI Stavbar_opt, 0;
ENDIF
WaitTime 1.5;
SetDO Stavbar_Gripper_open, 0;
SetDO Stavbar_Gripper_close, 1;
WaitTime 1;
MoveL [[25,440,145.8],[-0.174713,0.907209,0.375778,0.072368],[0,-1,-1,0],[0,9E9,9E9,9E9,9E9,9E9]],v150,z20,custom_tool1\WObj:=WObj0;
MoveJ [[424.57,176.97,252.86],[0.320717,-0.233457,0.914293,-0.081892],[0,-1,-1,0],[0,9E9,9E9,9E9,9E9,9E9]],v150,z20,custom_tool1\WObj:=WObj0;
MoveJ [[424.57,176.97,252.86],[0.320717,-0.233457,0.914293,-0.081892],[0,-1,-1,0],[0,9E9,9E9,9E9,9E9,9E9]],v150,z20,custom_tool1\WObj:=WObj0;
MoveJ [[444.35,-272.55,158.5],[0,0.999536,0.030472,0],[0,-1,-1,0],[0,9E9,9E9,9E9,9E9,9E9]],v150,z20,custom_tool1\WObj:=WObj0;
MoveL [[444.35,-272.55,58.5],[0,0.999536,0.030472,0],[0,-1,-1,0],[0,9E9,9E9,9E9,9E9,9E9]],v150,z20,custom_tool1\WObj:=WObj0;
WaitTime 1.5;
SetDO Stavbar_Gripper_close, 0;
SetDO Stavbar_Gripper_open, 1;
WaitTime 1;
SetDO Stavbar_Gripper_open, 0;
MoveL [[444.35,-272.55,158.5],[0,0.999536,0.030472,0],[0,-1,-1,0],[0,9E9,9E9,9E9,9E9,9E9]],v150,z20,custom_tool1\WObj:=WObj0;
MoveJ [[424.57,176.97,252.86],[0.320717,-0.233457,0.914293,-0.081892],[0,-1,-1,0],[0,9E9,9E9,9E9,9E9,9E9]],v150,z20,custom_tool1\WObj:=WObj0;
MoveJ [[424.57,176.97,252.86],[0.320717,-0.233457,0.914293,-0.081892],[0,-1,-1,0],[0,9E9,9E9,9E9,9E9,9E9]],v150,z20,custom_tool1\WObj:=WObj0;
MoveJ [[25,440,145.8],[-0.174713,0.907209,0.375778,0.072368],[0,-1,-1,0],[0,9E9,9E9,9E9,9E9,9E9]],v150,z20,custom_tool1\WObj:=WObj0;
MoveL [[25,540,45.8],[-0.174713,0.907209,0.375778,0.072368],[0,-1,-1,0],[0,9E9,9E9,9E9,9E9,9E9]],v150,z20,custom_tool1\WObj:=WObj0;
IF TestDI(Stavbar_opt) THEN
WaitDI Stavbar_opt, 0;
ENDIF
WaitTime 1.5;
SetDO Stavbar_Gripper_open, 0;
SetDO Stavbar_Gripper_close, 1;
WaitTime 1;
MoveL [[25,440,145.8],[-0.174713,0.907209,0.375778,0.072368],[0,-1,-1,0],[0,9E9,9E9,9E9,9E9,9E9]],v150,z20,custom_tool1\WObj:=WObj0;
MoveJ [[424.57,176.97,252.86],[0.320717,-0.233457,0.914293,-0.081892],[0,-1,-1,0],[0,9E9,9E9,9E9,9E9,9E9]],v150,z20,custom_tool1\WObj:=WObj0;
MoveJ [[424.57,176.97,252.86],[0.320717,-0.233457,0.914293,-0.081892],[0,-1,-1,0],[0,9E9,9E9,9E9,9E9,9E9]],v150,z20,custom_tool1\WObj:=WObj0;
MoveJ [[324.88,-312.76,158.5],[0,0.568194,0.822895,0],[0,-1,-1,0],[0,9E9,9E9,9E9,9E9,9E9]],v150,z20,custom_tool1\WObj:=WObj0;
MoveL [[324.88,-312.76,58.5],[0,0.568194,0.822895,0],[0,-1,-1,0],[0,9E9,9E9,9E9,9E9,9E9]],v150,z20,custom_tool1\WObj:=WObj0;
WaitTime 1.5;
SetDO Stavbar_Gripper_close, 0;
SetDO Stavbar_Gripper_open, 1;
WaitTime 1;
SetDO Stavbar_Gripper_open, 0;
MoveL [[324.88,-312.76,158.5],[0,0.568194,0.822895,0],[0,-1,-1,0],[0,9E9,9E9,9E9,9E9,9E9]],v150,z20,custom_tool1\WObj:=WObj0;
MoveJ [[424.57,176.97,252.86],[0.320717,-0.233457,0.914293,-0.081892],[0,-1,-1,0],[0,9E9,9E9,9E9,9E9,9E9]],v150,z20,custom_tool1\WObj:=WObj0;
MoveJ [[424.57,176.97,252.86],[0.320717,-0.233457,0.914293,-0.081892],[0,-1,-1,0],[0,9E9,9E9,9E9,9E9,9E9]],v150,z20,custom_tool1\WObj:=WObj0;
MoveJ [[25,440,145.8],[-0.174713,0.907209,0.375778,0.072368],[0,-1,-1,0],[0,9E9,9E9,9E9,9E9,9E9]],v150,z20,custom_tool1\WObj:=WObj0;
MoveL [[25,540,45.8],[-0.174713,0.907209,0.375778,0.072368],[0,-1,-1,0],[0,9E9,9E9,9E9,9E9,9E9]],v150,z20,custom_tool1\WObj:=WObj0;
IF TestDI(Stavbar_opt) THEN
WaitDI Stavbar_opt, 0;
ENDIF
WaitTime 1.5;
SetDO Stavbar_Gripper_open, 0;
SetDO Stavbar_Gripper_close, 1;
WaitTime 1;
MoveL [[25,440,145.8],[-0.174713,0.907209,0.375778,0.072368],[0,-1,-1,0],[0,9E9,9E9,9E9,9E9,9E9]],v150,z20,custom_tool1\WObj:=WObj0;
MoveJ [[424.57,176.97,252.86],[0.320717,-0.233457,0.914293,-0.081892],[0,-1,-1,0],[0,9E9,9E9,9E9,9E9,9E9]],v150,z20,custom_tool1\WObj:=WObj0;
MoveJ [[424.57,176.97,252.86],[0.320717,-0.233457,0.914293,-0.081892],[0,-1,-1,0],[0,9E9,9E9,9E9,9E9,9E9]],v150,z20,custom_tool1\WObj:=WObj0;
MoveJ [[288.98,-192.74,158.5],[0,0.959437,0.281923,0],[0,-1,-1,0],[0,9E9,9E9,9E9,9E9,9E9]],v150,z20,custom_tool1\WObj:=WObj0;
MoveL [[288.98,-192.74,58.5],[0,0.959437,0.281923,0],[0,-1,-1,0],[0,9E9,9E9,9E9,9E9,9E9]],v150,z20,custom_tool1\WObj:=WObj0;
WaitTime 1.5;
SetDO Stavbar_Gripper_close, 0;
SetDO Stavbar_Gripper_open, 1;
WaitTime 1;
SetDO Stavbar_Gripper_open, 0;
MoveL [[288.98,-192.74,158.5],[0,0.959437,0.281923,0],[0,-1,-1,0],[0,9E9,9E9,9E9,9E9,9E9]],v150,z20,custom_tool1\WObj:=WObj0;
MoveJ [[424.57,176.97,252.86],[0.320717,-0.233457,0.914293,-0.081892],[0,-1,-1,0],[0,9E9,9E9,9E9,9E9,9E9]],v150,z20,custom_tool1\WObj:=WObj0;
MoveJ [[424.57,176.97,252.86],[0.320717,-0.233457,0.914293,-0.081892],[0,-1,-1,0],[0,9E9,9E9,9E9,9E9,9E9]],v150,z20,custom_tool1\WObj:=WObj0;
MoveJ [[25,440,145.8],[-0.174713,0.907209,0.375778,0.072368],[0,-1,-1,0],[0,9E9,9E9,9E9,9E9,9E9]],v150,z20,custom_tool1\WObj:=WObj0;
MoveL [[25,540,45.8],[-0.174713,0.907209,0.375778,0.072368],[0,-1,-1,0],[0,9E9,9E9,9E9,9E9,9E9]],v150,z20,custom_tool1\WObj:=WObj0;
IF TestDI(Stavbar_opt) THEN
WaitDI Stavbar_opt, 0;
ENDIF
WaitTime 1.5;
SetDO Stavbar_Gripper_open, 0;
SetDO Stavbar_Gripper_close, 1;
WaitTime 1;
MoveL [[25,440,145.8],[-0.174713,0.907209,0.375778,0.072368],[0,-1,-1,0],[0,9E9,9E9,9E9,9E9,9E9]],v150,z20,custom_tool1\WObj:=WObj0;
MoveJ [[424.57,176.97,252.86],[0.320717,-0.233457,0.914293,-0.081892],[0,-1,-1,0],[0,9E9,9E9,9E9,9E9,9E9]],v150,z20,custom_tool1\WObj:=WObj0;
MoveJ [[424.57,176.97,252.86],[0.320717,-0.233457,0.914293,-0.081892],[0,-1,-1,0],[0,9E9,9E9,9E9,9E9,9E9]],v150,z20,custom_tool1\WObj:=WObj0;
MoveJ [[336.52,-66.22,158.5],[0,0.958664,0.284542,0],[0,-1,-1,0],[0,9E9,9E9,9E9,9E9,9E9]],v150,z20,custom_tool1\WObj:=WObj0;
MoveL [[336.52,-66.22,58.5],[0,0.958664,0.284542,0],[0,-1,-1,0],[0,9E9,9E9,9E9,9E9,9E9]],v150,z20,custom_tool1\WObj:=WObj0;
WaitTime 1.5;
SetDO Stavbar_Gripper_close, 0;
SetDO Stavbar_Gripper_open, 1;
WaitTime 1;
SetDO Stavbar_Gripper_open, 0;
MoveL [[336.52,-66.22,158.5],[0,0.958664,0.284542,0],[0,-1,-1,0],[0,9E9,9E9,9E9,9E9,9E9]],v150,z20,custom_tool1\WObj:=WObj0;
MoveJ [[424.57,176.97,252.86],[0.320717,-0.233457,0.914293,-0.081892],[0,-1,-1,0],[0,9E9,9E9,9E9,9E9,9E9]],v150,z20,custom_tool1\WObj:=WObj0;
MoveJ [[424.57,176.97,252.86],[0.320717,-0.233457,0.914293,-0.081892],[0,-1,-1,0],[0,9E9,9E9,9E9,9E9,9E9]],v150,z20,custom_tool1\WObj:=WObj0;
MoveJ [[25,440,145.8],[-0.174713,0.907209,0.375778,0.072368],[0,-1,-1,0],[0,9E9,9E9,9E9,9E9,9E9]],v150,z20,custom_tool1\WObj:=WObj0;
MoveL [[25,540,45.8],[-0.174713,0.907209,0.375778,0.072368],[0,-1,-1,0],[0,9E9,9E9,9E9,9E9,9E9]],v150,z20,custom_tool1\WObj:=WObj0;
IF TestDI(Stavbar_opt) THEN
WaitDI Stavbar_opt, 0;
ENDIF
WaitTime 1.5;
SetDO Stavbar_Gripper_open, 0;
SetDO Stavbar_Gripper_close, 1;
WaitTime 1;
MoveL [[25,440,145.8],[-0.174713,0.907209,0.375778,0.072368],[0,-1,-1,0],[0,9E9,9E9,9E9,9E9,9E9]],v150,z20,custom_tool1\WObj:=WObj0;
MoveJ [[424.57,176.97,252.86],[0.320717,-0.233457,0.914293,-0.081892],[0,-1,-1,0],[0,9E9,9E9,9E9,9E9,9E9]],v150,z20,custom_tool1\WObj:=WObj0;
MoveJ [[335.31,68.59,158.5],[0,0.879946,0.475073,0],[0,-1,-1,0],[0,9E9,9E9,9E9,9E9,9E9]],v150,z20,custom_tool1\WObj:=WObj0;
MoveL [[335.31,68.59,58.5],[0,0.879946,0.475073,0],[0,-1,-1,0],[0,9E9,9E9,9E9,9E9,9E9]],v150,z20,custom_tool1\WObj:=WObj0;
WaitTime 1.5;
SetDO Stavbar_Gripper_close, 0;
SetDO Stavbar_Gripper_open, 1;
WaitTime 1;
SetDO Stavbar_Gripper_open, 0;
MoveL [[335.31,68.59,158.5],[0,0.879946,0.475073,0],[0,-1,-1,0],[0,9E9,9E9,9E9,9E9,9E9]],v150,z20,custom_tool1\WObj:=WObj0;
MoveJ [[424.57,176.97,252.86],[0.320717,-0.233457,0.914293,-0.081892],[0,-1,-1,0],[0,9E9,9E9,9E9,9E9,9E9]],v150,z20,custom_tool1\WObj:=WObj0;
MoveJ [[25,440,145.8],[-0.174713,0.907209,0.375778,0.072368],[0,-1,-1,0],[0,9E9,9E9,9E9,9E9,9E9]],v150,z20,custom_tool1\WObj:=WObj0;
MoveJ [[-63,440,145.8],[-0.174713,0.907209,0.375778,0.072368],[0,-1,-1,0],[0,9E9,9E9,9E9,9E9,9E9]],v150,z20,custom_tool1\WObj:=WObj0;
MoveL [[-63,540,45.8],[-0.174713,0.907209,0.375778,0.072368],[0,-1,-1,0],[0,9E9,9E9,9E9,9E9,9E9]],v150,z20,custom_tool1\WObj:=WObj0;
IF TestDI(Stavbar_opt) THEN
WaitDI Stavbar_opt, 0;
ENDIF
WaitTime 1.5;
SetDO Stavbar_Gripper_open, 0;
SetDO Stavbar_Gripper_close, 1;
WaitTime 1;
MoveL [[-63,440,145.8],[-0.174713,0.907209,0.375778,0.072368],[0,-1,-1,0],[0,9E9,9E9,9E9,9E9,9E9]],v150,z20,custom_tool1\WObj:=WObj0;
MoveJ [[25,440,145.8],[-0.174713,0.907209,0.375778,0.072368],[0,-1,-1,0],[0,9E9,9E9,9E9,9E9,9E9]],v150,z20,custom_tool1\WObj:=WObj0;
MoveJ [[424.57,176.97,252.86],[0.320717,-0.233457,0.914293,-0.081892],[0,-1,-1,0],[0,9E9,9E9,9E9,9E9,9E9]],v150,z20,custom_tool1\WObj:=WObj0;
MoveJ [[307.42,147.4,158.5],[0,0.817022,0.576606,0],[0,-1,-1,0],[0,9E9,9E9,9E9,9E9,9E9]],v150,z20,custom_tool1\WObj:=WObj0;
MoveL [[307.42,147.4,58.5],[0,0.817022,0.576606,0],[0,-1,-1,0],[0,9E9,9E9,9E9,9E9,9E9]],v150,z20,custom_tool1\WObj:=WObj0;
WaitTime 1.5;
SetDO Stavbar_Gripper_close, 0;
SetDO Stavbar_Gripper_open, 1;
WaitTime 1;
SetDO Stavbar_Gripper_open, 0;
MoveL [[307.42,147.4,158.5],[0,0.817022,0.576606,0],[0,-1,-1,0],[0,9E9,9E9,9E9,9E9,9E9]],v150,z20,custom_tool1\WObj:=WObj0;
MoveJ [[424.57,176.97,252.86],[0.320717,-0.233457,0.914293,-0.081892],[0,-1,-1,0],[0,9E9,9E9,9E9,9E9,9E9]],v150,z20,custom_tool1\WObj:=WObj0;
MoveJ [[25,440,145.8],[-0.174713,0.907209,0.375778,0.072368],[0,-1,-1,0],[0,9E9,9E9,9E9,9E9,9E9]],v150,z20,custom_tool1\WObj:=WObj0;
MoveJ [[-63,440,145.8],[-0.174713,0.907209,0.375778,0.072368],[0,-1,-1,0],[0,9E9,9E9,9E9,9E9,9E9]],v150,z20,custom_tool1\WObj:=WObj0;
MoveL [[-63,540,45.8],[-0.174713,0.907209,0.375778,0.072368],[0,-1,-1,0],[0,9E9,9E9,9E9,9E9,9E9]],v150,z20,custom_tool1\WObj:=WObj0;
IF TestDI(Stavbar_opt) THEN
WaitDI Stavbar_opt, 0;
ENDIF
WaitTime 1.5;
SetDO Stavbar_Gripper_open, 0;
SetDO Stavbar_Gripper_close, 1;
WaitTime 1;
MoveL [[-63,440,145.8],[-0.174713,0.907209,0.375778,0.072368],[0,-1,-1,0],[0,9E9,9E9,9E9,9E9,9E9]],v150,z20,custom_tool1\WObj:=WObj0;
MoveJ [[25,440,145.8],[-0.174713,0.907209,0.375778,0.072368],[0,-1,-1,0],[0,9E9,9E9,9E9,9E9,9E9]],v150,z20,custom_tool1\WObj:=WObj0;
MoveJ [[424.57,176.97,252.86],[0.320717,-0.233457,0.914293,-0.081892],[0,-1,-1,0],[0,9E9,9E9,9E9,9E9,9E9]],v150,z20,custom_tool1\WObj:=WObj0;
MoveJ [[208.71,546.56,181.5],[0,0.601948,0.798535,0],[0,-1,-1,0],[0,9E9,9E9,9E9,9E9,9E9]],v150,z20,custom_tool1\WObj:=WObj0;
MoveL [[208.71,546.56,81.5],[0,0.601948,0.798535,0],[0,-1,-1,0],[0,9E9,9E9,9E9,9E9,9E9]],v150,z20,custom_tool1\WObj:=WObj0;
WaitTime 1.5;
SetDO Stavbar_Gripper_close, 0;
SetDO Stavbar_Gripper_open, 1;
WaitTime 1;
SetDO Stavbar_Gripper_open, 0;
MoveL [[208.71,546.56,181.5],[0,0.601948,0.798535,0],[0,-1,-1,0],[0,9E9,9E9,9E9,9E9,9E9]],v150,z20,custom_tool1\WObj:=WObj0;
MoveJ [[424.57,176.97,252.86],[0.320717,-0.233457,0.914293,-0.081892],[0,-1,-1,0],[0,9E9,9E9,9E9,9E9,9E9]],v150,z20,custom_tool1\WObj:=WObj0;
MoveJ [[25,440,145.8],[-0.174713,0.907209,0.375778,0.072368],[0,-1,-1,0],[0,9E9,9E9,9E9,9E9,9E9]],v150,z20,custom_tool1\WObj:=WObj0;
MoveL [[25,540,45.8],[-0.174713,0.907209,0.375778,0.072368],[0,-1,-1,0],[0,9E9,9E9,9E9,9E9,9E9]],v150,z20,custom_tool1\WObj:=WObj0;
IF TestDI(Stavbar_opt) THEN
WaitDI Stavbar_opt, 0;
ENDIF
WaitTime 1.5;
SetDO Stavbar_Gripper_open, 0;
SetDO Stavbar_Gripper_close, 1;
WaitTime 1;
MoveL [[25,440,145.8],[-0.174713,0.907209,0.375778,0.072368],[0,-1,-1,0],[0,9E9,9E9,9E9,9E9,9E9]],v150,z20,custom_tool1\WObj:=WObj0;
MoveJ [[424.57,176.97,252.86],[0.320717,-0.233457,0.914293,-0.081892],[0,-1,-1,0],[0,9E9,9E9,9E9,9E9,9E9]],v150,z20,custom_tool1\WObj:=WObj0;
MoveJ [[278.96,500.99,181.5],[0,0.664558,0.747236,0],[0,-1,-1,0],[0,9E9,9E9,9E9,9E9,9E9]],v150,z20,custom_tool1\WObj:=WObj0;
MoveL [[278.96,500.99,81.5],[0,0.664558,0.747236,0],[0,-1,-1,0],[0,9E9,9E9,9E9,9E9,9E9]],v150,z20,custom_tool1\WObj:=WObj0;
WaitTime 1.5;
SetDO Stavbar_Gripper_close, 0;
SetDO Stavbar_Gripper_open, 1;
WaitTime 1;
SetDO Stavbar_Gripper_open, 0;
MoveL [[278.96,500.99,181.5],[0,0.664558,0.747236,0],[0,-1,-1,0],[0,9E9,9E9,9E9,9E9,9E9]],v150,z20,custom_tool1\WObj:=WObj0;
MoveJ [[424.57,176.97,252.86],[0.320717,-0.233457,0.914293,-0.081892],[0,-1,-1,0],[0,9E9,9E9,9E9,9E9,9E9]],v150,z20,custom_tool1\WObj:=WObj0;
MoveJ [[25,440,145.8],[-0.174713,0.907209,0.375778,0.072368],[0,-1,-1,0],[0,9E9,9E9,9E9,9E9,9E9]],v150,z20,custom_tool1\WObj:=WObj0;
MoveL [[25,540,45.8],[-0.174713,0.907209,0.375778,0.072368],[0,-1,-1,0],[0,9E9,9E9,9E9,9E9,9E9]],v150,z20,custom_tool1\WObj:=WObj0;
IF TestDI(Stavbar_opt) THEN
WaitDI Stavbar_opt, 0;
ENDIF
WaitTime 1.5;
SetDO Stavbar_Gripper_open, 0;
SetDO Stavbar_Gripper_close, 1;
WaitTime 1;
MoveL [[25,440,145.8],[-0.174713,0.907209,0.375778,0.072368],[0,-1,-1,0],[0,9E9,9E9,9E9,9E9,9E9]],v150,z20,custom_tool1\WObj:=WObj0;
MoveJ [[424.57,176.97,252.86],[0.320717,-0.233457,0.914293,-0.081892],[0,-1,-1,0],[0,9E9,9E9,9E9,9E9,9E9]],v150,z20,custom_tool1\WObj:=WObj0;
MoveJ [[374.6,405.06,181.5],[0,0.74308,0.669202,0],[0,-1,-1,0],[0,9E9,9E9,9E9,9E9,9E9]],v150,z20,custom_tool1\WObj:=WObj0;
MoveL [[374.6,405.06,81.5],[0,0.74308,0.669202,0],[0,-1,-1,0],[0,9E9,9E9,9E9,9E9,9E9]],v150,z20,custom_tool1\WObj:=WObj0;
WaitTime 1.5;
SetDO Stavbar_Gripper_close, 0;
SetDO Stavbar_Gripper_open, 1;
WaitTime 1;
SetDO Stavbar_Gripper_open, 0;
MoveL [[374.6,405.06,181.5],[0,0.74308,0.669202,0],[0,-1,-1,0],[0,9E9,9E9,9E9,9E9,9E9]],v150,z20,custom_tool1\WObj:=WObj0;
MoveJ [[424.57,176.97,252.86],[0.320717,-0.233457,0.914293,-0.081892],[0,-1,-1,0],[0,9E9,9E9,9E9,9E9,9E9]],v150,z20,custom_tool1\WObj:=WObj0;
MoveJ [[25,440,145.8],[-0.174713,0.907209,0.375778,0.072368],[0,-1,-1,0],[0,9E9,9E9,9E9,9E9,9E9]],v150,z20,custom_tool1\WObj:=WObj0;
MoveL [[25,540,45.8],[-0.174713,0.907209,0.375778,0.072368],[0,-1,-1,0],[0,9E9,9E9,9E9,9E9,9E9]],v150,z20,custom_tool1\WObj:=WObj0;
IF TestDI(Stavbar_opt) THEN
WaitDI Stavbar_opt, 0;
ENDIF
WaitTime 1.5;
SetDO Stavbar_Gripper_open, 0;
SetDO Stavbar_Gripper_close, 1;
WaitTime 1;
MoveL [[25,440,145.8],[-0.174713,0.907209,0.375778,0.072368],[0,-1,-1,0],[0,9E9,9E9,9E9,9E9,9E9]],v150,z20,custom_tool1\WObj:=WObj0;
MoveJ [[424.57,176.97,252.86],[0.320717,-0.233457,0.914293,-0.081892],[0,-1,-1,0],[0,9E9,9E9,9E9,9E9,9E9]],v150,z20,custom_tool1\WObj:=WObj0;
MoveJ [[450.79,292.92,181.5],[0,0.795054,0.606539,0],[0,-1,-1,0],[0,9E9,9E9,9E9,9E9,9E9]],v150,z20,custom_tool1\WObj:=WObj0;
MoveL [[450.79,292.92,81.5],[0,0.795054,0.606539,0],[0,-1,-1,0],[0,9E9,9E9,9E9,9E9,9E9]],v150,z20,custom_tool1\WObj:=WObj0;
WaitTime 1.5;
SetDO Stavbar_Gripper_close, 0;
SetDO Stavbar_Gripper_open, 1;
WaitTime 1;
SetDO Stavbar_Gripper_open, 0;
MoveL [[450.79,292.92,181.5],[0,0.795054,0.606539,0],[0,-1,-1,0],[0,9E9,9E9,9E9,9E9,9E9]],v150,z20,custom_tool1\WObj:=WObj0;
MoveJ [[424.57,176.97,252.86],[0.320717,-0.233457,0.914293,-0.081892],[0,-1,-1,0],[0,9E9,9E9,9E9,9E9,9E9]],v150,z20,custom_tool1\WObj:=WObj0;
MoveJ [[25,440,145.8],[-0.174713,0.907209,0.375778,0.072368],[0,-1,-1,0],[0,9E9,9E9,9E9,9E9,9E9]],v150,z20,custom_tool1\WObj:=WObj0;
MoveL [[25,540,45.8],[-0.174713,0.907209,0.375778,0.072368],[0,-1,-1,0],[0,9E9,9E9,9E9,9E9,9E9]],v150,z20,custom_tool1\WObj:=WObj0;
IF TestDI(Stavbar_opt) THEN
WaitDI Stavbar_opt, 0;
ENDIF
WaitTime 1.5;
SetDO Stavbar_Gripper_open, 0;
SetDO Stavbar_Gripper_close, 1;
WaitTime 1;
MoveL [[25,440,145.8],[-0.174713,0.907209,0.375778,0.072368],[0,-1,-1,0],[0,9E9,9E9,9E9,9E9,9E9]],v150,z20,custom_tool1\WObj:=WObj0;
MoveJ [[424.57,176.97,252.86],[0.320717,-0.233457,0.914293,-0.081892],[0,-1,-1,0],[0,9E9,9E9,9E9,9E9,9E9]],v150,z20,custom_tool1\WObj:=WObj0;
MoveJ [[509.16,170.51,181.5],[0,0.83697,0.547248,0],[0,-1,-1,0],[0,9E9,9E9,9E9,9E9,9E9]],v150,z20,custom_tool1\WObj:=WObj0;
MoveL [[509.16,170.51,81.5],[0,0.83697,0.547248,0],[0,-1,-1,0],[0,9E9,9E9,9E9,9E9,9E9]],v150,z20,custom_tool1\WObj:=WObj0;
WaitTime 1.5;
SetDO Stavbar_Gripper_close, 0;
SetDO Stavbar_Gripper_open, 1;
WaitTime 1;
SetDO Stavbar_Gripper_open, 0;
MoveL [[509.16,170.51,181.5],[0,0.83697,0.547248,0],[0,-1,-1,0],[0,9E9,9E9,9E9,9E9,9E9]],v150,z20,custom_tool1\WObj:=WObj0;
MoveJ [[424.57,176.97,252.86],[0.320717,-0.233457,0.914293,-0.081892],[0,-1,-1,0],[0,9E9,9E9,9E9,9E9,9E9]],v150,z20,custom_tool1\WObj:=WObj0;
MoveJ [[25,440,145.8],[-0.174713,0.907209,0.375778,0.072368],[0,-1,-1,0],[0,9E9,9E9,9E9,9E9,9E9]],v150,z20,custom_tool1\WObj:=WObj0;
MoveL [[25,540,45.8],[-0.174713,0.907209,0.375778,0.072368],[0,-1,-1,0],[0,9E9,9E9,9E9,9E9,9E9]],v150,z20,custom_tool1\WObj:=WObj0;
IF TestDI(Stavbar_opt) THEN
WaitDI Stavbar_opt, 0;
ENDIF
WaitTime 1.5;
SetDO Stavbar_Gripper_open, 0;
SetDO Stavbar_Gripper_close, 1;
WaitTime 1;
MoveL [[25,440,145.8],[-0.174713,0.907209,0.375778,0.072368],[0,-1,-1,0],[0,9E9,9E9,9E9,9E9,9E9]],v150,z20,custom_tool1\WObj:=WObj0;
MoveJ [[424.57,176.97,252.86],[0.320717,-0.233457,0.914293,-0.081892],[0,-1,-1,0],[0,9E9,9E9,9E9,9E9,9E9]],v150,z20,custom_tool1\WObj:=WObj0;
MoveJ [[548.99,40.9,181.5],[0,0.876232,0.48189,0],[0,-1,-1,0],[0,9E9,9E9,9E9,9E9,9E9]],v150,z20,custom_tool1\WObj:=WObj0;
MoveL [[548.99,40.9,81.5],[0,0.876232,0.48189,0],[0,-1,-1,0],[0,9E9,9E9,9E9,9E9,9E9]],v150,z20,custom_tool1\WObj:=WObj0;
WaitTime 1.5;
SetDO Stavbar_Gripper_close, 0;
SetDO Stavbar_Gripper_open, 1;
WaitTime 1;
SetDO Stavbar_Gripper_open, 0;
MoveL [[548.99,40.9,181.5],[0,0.876232,0.48189,0],[0,-1,-1,0],[0,9E9,9E9,9E9,9E9,9E9]],v150,z20,custom_tool1\WObj:=WObj0;
MoveJ [[424.57,176.97,252.86],[0.320717,-0.233457,0.914293,-0.081892],[0,-1,-1,0],[0,9E9,9E9,9E9,9E9,9E9]],v150,z20,custom_tool1\WObj:=WObj0;
MoveJ [[25,440,145.8],[-0.174713,0.907209,0.375778,0.072368],[0,-1,-1,0],[0,9E9,9E9,9E9,9E9,9E9]],v150,z20,custom_tool1\WObj:=WObj0;
MoveL [[25,540,45.8],[-0.174713,0.907209,0.375778,0.072368],[0,-1,-1,0],[0,9E9,9E9,9E9,9E9,9E9]],v150,z20,custom_tool1\WObj:=WObj0;
IF TestDI(Stavbar_opt) THEN
WaitDI Stavbar_opt, 0;
ENDIF
WaitTime 1.5;
SetDO Stavbar_Gripper_open, 0;
SetDO Stavbar_Gripper_close, 1;
WaitTime 1;
MoveL [[25,440,145.8],[-0.174713,0.907209,0.375778,0.072368],[0,-1,-1,0],[0,9E9,9E9,9E9,9E9,9E9]],v150,z20,custom_tool1\WObj:=WObj0;
MoveJ [[424.57,176.97,252.86],[0.320717,-0.233457,0.914293,-0.081892],[0,-1,-1,0],[0,9E9,9E9,9E9,9E9,9E9]],v150,z20,custom_tool1\WObj:=WObj0;
MoveJ [[424.57,176.97,252.86],[0.320717,-0.233457,0.914293,-0.081892],[0,-1,-1,0],[0,9E9,9E9,9E9,9E9,9E9]],v150,z20,custom_tool1\WObj:=WObj0;
MoveJ [[533.9,-91.37,181.5],[0,0.969186,0.246329,0],[0,-1,-1,0],[0,9E9,9E9,9E9,9E9,9E9]],v150,z20,custom_tool1\WObj:=WObj0;
MoveL [[533.9,-91.37,81.5],[0,0.969186,0.246329,0],[0,-1,-1,0],[0,9E9,9E9,9E9,9E9,9E9]],v150,z20,custom_tool1\WObj:=WObj0;
WaitTime 1.5;
SetDO Stavbar_Gripper_close, 0;
SetDO Stavbar_Gripper_open, 1;
WaitTime 1;
SetDO Stavbar_Gripper_open, 0;
MoveL [[533.9,-91.37,181.5],[0,0.969186,0.246329,0],[0,-1,-1,0],[0,9E9,9E9,9E9,9E9,9E9]],v150,z20,custom_tool1\WObj:=WObj0;
MoveJ [[424.57,176.97,252.86],[0.320717,-0.233457,0.914293,-0.081892],[0,-1,-1,0],[0,9E9,9E9,9E9,9E9,9E9]],v150,z20,custom_tool1\WObj:=WObj0;
MoveJ [[424.57,176.97,252.86],[0.320717,-0.233457,0.914293,-0.081892],[0,-1,-1,0],[0,9E9,9E9,9E9,9E9,9E9]],v150,z20,custom_tool1\WObj:=WObj0;
MoveJ [[25,440,145.8],[-0.174713,0.907209,0.375778,0.072368],[0,-1,-1,0],[0,9E9,9E9,9E9,9E9,9E9]],v150,z20,custom_tool1\WObj:=WObj0;
MoveL [[25,540,45.8],[-0.174713,0.907209,0.375778,0.072368],[0,-1,-1,0],[0,9E9,9E9,9E9,9E9,9E9]],v150,z20,custom_tool1\WObj:=WObj0;
IF TestDI(Stavbar_opt) THEN
WaitDI Stavbar_opt, 0;
ENDIF
WaitTime 1.5;
SetDO Stavbar_Gripper_open, 0;
SetDO Stavbar_Gripper_close, 1;
WaitTime 1;
MoveL [[25,440,145.8],[-0.174713,0.907209,0.375778,0.072368],[0,-1,-1,0],[0,9E9,9E9,9E9,9E9,9E9]],v150,z20,custom_tool1\WObj:=WObj0;
MoveJ [[424.57,176.97,252.86],[0.320717,-0.233457,0.914293,-0.081892],[0,-1,-1,0],[0,9E9,9E9,9E9,9E9,9E9]],v150,z20,custom_tool1\WObj:=WObj0;
MoveJ [[424.57,176.97,252.86],[0.320717,-0.233457,0.914293,-0.081892],[0,-1,-1,0],[0,9E9,9E9,9E9,9E9,9E9]],v150,z20,custom_tool1\WObj:=WObj0;
MoveJ [[482.92,-216.87,181.5],[0,0.990477,0.13768,0],[0,-1,-1,0],[0,9E9,9E9,9E9,9E9,9E9]],v150,z20,custom_tool1\WObj:=WObj0;
MoveL [[482.92,-216.87,81.5],[0,0.990477,0.13768,0],[0,-1,-1,0],[0,9E9,9E9,9E9,9E9,9E9]],v150,z20,custom_tool1\WObj:=WObj0;
WaitTime 1.5;
SetDO Stavbar_Gripper_close, 0;
SetDO Stavbar_Gripper_open, 1;
WaitTime 1;
SetDO Stavbar_Gripper_open, 0;
MoveL [[482.92,-216.87,181.5],[0,0.990477,0.13768,0],[0,-1,-1,0],[0,9E9,9E9,9E9,9E9,9E9]],v150,z20,custom_tool1\WObj:=WObj0;
MoveJ [[424.57,176.97,252.86],[0.320717,-0.233457,0.914293,-0.081892],[0,-1,-1,0],[0,9E9,9E9,9E9,9E9,9E9]],v150,z20,custom_tool1\WObj:=WObj0;
MoveJ [[424.57,176.97,252.86],[0.320717,-0.233457,0.914293,-0.081892],[0,-1,-1,0],[0,9E9,9E9,9E9,9E9,9E9]],v150,z20,custom_tool1\WObj:=WObj0;
MoveJ [[25,440,145.8],[-0.174713,0.907209,0.375778,0.072368],[0,-1,-1,0],[0,9E9,9E9,9E9,9E9,9E9]],v150,z20,custom_tool1\WObj:=WObj0;
MoveL [[25,540,45.8],[-0.174713,0.907209,0.375778,0.072368],[0,-1,-1,0],[0,9E9,9E9,9E9,9E9,9E9]],v150,z20,custom_tool1\WObj:=WObj0;
IF TestDI(Stavbar_opt) THEN
WaitDI Stavbar_opt, 0;
ENDIF
WaitTime 1.5;
SetDO Stavbar_Gripper_open, 0;
SetDO Stavbar_Gripper_close, 1;
WaitTime 1;
MoveL [[25,440,145.8],[-0.174713,0.907209,0.375778,0.072368],[0,-1,-1,0],[0,9E9,9E9,9E9,9E9,9E9]],v150,z20,custom_tool1\WObj:=WObj0;
MoveJ [[424.57,176.97,252.86],[0.320717,-0.233457,0.914293,-0.081892],[0,-1,-1,0],[0,9E9,9E9,9E9,9E9,9E9]],v150,z20,custom_tool1\WObj:=WObj0;
MoveJ [[424.57,176.97,252.86],[0.320717,-0.233457,0.914293,-0.081892],[0,-1,-1,0],[0,9E9,9E9,9E9,9E9,9E9]],v150,z20,custom_tool1\WObj:=WObj0;
MoveJ [[390.8,-313.29,181.5],[0,0.980551,-0.196267,0],[0,-1,-1,0],[0,9E9,9E9,9E9,9E9,9E9]],v150,z20,custom_tool1\WObj:=WObj0;
MoveL [[390.8,-313.29,81.5],[0,0.980551,-0.196267,0],[0,-1,-1,0],[0,9E9,9E9,9E9,9E9,9E9]],v150,z20,custom_tool1\WObj:=WObj0;
WaitTime 1.5;
SetDO Stavbar_Gripper_close, 0;
SetDO Stavbar_Gripper_open, 1;
WaitTime 1;
SetDO Stavbar_Gripper_open, 0;
MoveL [[390.8,-313.29,181.5],[0,0.980551,-0.196267,0],[0,-1,-1,0],[0,9E9,9E9,9E9,9E9,9E9]],v150,z20,custom_tool1\WObj:=WObj0;
MoveJ [[424.57,176.97,252.86],[0.320717,-0.233457,0.914293,-0.081892],[0,-1,-1,0],[0,9E9,9E9,9E9,9E9,9E9]],v150,z20,custom_tool1\WObj:=WObj0;
MoveJ [[424.57,176.97,252.86],[0.320717,-0.233457,0.914293,-0.081892],[0,-1,-1,0],[0,9E9,9E9,9E9,9E9,9E9]],v150,z20,custom_tool1\WObj:=WObj0;
MoveJ [[25,440,145.8],[-0.174713,0.907209,0.375778,0.072368],[0,-1,-1,0],[0,9E9,9E9,9E9,9E9,9E9]],v150,z20,custom_tool1\WObj:=WObj0;
MoveL [[25,540,45.8],[-0.174713,0.907209,0.375778,0.072368],[0,-1,-1,0],[0,9E9,9E9,9E9,9E9,9E9]],v150,z20,custom_tool1\WObj:=WObj0;
IF TestDI(Stavbar_opt) THEN
WaitDI Stavbar_opt, 0;
ENDIF
WaitTime 1.5;
SetDO Stavbar_Gripper_open, 0;
SetDO Stavbar_Gripper_close, 1;
WaitTime 1;
MoveL [[25,440,145.8],[-0.174713,0.907209,0.375778,0.072368],[0,-1,-1,0],[0,9E9,9E9,9E9,9E9,9E9]],v150,z20,custom_tool1\WObj:=WObj0;
MoveJ [[424.57,176.97,252.86],[0.320717,-0.233457,0.914293,-0.081892],[0,-1,-1,0],[0,9E9,9E9,9E9,9E9,9E9]],v150,z20,custom_tool1\WObj:=WObj0;
MoveJ [[424.57,176.97,252.86],[0.320717,-0.233457,0.914293,-0.081892],[0,-1,-1,0],[0,9E9,9E9,9E9,9E9,9E9]],v150,z20,custom_tool1\WObj:=WObj0;
MoveJ [[286.45,-260.09,181.5],[0,0.881668,0.47187,0],[0,-1,-1,0],[0,9E9,9E9,9E9,9E9,9E9]],v150,z20,custom_tool1\WObj:=WObj0;
MoveL [[286.45,-260.09,81.5],[0,0.881668,0.47187,0],[0,-1,-1,0],[0,9E9,9E9,9E9,9E9,9E9]],v150,z20,custom_tool1\WObj:=WObj0;
WaitTime 1.5;
SetDO Stavbar_Gripper_close, 0;
SetDO Stavbar_Gripper_open, 1;
WaitTime 1;
SetDO Stavbar_Gripper_open, 0;
MoveL [[286.45,-260.09,181.5],[0,0.881668,0.47187,0],[0,-1,-1,0],[0,9E9,9E9,9E9,9E9,9E9]],v150,z20,custom_tool1\WObj:=WObj0;
MoveJ [[424.57,176.97,252.86],[0.320717,-0.233457,0.914293,-0.081892],[0,-1,-1,0],[0,9E9,9E9,9E9,9E9,9E9]],v150,z20,custom_tool1\WObj:=WObj0;
MoveJ [[424.57,176.97,252.86],[0.320717,-0.233457,0.914293,-0.081892],[0,-1,-1,0],[0,9E9,9E9,9E9,9E9,9E9]],v150,z20,custom_tool1\WObj:=WObj0;
MoveJ [[25,440,145.8],[-0.174713,0.907209,0.375778,0.072368],[0,-1,-1,0],[0,9E9,9E9,9E9,9E9,9E9]],v150,z20,custom_tool1\WObj:=WObj0;
MoveL [[25,540,45.8],[-0.174713,0.907209,0.375778,0.072368],[0,-1,-1,0],[0,9E9,9E9,9E9,9E9,9E9]],v150,z20,custom_tool1\WObj:=WObj0;
IF TestDI(Stavbar_opt) THEN
WaitDI Stavbar_opt, 0;
ENDIF
WaitTime 1.5;
SetDO Stavbar_Gripper_open, 0;
SetDO Stavbar_Gripper_close, 1;
WaitTime 1;
MoveL [[25,440,145.8],[-0.174713,0.907209,0.375778,0.072368],[0,-1,-1,0],[0,9E9,9E9,9E9,9E9,9E9]],v150,z20,custom_tool1\WObj:=WObj0;
MoveJ [[424.57,176.97,252.86],[0.320717,-0.233457,0.914293,-0.081892],[0,-1,-1,0],[0,9E9,9E9,9E9,9E9,9E9]],v150,z20,custom_tool1\WObj:=WObj0;
MoveJ [[424.57,176.97,252.86],[0.320717,-0.233457,0.914293,-0.081892],[0,-1,-1,0],[0,9E9,9E9,9E9,9E9,9E9]],v150,z20,custom_tool1\WObj:=WObj0;
MoveJ [[310.77,-128.6,181.5],[0,0.983789,0.179332,0],[0,-1,-1,0],[0,9E9,9E9,9E9,9E9,9E9]],v150,z20,custom_tool1\WObj:=WObj0;
MoveL [[310.77,-128.6,81.5],[0,0.983789,0.179332,0],[0,-1,-1,0],[0,9E9,9E9,9E9,9E9,9E9]],v150,z20,custom_tool1\WObj:=WObj0;
WaitTime 1.5;
SetDO Stavbar_Gripper_close, 0;
SetDO Stavbar_Gripper_open, 1;
WaitTime 1;
SetDO Stavbar_Gripper_open, 0;
MoveL [[310.77,-128.6,181.5],[0,0.983789,0.179332,0],[0,-1,-1,0],[0,9E9,9E9,9E9,9E9,9E9]],v150,z20,custom_tool1\WObj:=WObj0;
MoveJ [[424.57,176.97,252.86],[0.320717,-0.233457,0.914293,-0.081892],[0,-1,-1,0],[0,9E9,9E9,9E9,9E9,9E9]],v150,z20,custom_tool1\WObj:=WObj0;
MoveJ [[424.57,176.97,252.86],[0.320717,-0.233457,0.914293,-0.081892],[0,-1,-1,0],[0,9E9,9E9,9E9,9E9,9E9]],v150,z20,custom_tool1\WObj:=WObj0;
MoveJ [[25,440,145.8],[-0.174713,0.907209,0.375778,0.072368],[0,-1,-1,0],[0,9E9,9E9,9E9,9E9,9E9]],v150,z20,custom_tool1\WObj:=WObj0;
MoveL [[25,540,45.8],[-0.174713,0.907209,0.375778,0.072368],[0,-1,-1,0],[0,9E9,9E9,9E9,9E9,9E9]],v150,z20,custom_tool1\WObj:=WObj0;
IF TestDI(Stavbar_opt) THEN
WaitDI Stavbar_opt, 0;
ENDIF
WaitTime 1.5;
SetDO Stavbar_Gripper_open, 0;
SetDO Stavbar_Gripper_close, 1;
WaitTime 1;
MoveL [[25,440,145.8],[-0.174713,0.907209,0.375778,0.072368],[0,-1,-1,0],[0,9E9,9E9,9E9,9E9,9E9]],v150,z20,custom_tool1\WObj:=WObj0;
MoveJ [[424.57,176.97,252.86],[0.320717,-0.233457,0.914293,-0.081892],[0,-1,-1,0],[0,9E9,9E9,9E9,9E9,9E9]],v150,z20,custom_tool1\WObj:=WObj0;
MoveJ [[342.67,1.23,181.5],[0,0.921184,0.389128,0],[0,-1,-1,0],[0,9E9,9E9,9E9,9E9,9E9]],v150,z20,custom_tool1\WObj:=WObj0;
MoveL [[342.67,1.23,81.5],[0,0.921184,0.389128,0],[0,-1,-1,0],[0,9E9,9E9,9E9,9E9,9E9]],v150,z20,custom_tool1\WObj:=WObj0;
WaitTime 1.5;
SetDO Stavbar_Gripper_close, 0;
SetDO Stavbar_Gripper_open, 1;
WaitTime 1;
SetDO Stavbar_Gripper_open, 0;
MoveL [[342.67,1.23,181.5],[0,0.921184,0.389128,0],[0,-1,-1,0],[0,9E9,9E9,9E9,9E9,9E9]],v150,z20,custom_tool1\WObj:=WObj0;
MoveJ [[424.57,176.97,252.86],[0.320717,-0.233457,0.914293,-0.081892],[0,-1,-1,0],[0,9E9,9E9,9E9,9E9,9E9]],v150,z20,custom_tool1\WObj:=WObj0;
MoveJ [[25,440,145.8],[-0.174713,0.907209,0.375778,0.072368],[0,-1,-1,0],[0,9E9,9E9,9E9,9E9,9E9]],v150,z20,custom_tool1\WObj:=WObj0;
MoveL [[25,540,45.8],[-0.174713,0.907209,0.375778,0.072368],[0,-1,-1,0],[0,9E9,9E9,9E9,9E9,9E9]],v150,z20,custom_tool1\WObj:=WObj0;
IF TestDI(Stavbar_opt) THEN
WaitDI Stavbar_opt, 0;
ENDIF
WaitTime 1.5;
SetDO Stavbar_Gripper_open, 0;
SetDO Stavbar_Gripper_close, 1;
WaitTime 1;
MoveL [[25,440,145.8],[-0.174713,0.907209,0.375778,0.072368],[0,-1,-1,0],[0,9E9,9E9,9E9,9E9,9E9]],v150,z20,custom_tool1\WObj:=WObj0;
MoveJ [[424.57,176.97,252.86],[0.320717,-0.233457,0.914293,-0.081892],[0,-1,-1,0],[0,9E9,9E9,9E9,9E9,9E9]],v150,z20,custom_tool1\WObj:=WObj0;
MoveJ [[314.29,132.95,181.5],[0,0.817022,0.576606,0],[0,-1,-1,0],[0,9E9,9E9,9E9,9E9,9E9]],v150,z20,custom_tool1\WObj:=WObj0;
MoveL [[314.29,132.95,81.5],[0,0.817022,0.576606,0],[0,-1,-1,0],[0,9E9,9E9,9E9,9E9,9E9]],v150,z20,custom_tool1\WObj:=WObj0;
WaitTime 1.5;
SetDO Stavbar_Gripper_close, 0;
SetDO Stavbar_Gripper_open, 1;
WaitTime 1;
SetDO Stavbar_Gripper_open, 0;
MoveL [[314.29,132.95,181.5],[0,0.817022,0.576606,0],[0,-1,-1,0],[0,9E9,9E9,9E9,9E9,9E9]],v150,z20,custom_tool1\WObj:=WObj0;
MoveJ [[424.57,176.97,252.86],[0.320717,-0.233457,0.914293,-0.081892],[0,-1,-1,0],[0,9E9,9E9,9E9,9E9,9E9]],v150,z20,custom_tool1\WObj:=WObj0;
MoveJ [[25,440,145.8],[-0.174713,0.907209,0.375778,0.072368],[0,-1,-1,0],[0,9E9,9E9,9E9,9E9,9E9]],v150,z20,custom_tool1\WObj:=WObj0;
MoveL [[25,540,45.8],[-0.174713,0.907209,0.375778,0.072368],[0,-1,-1,0],[0,9E9,9E9,9E9,9E9,9E9]],v150,z20,custom_tool1\WObj:=WObj0;
IF TestDI(Stavbar_opt) THEN
WaitDI Stavbar_opt, 0;
ENDIF
WaitTime 1.5;
SetDO Stavbar_Gripper_open, 0;
SetDO Stavbar_Gripper_close, 1;
WaitTime 1;
MoveL [[25,440,145.8],[-0.174713,0.907209,0.375778,0.072368],[0,-1,-1,0],[0,9E9,9E9,9E9,9E9,9E9]],v150,z20,custom_tool1\WObj:=WObj0;
MoveJ [[424.57,176.97,252.86],[0.320717,-0.233457,0.914293,-0.081892],[0,-1,-1,0],[0,9E9,9E9,9E9,9E9,9E9]],v150,z20,custom_tool1\WObj:=WObj0;
MoveJ [[222.7,538.8,204.5],[0,0.601948,0.798535,0],[0,-1,-1,0],[0,9E9,9E9,9E9,9E9,9E9]],v150,z20,custom_tool1\WObj:=WObj0;
MoveL [[222.7,538.8,104.5],[0,0.601948,0.798535,0],[0,-1,-1,0],[0,9E9,9E9,9E9,9E9,9E9]],v150,z20,custom_tool1\WObj:=WObj0;
WaitTime 1.5;
SetDO Stavbar_Gripper_close, 0;
SetDO Stavbar_Gripper_open, 1;
WaitTime 1;
SetDO Stavbar_Gripper_open, 0;
MoveL [[222.7,538.8,204.5],[0,0.601948,0.798535,0],[0,-1,-1,0],[0,9E9,9E9,9E9,9E9,9E9]],v150,z20,custom_tool1\WObj:=WObj0;
MoveJ [[424.57,176.97,252.86],[0.320717,-0.233457,0.914293,-0.081892],[0,-1,-1,0],[0,9E9,9E9,9E9,9E9,9E9]],v150,z20,custom_tool1\WObj:=WObj0;
MoveJ [[25,440,145.8],[-0.174713,0.907209,0.375778,0.072368],[0,-1,-1,0],[0,9E9,9E9,9E9,9E9,9E9]],v150,z20,custom_tool1\WObj:=WObj0;
MoveL [[25,540,45.8],[-0.174713,0.907209,0.375778,0.072368],[0,-1,-1,0],[0,9E9,9E9,9E9,9E9,9E9]],v150,z20,custom_tool1\WObj:=WObj0;
IF TestDI(Stavbar_opt) THEN
WaitDI Stavbar_opt, 0;
ENDIF
WaitTime 1.5;
SetDO Stavbar_Gripper_open, 0;
SetDO Stavbar_Gripper_close, 1;
WaitTime 1;
MoveL [[25,440,145.8],[-0.174713,0.907209,0.375778,0.072368],[0,-1,-1,0],[0,9E9,9E9,9E9,9E9,9E9]],v150,z20,custom_tool1\WObj:=WObj0;
MoveJ [[424.57,176.97,252.86],[0.320717,-0.233457,0.914293,-0.081892],[0,-1,-1,0],[0,9E9,9E9,9E9,9E9,9E9]],v150,z20,custom_tool1\WObj:=WObj0;
MoveJ [[329.41,455.66,204.5],[0,0.708973,0.705235,0],[0,-1,-1,0],[0,9E9,9E9,9E9,9E9,9E9]],v150,z20,custom_tool1\WObj:=WObj0;
MoveL [[329.41,455.66,104.5],[0,0.708973,0.705235,0],[0,-1,-1,0],[0,9E9,9E9,9E9,9E9,9E9]],v150,z20,custom_tool1\WObj:=WObj0;
WaitTime 1.5;
SetDO Stavbar_Gripper_close, 0;
SetDO Stavbar_Gripper_open, 1;
WaitTime 1;
SetDO Stavbar_Gripper_open, 0;
MoveL [[329.41,455.66,204.5],[0,0.708973,0.705235,0],[0,-1,-1,0],[0,9E9,9E9,9E9,9E9,9E9]],v150,z20,custom_tool1\WObj:=WObj0;
MoveJ [[424.57,176.97,252.86],[0.320717,-0.233457,0.914293,-0.081892],[0,-1,-1,0],[0,9E9,9E9,9E9,9E9,9E9]],v150,z20,custom_tool1\WObj:=WObj0;
MoveJ [[25,440,145.8],[-0.174713,0.907209,0.375778,0.072368],[0,-1,-1,0],[0,9E9,9E9,9E9,9E9,9E9]],v150,z20,custom_tool1\WObj:=WObj0;
MoveL [[25,540,45.8],[-0.174713,0.907209,0.375778,0.072368],[0,-1,-1,0],[0,9E9,9E9,9E9,9E9,9E9]],v150,z20,custom_tool1\WObj:=WObj0;
IF TestDI(Stavbar_opt) THEN
WaitDI Stavbar_opt, 0;
ENDIF
WaitTime 1.5;
SetDO Stavbar_Gripper_open, 0;
SetDO Stavbar_Gripper_close, 1;
WaitTime 1;
MoveL [[25,440,145.8],[-0.174713,0.907209,0.375778,0.072368],[0,-1,-1,0],[0,9E9,9E9,9E9,9E9,9E9]],v150,z20,custom_tool1\WObj:=WObj0;
MoveJ [[424.57,176.97,252.86],[0.320717,-0.233457,0.914293,-0.081892],[0,-1,-1,0],[0,9E9,9E9,9E9,9E9,9E9]],v150,z20,custom_tool1\WObj:=WObj0;
MoveJ [[414.96,350.54,204.5],[0,0.770994,0.636842,0],[0,-1,-1,0],[0,9E9,9E9,9E9,9E9,9E9]],v150,z20,custom_tool1\WObj:=WObj0;
MoveL [[414.96,350.54,104.5],[0,0.770994,0.636842,0],[0,-1,-1,0],[0,9E9,9E9,9E9,9E9,9E9]],v150,z20,custom_tool1\WObj:=WObj0;
WaitTime 1.5;
SetDO Stavbar_Gripper_close, 0;
SetDO Stavbar_Gripper_open, 1;
WaitTime 1;
SetDO Stavbar_Gripper_open, 0;
MoveL [[414.96,350.54,204.5],[0,0.770994,0.636842,0],[0,-1,-1,0],[0,9E9,9E9,9E9,9E9,9E9]],v150,z20,custom_tool1\WObj:=WObj0;
MoveJ [[424.57,176.97,252.86],[0.320717,-0.233457,0.914293,-0.081892],[0,-1,-1,0],[0,9E9,9E9,9E9,9E9,9E9]],v150,z20,custom_tool1\WObj:=WObj0;
MoveJ [[25,440,145.8],[-0.174713,0.907209,0.375778,0.072368],[0,-1,-1,0],[0,9E9,9E9,9E9,9E9,9E9]],v150,z20,custom_tool1\WObj:=WObj0;
MoveL [[25,540,45.8],[-0.174713,0.907209,0.375778,0.072368],[0,-1,-1,0],[0,9E9,9E9,9E9,9E9,9E9]],v150,z20,custom_tool1\WObj:=WObj0;
IF TestDI(Stavbar_opt) THEN
WaitDI Stavbar_opt, 0;
ENDIF
WaitTime 1.5;
SetDO Stavbar_Gripper_open, 0;
SetDO Stavbar_Gripper_close, 1;
WaitTime 1;
MoveL [[25,440,145.8],[-0.174713,0.907209,0.375778,0.072368],[0,-1,-1,0],[0,9E9,9E9,9E9,9E9,9E9]],v150,z20,custom_tool1\WObj:=WObj0;
MoveJ [[424.57,176.97,252.86],[0.320717,-0.233457,0.914293,-0.081892],[0,-1,-1,0],[0,9E9,9E9,9E9,9E9,9E9]],v150,z20,custom_tool1\WObj:=WObj0;
MoveJ [[482.19,232.77,204.5],[0,0.816713,0.577044,0],[0,-1,-1,0],[0,9E9,9E9,9E9,9E9,9E9]],v150,z20,custom_tool1\WObj:=WObj0;
MoveL [[482.19,232.77,104.5],[0,0.816713,0.577044,0],[0,-1,-1,0],[0,9E9,9E9,9E9,9E9,9E9]],v150,z20,custom_tool1\WObj:=WObj0;
WaitTime 1.5;
SetDO Stavbar_Gripper_close, 0;
SetDO Stavbar_Gripper_open, 1;
WaitTime 1;
SetDO Stavbar_Gripper_open, 0;
MoveL [[482.19,232.77,204.5],[0,0.816713,0.577044,0],[0,-1,-1,0],[0,9E9,9E9,9E9,9E9,9E9]],v150,z20,custom_tool1\WObj:=WObj0;
MoveJ [[424.57,176.97,252.86],[0.320717,-0.233457,0.914293,-0.081892],[0,-1,-1,0],[0,9E9,9E9,9E9,9E9,9E9]],v150,z20,custom_tool1\WObj:=WObj0;
MoveJ [[25,440,145.8],[-0.174713,0.907209,0.375778,0.072368],[0,-1,-1,0],[0,9E9,9E9,9E9,9E9,9E9]],v150,z20,custom_tool1\WObj:=WObj0;
MoveL [[25,540,45.8],[-0.174713,0.907209,0.375778,0.072368],[0,-1,-1,0],[0,9E9,9E9,9E9,9E9,9E9]],v150,z20,custom_tool1\WObj:=WObj0;
IF TestDI(Stavbar_opt) THEN
WaitDI Stavbar_opt, 0;
ENDIF
WaitTime 1.5;
SetDO Stavbar_Gripper_open, 0;
SetDO Stavbar_Gripper_close, 1;
WaitTime 1;
MoveL [[25,440,145.8],[-0.174713,0.907209,0.375778,0.072368],[0,-1,-1,0],[0,9E9,9E9,9E9,9E9,9E9]],v150,z20,custom_tool1\WObj:=WObj0;
MoveJ [[424.57,176.97,252.86],[0.320717,-0.233457,0.914293,-0.081892],[0,-1,-1,0],[0,9E9,9E9,9E9,9E9,9E9]],v150,z20,custom_tool1\WObj:=WObj0;
MoveJ [[531.54,106.46,204.5],[0,0.85659,0.515998,0],[0,-1,-1,0],[0,9E9,9E9,9E9,9E9,9E9]],v150,z20,custom_tool1\WObj:=WObj0;
MoveL [[531.54,106.46,104.5],[0,0.85659,0.515998,0],[0,-1,-1,0],[0,9E9,9E9,9E9,9E9,9E9]],v150,z20,custom_tool1\WObj:=WObj0;
WaitTime 1.5;
SetDO Stavbar_Gripper_close, 0;
SetDO Stavbar_Gripper_open, 1;
WaitTime 1;
SetDO Stavbar_Gripper_open, 0;
MoveL [[531.54,106.46,204.5],[0,0.85659,0.515998,0],[0,-1,-1,0],[0,9E9,9E9,9E9,9E9,9E9]],v150,z20,custom_tool1\WObj:=WObj0;
MoveJ [[424.57,176.97,252.86],[0.320717,-0.233457,0.914293,-0.081892],[0,-1,-1,0],[0,9E9,9E9,9E9,9E9,9E9]],v150,z20,custom_tool1\WObj:=WObj0;
MoveJ [[25,440,145.8],[-0.174713,0.907209,0.375778,0.072368],[0,-1,-1,0],[0,9E9,9E9,9E9,9E9,9E9]],v150,z20,custom_tool1\WObj:=WObj0;
MoveL [[25,540,45.8],[-0.174713,0.907209,0.375778,0.072368],[0,-1,-1,0],[0,9E9,9E9,9E9,9E9,9E9]],v150,z20,custom_tool1\WObj:=WObj0;
IF TestDI(Stavbar_opt) THEN
WaitDI Stavbar_opt, 0;
ENDIF
WaitTime 1.5;
SetDO Stavbar_Gripper_open, 0;
SetDO Stavbar_Gripper_close, 1;
WaitTime 1;
MoveL [[25,440,145.8],[-0.174713,0.907209,0.375778,0.072368],[0,-1,-1,0],[0,9E9,9E9,9E9,9E9,9E9]],v150,z20,custom_tool1\WObj:=WObj0;
MoveJ [[424.57,176.97,252.86],[0.320717,-0.233457,0.914293,-0.081892],[0,-1,-1,0],[0,9E9,9E9,9E9,9E9,9E9]],v150,z20,custom_tool1\WObj:=WObj0;
MoveJ [[424.57,176.97,252.86],[0.320717,-0.233457,0.914293,-0.081892],[0,-1,-1,0],[0,9E9,9E9,9E9,9E9,9E9]],v150,z20,custom_tool1\WObj:=WObj0;
MoveJ [[550.67,-25.63,204.5],[0,0.959505,0.28169,0],[0,-1,-1,0],[0,9E9,9E9,9E9,9E9,9E9]],v150,z20,custom_tool1\WObj:=WObj0;
MoveL [[550.67,-25.63,104.5],[0,0.959505,0.28169,0],[0,-1,-1,0],[0,9E9,9E9,9E9,9E9,9E9]],v150,z20,custom_tool1\WObj:=WObj0;
WaitTime 1.5;
SetDO Stavbar_Gripper_close, 0;
SetDO Stavbar_Gripper_open, 1;
WaitTime 1;
SetDO Stavbar_Gripper_open, 0;
MoveL [[550.67,-25.63,204.5],[0,0.959505,0.28169,0],[0,-1,-1,0],[0,9E9,9E9,9E9,9E9,9E9]],v150,z20,custom_tool1\WObj:=WObj0;
MoveJ [[424.57,176.97,252.86],[0.320717,-0.233457,0.914293,-0.081892],[0,-1,-1,0],[0,9E9,9E9,9E9,9E9,9E9]],v150,z20,custom_tool1\WObj:=WObj0;
MoveJ [[424.57,176.97,252.86],[0.320717,-0.233457,0.914293,-0.081892],[0,-1,-1,0],[0,9E9,9E9,9E9,9E9,9E9]],v150,z20,custom_tool1\WObj:=WObj0;
MoveJ [[25,440,145.8],[-0.174713,0.907209,0.375778,0.072368],[0,-1,-1,0],[0,9E9,9E9,9E9,9E9,9E9]],v150,z20,custom_tool1\WObj:=WObj0;
MoveL [[25,540,45.8],[-0.174713,0.907209,0.375778,0.072368],[0,-1,-1,0],[0,9E9,9E9,9E9,9E9,9E9]],v150,z20,custom_tool1\WObj:=WObj0;
IF TestDI(Stavbar_opt) THEN
WaitDI Stavbar_opt, 0;
ENDIF
WaitTime 1.5;
SetDO Stavbar_Gripper_open, 0;
SetDO Stavbar_Gripper_close, 1;
WaitTime 1;
MoveL [[25,440,145.8],[-0.174713,0.907209,0.375778,0.072368],[0,-1,-1,0],[0,9E9,9E9,9E9,9E9,9E9]],v150,z20,custom_tool1\WObj:=WObj0;
MoveJ [[424.57,176.97,252.86],[0.320717,-0.233457,0.914293,-0.081892],[0,-1,-1,0],[0,9E9,9E9,9E9,9E9,9E9]],v150,z20,custom_tool1\WObj:=WObj0;
MoveJ [[424.57,176.97,252.86],[0.320717,-0.233457,0.914293,-0.081892],[0,-1,-1,0],[0,9E9,9E9,9E9,9E9,9E9]],v150,z20,custom_tool1\WObj:=WObj0;
MoveJ [[511.81,-155.52,204.5],[0,0.979505,0.201419,0],[0,-1,-1,0],[0,9E9,9E9,9E9,9E9,9E9]],v150,z20,custom_tool1\WObj:=WObj0;
MoveL [[511.81,-155.52,104.5],[0,0.979505,0.201419,0],[0,-1,-1,0],[0,9E9,9E9,9E9,9E9,9E9]],v150,z20,custom_tool1\WObj:=WObj0;
WaitTime 1.5;
SetDO Stavbar_Gripper_close, 0;
SetDO Stavbar_Gripper_open, 1;
WaitTime 1;
SetDO Stavbar_Gripper_open, 0;
MoveL [[511.81,-155.52,204.5],[0,0.979505,0.201419,0],[0,-1,-1,0],[0,9E9,9E9,9E9,9E9,9E9]],v150,z20,custom_tool1\WObj:=WObj0;
MoveJ [[424.57,176.97,252.86],[0.320717,-0.233457,0.914293,-0.081892],[0,-1,-1,0],[0,9E9,9E9,9E9,9E9,9E9]],v150,z20,custom_tool1\WObj:=WObj0;
MoveJ [[424.57,176.97,252.86],[0.320717,-0.233457,0.914293,-0.081892],[0,-1,-1,0],[0,9E9,9E9,9E9,9E9,9E9]],v150,z20,custom_tool1\WObj:=WObj0;
MoveJ [[25,440,145.8],[-0.174713,0.907209,0.375778,0.072368],[0,-1,-1,0],[0,9E9,9E9,9E9,9E9,9E9]],v150,z20,custom_tool1\WObj:=WObj0;
MoveL [[25,540,45.8],[-0.174713,0.907209,0.375778,0.072368],[0,-1,-1,0],[0,9E9,9E9,9E9,9E9,9E9]],v150,z20,custom_tool1\WObj:=WObj0;
IF TestDI(Stavbar_opt) THEN
WaitDI Stavbar_opt, 0;
ENDIF
WaitTime 1.5;
SetDO Stavbar_Gripper_open, 0;
SetDO Stavbar_Gripper_close, 1;
WaitTime 1;
MoveL [[25,440,145.8],[-0.174713,0.907209,0.375778,0.072368],[0,-1,-1,0],[0,9E9,9E9,9E9,9E9,9E9]],v150,z20,custom_tool1\WObj:=WObj0;
MoveJ [[424.57,176.97,252.86],[0.320717,-0.233457,0.914293,-0.081892],[0,-1,-1,0],[0,9E9,9E9,9E9,9E9,9E9]],v150,z20,custom_tool1\WObj:=WObj0;
MoveJ [[424.57,176.97,252.86],[0.320717,-0.233457,0.914293,-0.081892],[0,-1,-1,0],[0,9E9,9E9,9E9,9E9,9E9]],v150,z20,custom_tool1\WObj:=WObj0;
MoveJ [[444.35,-272.55,204.5],[0,0.999536,0.030472,0],[0,-1,-1,0],[0,9E9,9E9,9E9,9E9,9E9]],v150,z20,custom_tool1\WObj:=WObj0;
MoveL [[444.35,-272.55,104.5],[0,0.999536,0.030472,0],[0,-1,-1,0],[0,9E9,9E9,9E9,9E9,9E9]],v150,z20,custom_tool1\WObj:=WObj0;
WaitTime 1.5;
SetDO Stavbar_Gripper_close, 0;
SetDO Stavbar_Gripper_open, 1;
WaitTime 1;
SetDO Stavbar_Gripper_open, 0;
MoveL [[444.35,-272.55,204.5],[0,0.999536,0.030472,0],[0,-1,-1,0],[0,9E9,9E9,9E9,9E9,9E9]],v150,z20,custom_tool1\WObj:=WObj0;
MoveJ [[424.57,176.97,252.86],[0.320717,-0.233457,0.914293,-0.081892],[0,-1,-1,0],[0,9E9,9E9,9E9,9E9,9E9]],v150,z20,custom_tool1\WObj:=WObj0;
MoveJ [[424.57,176.97,252.86],[0.320717,-0.233457,0.914293,-0.081892],[0,-1,-1,0],[0,9E9,9E9,9E9,9E9,9E9]],v150,z20,custom_tool1\WObj:=WObj0;
MoveJ [[25,440,145.8],[-0.174713,0.907209,0.375778,0.072368],[0,-1,-1,0],[0,9E9,9E9,9E9,9E9,9E9]],v150,z20,custom_tool1\WObj:=WObj0;
MoveL [[25,540,45.8],[-0.174713,0.907209,0.375778,0.072368],[0,-1,-1,0],[0,9E9,9E9,9E9,9E9,9E9]],v150,z20,custom_tool1\WObj:=WObj0;
IF TestDI(Stavbar_opt) THEN
WaitDI Stavbar_opt, 0;
ENDIF
WaitTime 1.5;
SetDO Stavbar_Gripper_open, 0;
SetDO Stavbar_Gripper_close, 1;
WaitTime 1;
MoveL [[25,440,145.8],[-0.174713,0.907209,0.375778,0.072368],[0,-1,-1,0],[0,9E9,9E9,9E9,9E9,9E9]],v150,z20,custom_tool1\WObj:=WObj0;
MoveJ [[424.57,176.97,252.86],[0.320717,-0.233457,0.914293,-0.081892],[0,-1,-1,0],[0,9E9,9E9,9E9,9E9,9E9]],v150,z20,custom_tool1\WObj:=WObj0;
MoveJ [[424.57,176.97,252.86],[0.320717,-0.233457,0.914293,-0.081892],[0,-1,-1,0],[0,9E9,9E9,9E9,9E9,9E9]],v150,z20,custom_tool1\WObj:=WObj0;
MoveJ [[324.88,-312.76,204.5],[0,0.568194,0.822895,0],[0,-1,-1,0],[0,9E9,9E9,9E9,9E9,9E9]],v150,z20,custom_tool1\WObj:=WObj0;
MoveL [[324.88,-312.76,104.5],[0,0.568194,0.822895,0],[0,-1,-1,0],[0,9E9,9E9,9E9,9E9,9E9]],v150,z20,custom_tool1\WObj:=WObj0;
WaitTime 1.5;
SetDO Stavbar_Gripper_close, 0;
SetDO Stavbar_Gripper_open, 1;
WaitTime 1;
SetDO Stavbar_Gripper_open, 0;
MoveL [[324.88,-312.76,204.5],[0,0.568194,0.822895,0],[0,-1,-1,0],[0,9E9,9E9,9E9,9E9,9E9]],v150,z20,custom_tool1\WObj:=WObj0;
MoveJ [[424.57,176.97,252.86],[0.320717,-0.233457,0.914293,-0.081892],[0,-1,-1,0],[0,9E9,9E9,9E9,9E9,9E9]],v150,z20,custom_tool1\WObj:=WObj0;
MoveJ [[424.57,176.97,252.86],[0.320717,-0.233457,0.914293,-0.081892],[0,-1,-1,0],[0,9E9,9E9,9E9,9E9,9E9]],v150,z20,custom_tool1\WObj:=WObj0;
MoveJ [[25,440,145.8],[-0.174713,0.907209,0.375778,0.072368],[0,-1,-1,0],[0,9E9,9E9,9E9,9E9,9E9]],v150,z20,custom_tool1\WObj:=WObj0;
MoveL [[25,540,45.8],[-0.174713,0.907209,0.375778,0.072368],[0,-1,-1,0],[0,9E9,9E9,9E9,9E9,9E9]],v150,z20,custom_tool1\WObj:=WObj0;
IF TestDI(Stavbar_opt) THEN
WaitDI Stavbar_opt, 0;
ENDIF
WaitTime 1.5;
SetDO Stavbar_Gripper_open, 0;
SetDO Stavbar_Gripper_close, 1;
WaitTime 1;
MoveL [[25,440,145.8],[-0.174713,0.907209,0.375778,0.072368],[0,-1,-1,0],[0,9E9,9E9,9E9,9E9,9E9]],v150,z20,custom_tool1\WObj:=WObj0;
MoveJ [[424.57,176.97,252.86],[0.320717,-0.233457,0.914293,-0.081892],[0,-1,-1,0],[0,9E9,9E9,9E9,9E9,9E9]],v150,z20,custom_tool1\WObj:=WObj0;
MoveJ [[424.57,176.97,252.86],[0.320717,-0.233457,0.914293,-0.081892],[0,-1,-1,0],[0,9E9,9E9,9E9,9E9,9E9]],v150,z20,custom_tool1\WObj:=WObj0;
MoveJ [[288.98,-192.74,204.5],[0,0.959437,0.281923,0],[0,-1,-1,0],[0,9E9,9E9,9E9,9E9,9E9]],v150,z20,custom_tool1\WObj:=WObj0;
MoveL [[288.98,-192.74,104.5],[0,0.959437,0.281923,0],[0,-1,-1,0],[0,9E9,9E9,9E9,9E9,9E9]],v150,z20,custom_tool1\WObj:=WObj0;
WaitTime 1.5;
SetDO Stavbar_Gripper_close, 0;
SetDO Stavbar_Gripper_open, 1;
WaitTime 1;
SetDO Stavbar_Gripper_open, 0;
MoveL [[288.98,-192.74,204.5],[0,0.959437,0.281923,0],[0,-1,-1,0],[0,9E9,9E9,9E9,9E9,9E9]],v150,z20,custom_tool1\WObj:=WObj0;
MoveJ [[424.57,176.97,252.86],[0.320717,-0.233457,0.914293,-0.081892],[0,-1,-1,0],[0,9E9,9E9,9E9,9E9,9E9]],v150,z20,custom_tool1\WObj:=WObj0;
MoveJ [[424.57,176.97,252.86],[0.320717,-0.233457,0.914293,-0.081892],[0,-1,-1,0],[0,9E9,9E9,9E9,9E9,9E9]],v150,z20,custom_tool1\WObj:=WObj0;
MoveJ [[25,440,145.8],[-0.174713,0.907209,0.375778,0.072368],[0,-1,-1,0],[0,9E9,9E9,9E9,9E9,9E9]],v150,z20,custom_tool1\WObj:=WObj0;
MoveL [[25,540,45.8],[-0.174713,0.907209,0.375778,0.072368],[0,-1,-1,0],[0,9E9,9E9,9E9,9E9,9E9]],v150,z20,custom_tool1\WObj:=WObj0;
IF TestDI(Stavbar_opt) THEN
WaitDI Stavbar_opt, 0;
ENDIF
WaitTime 1.5;
SetDO Stavbar_Gripper_open, 0;
SetDO Stavbar_Gripper_close, 1;
WaitTime 1;
MoveL [[25,440,145.8],[-0.174713,0.907209,0.375778,0.072368],[0,-1,-1,0],[0,9E9,9E9,9E9,9E9,9E9]],v150,z20,custom_tool1\WObj:=WObj0;
MoveJ [[424.57,176.97,252.86],[0.320717,-0.233457,0.914293,-0.081892],[0,-1,-1,0],[0,9E9,9E9,9E9,9E9,9E9]],v150,z20,custom_tool1\WObj:=WObj0;
MoveJ [[424.57,176.97,252.86],[0.320717,-0.233457,0.914293,-0.081892],[0,-1,-1,0],[0,9E9,9E9,9E9,9E9,9E9]],v150,z20,custom_tool1\WObj:=WObj0;
MoveJ [[336.52,-66.22,204.5],[0,0.958664,0.284542,0],[0,-1,-1,0],[0,9E9,9E9,9E9,9E9,9E9]],v150,z20,custom_tool1\WObj:=WObj0;
MoveL [[336.52,-66.22,104.5],[0,0.958664,0.284542,0],[0,-1,-1,0],[0,9E9,9E9,9E9,9E9,9E9]],v150,z20,custom_tool1\WObj:=WObj0;
WaitTime 1.5;
SetDO Stavbar_Gripper_close, 0;
SetDO Stavbar_Gripper_open, 1;
WaitTime 1;
SetDO Stavbar_Gripper_open, 0;
MoveL [[336.52,-66.22,204.5],[0,0.958664,0.284542,0],[0,-1,-1,0],[0,9E9,9E9,9E9,9E9,9E9]],v150,z20,custom_tool1\WObj:=WObj0;
MoveJ [[424.57,176.97,252.86],[0.320717,-0.233457,0.914293,-0.081892],[0,-1,-1,0],[0,9E9,9E9,9E9,9E9,9E9]],v150,z20,custom_tool1\WObj:=WObj0;
MoveJ [[424.57,176.97,252.86],[0.320717,-0.233457,0.914293,-0.081892],[0,-1,-1,0],[0,9E9,9E9,9E9,9E9,9E9]],v150,z20,custom_tool1\WObj:=WObj0;
MoveJ [[25,440,145.8],[-0.174713,0.907209,0.375778,0.072368],[0,-1,-1,0],[0,9E9,9E9,9E9,9E9,9E9]],v150,z20,custom_tool1\WObj:=WObj0;
MoveL [[25,540,45.8],[-0.174713,0.907209,0.375778,0.072368],[0,-1,-1,0],[0,9E9,9E9,9E9,9E9,9E9]],v150,z20,custom_tool1\WObj:=WObj0;
IF TestDI(Stavbar_opt) THEN
WaitDI Stavbar_opt, 0;
ENDIF
WaitTime 1.5;
SetDO Stavbar_Gripper_open, 0;
SetDO Stavbar_Gripper_close, 1;
WaitTime 1;
MoveL [[25,440,145.8],[-0.174713,0.907209,0.375778,0.072368],[0,-1,-1,0],[0,9E9,9E9,9E9,9E9,9E9]],v150,z20,custom_tool1\WObj:=WObj0;
MoveJ [[424.57,176.97,252.86],[0.320717,-0.233457,0.914293,-0.081892],[0,-1,-1,0],[0,9E9,9E9,9E9,9E9,9E9]],v150,z20,custom_tool1\WObj:=WObj0;
MoveJ [[335.31,68.59,204.5],[0,0.879946,0.475073,0],[0,-1,-1,0],[0,9E9,9E9,9E9,9E9,9E9]],v150,z20,custom_tool1\WObj:=WObj0;
MoveL [[335.31,68.59,104.5],[0,0.879946,0.475073,0],[0,-1,-1,0],[0,9E9,9E9,9E9,9E9,9E9]],v150,z20,custom_tool1\WObj:=WObj0;
WaitTime 1.5;
SetDO Stavbar_Gripper_close, 0;
SetDO Stavbar_Gripper_open, 1;
WaitTime 1;
SetDO Stavbar_Gripper_open, 0;
MoveL [[335.31,68.59,204.5],[0,0.879946,0.475073,0],[0,-1,-1,0],[0,9E9,9E9,9E9,9E9,9E9]],v150,z20,custom_tool1\WObj:=WObj0;
MoveJ [[424.57,176.97,252.86],[0.320717,-0.233457,0.914293,-0.081892],[0,-1,-1,0],[0,9E9,9E9,9E9,9E9,9E9]],v150,z20,custom_tool1\WObj:=WObj0;
MoveJ [[25,440,145.8],[-0.174713,0.907209,0.375778,0.072368],[0,-1,-1,0],[0,9E9,9E9,9E9,9E9,9E9]],v150,z20,custom_tool1\WObj:=WObj0;
MoveJ [[-63,440,145.8],[-0.174713,0.907209,0.375778,0.072368],[0,-1,-1,0],[0,9E9,9E9,9E9,9E9,9E9]],v150,z20,custom_tool1\WObj:=WObj0;
MoveL [[-63,540,45.8],[-0.174713,0.907209,0.375778,0.072368],[0,-1,-1,0],[0,9E9,9E9,9E9,9E9,9E9]],v150,z20,custom_tool1\WObj:=WObj0;
IF TestDI(Stavbar_opt) THEN
WaitDI Stavbar_opt, 0;
ENDIF
WaitTime 1.5;
SetDO Stavbar_Gripper_open, 0;
SetDO Stavbar_Gripper_close, 1;
WaitTime 1;
MoveL [[-63,440,145.8],[-0.174713,0.907209,0.375778,0.072368],[0,-1,-1,0],[0,9E9,9E9,9E9,9E9,9E9]],v150,z20,custom_tool1\WObj:=WObj0;
MoveJ [[25,440,145.8],[-0.174713,0.907209,0.375778,0.072368],[0,-1,-1,0],[0,9E9,9E9,9E9,9E9,9E9]],v150,z20,custom_tool1\WObj:=WObj0;
MoveJ [[424.57,176.97,252.86],[0.320717,-0.233457,0.914293,-0.081892],[0,-1,-1,0],[0,9E9,9E9,9E9,9E9,9E9]],v150,z20,custom_tool1\WObj:=WObj0;
MoveJ [[307.42,147.4,204.5],[0,0.817022,0.576606,0],[0,-1,-1,0],[0,9E9,9E9,9E9,9E9,9E9]],v150,z20,custom_tool1\WObj:=WObj0;
MoveL [[307.42,147.4,104.5],[0,0.817022,0.576606,0],[0,-1,-1,0],[0,9E9,9E9,9E9,9E9,9E9]],v150,z20,custom_tool1\WObj:=WObj0;
WaitTime 1.5;
SetDO Stavbar_Gripper_close, 0;
SetDO Stavbar_Gripper_open, 1;
WaitTime 1;
SetDO Stavbar_Gripper_open, 0;
MoveL [[307.42,147.4,204.5],[0,0.817022,0.576606,0],[0,-1,-1,0],[0,9E9,9E9,9E9,9E9,9E9]],v150,z20,custom_tool1\WObj:=WObj0;
MoveJ [[424.57,176.97,252.86],[0.320717,-0.233457,0.914293,-0.081892],[0,-1,-1,0],[0,9E9,9E9,9E9,9E9,9E9]],v150,z20,custom_tool1\WObj:=WObj0;
MoveJ [[25,440,145.8],[-0.174713,0.907209,0.375778,0.072368],[0,-1,-1,0],[0,9E9,9E9,9E9,9E9,9E9]],v150,z20,custom_tool1\WObj:=WObj0;
MoveJ [[-63,440,145.8],[-0.174713,0.907209,0.375778,0.072368],[0,-1,-1,0],[0,9E9,9E9,9E9,9E9,9E9]],v150,z20,custom_tool1\WObj:=WObj0;
MoveL [[-63,540,45.8],[-0.174713,0.907209,0.375778,0.072368],[0,-1,-1,0],[0,9E9,9E9,9E9,9E9,9E9]],v150,z20,custom_tool1\WObj:=WObj0;
IF TestDI(Stavbar_opt) THEN
WaitDI Stavbar_opt, 0;
ENDIF
WaitTime 1.5;
SetDO Stavbar_Gripper_open, 0;
SetDO Stavbar_Gripper_close, 1;
WaitTime 1;
MoveL [[-63,440,145.8],[-0.174713,0.907209,0.375778,0.072368],[0,-1,-1,0],[0,9E9,9E9,9E9,9E9,9E9]],v150,z20,custom_tool1\WObj:=WObj0;
MoveJ [[25,440,145.8],[-0.174713,0.907209,0.375778,0.072368],[0,-1,-1,0],[0,9E9,9E9,9E9,9E9,9E9]],v150,z20,custom_tool1\WObj:=WObj0;
MoveJ [[424.57,176.97,252.86],[0.320717,-0.233457,0.914293,-0.081892],[0,-1,-1,0],[0,9E9,9E9,9E9,9E9,9E9]],v150,z20,custom_tool1\WObj:=WObj0;
MoveJ [[208.71,546.56,227.5],[0,0.601948,0.798535,0],[0,-1,-1,0],[0,9E9,9E9,9E9,9E9,9E9]],v150,z20,custom_tool1\WObj:=WObj0;
MoveL [[208.71,546.56,127.5],[0,0.601948,0.798535,0],[0,-1,-1,0],[0,9E9,9E9,9E9,9E9,9E9]],v150,z20,custom_tool1\WObj:=WObj0;
WaitTime 1.5;
SetDO Stavbar_Gripper_close, 0;
SetDO Stavbar_Gripper_open, 1;
WaitTime 1;
SetDO Stavbar_Gripper_open, 0;
MoveL [[208.71,546.56,227.5],[0,0.601948,0.798535,0],[0,-1,-1,0],[0,9E9,9E9,9E9,9E9,9E9]],v150,z20,custom_tool1\WObj:=WObj0;
MoveJ [[424.57,176.97,252.86],[0.320717,-0.233457,0.914293,-0.081892],[0,-1,-1,0],[0,9E9,9E9,9E9,9E9,9E9]],v150,z20,custom_tool1\WObj:=WObj0;
MoveJ [[25,440,145.8],[-0.174713,0.907209,0.375778,0.072368],[0,-1,-1,0],[0,9E9,9E9,9E9,9E9,9E9]],v150,z20,custom_tool1\WObj:=WObj0;
MoveL [[25,540,45.8],[-0.174713,0.907209,0.375778,0.072368],[0,-1,-1,0],[0,9E9,9E9,9E9,9E9,9E9]],v150,z20,custom_tool1\WObj:=WObj0;
IF TestDI(Stavbar_opt) THEN
WaitDI Stavbar_opt, 0;
ENDIF
WaitTime 1.5;
SetDO Stavbar_Gripper_open, 0;
SetDO Stavbar_Gripper_close, 1;
WaitTime 1;
MoveL [[25,440,145.8],[-0.174713,0.907209,0.375778,0.072368],[0,-1,-1,0],[0,9E9,9E9,9E9,9E9,9E9]],v150,z20,custom_tool1\WObj:=WObj0;
MoveJ [[424.57,176.97,252.86],[0.320717,-0.233457,0.914293,-0.081892],[0,-1,-1,0],[0,9E9,9E9,9E9,9E9,9E9]],v150,z20,custom_tool1\WObj:=WObj0;
MoveJ [[278.96,500.99,227.5],[0,0.664558,0.747236,0],[0,-1,-1,0],[0,9E9,9E9,9E9,9E9,9E9]],v150,z20,custom_tool1\WObj:=WObj0;
MoveL [[278.96,500.99,127.5],[0,0.664558,0.747236,0],[0,-1,-1,0],[0,9E9,9E9,9E9,9E9,9E9]],v150,z20,custom_tool1\WObj:=WObj0;
WaitTime 1.5;
SetDO Stavbar_Gripper_close, 0;
SetDO Stavbar_Gripper_open, 1;
WaitTime 1;
SetDO Stavbar_Gripper_open, 0;
MoveL [[278.96,500.99,227.5],[0,0.664558,0.747236,0],[0,-1,-1,0],[0,9E9,9E9,9E9,9E9,9E9]],v150,z20,custom_tool1\WObj:=WObj0;
MoveJ [[424.57,176.97,252.86],[0.320717,-0.233457,0.914293,-0.081892],[0,-1,-1,0],[0,9E9,9E9,9E9,9E9,9E9]],v150,z20,custom_tool1\WObj:=WObj0;
MoveJ [[25,440,145.8],[-0.174713,0.907209,0.375778,0.072368],[0,-1,-1,0],[0,9E9,9E9,9E9,9E9,9E9]],v150,z20,custom_tool1\WObj:=WObj0;
