! TACO Target Robot: T_ROB1
MODULE MainModule
VAR speeddata Work:= [100,20,5000,1000];
PERS tooldata custom_tool1 := [TRUE, [[-144.18,-154.4,34.77], [0.707107,0.5,-0.5,0]], [0.1,[0.10,0.00,0.00],[1,0,0,0],0,0,0]];
PROC Main()
ConfL \Off;
ConfJ \Off;
MoveJ [[25,420,145.8],[-0.174713,0.907209,0.375778,0.072368],[0,-1,-1,0],[0,9E9,9E9,9E9,9E9,9E9]],Work,z1,custom_tool1\WObj:=WObj0;
MoveL [[25,540,45.8],[-0.174713,0.907209,0.375778,0.072368],[0,-1,-1,0],[0,9E9,9E9,9E9,9E9,9E9]],Work,z1,custom_tool1\WObj:=WObj0;
IF TestDI(Stavbar_opt) THEN
WaitDI Stavbar_opt, 0;
ENDIF
WaitTime 0.9;
SetDO Stavbar_Gripper_open, 0;
SetDO Stavbar_Gripper_close, 1;
WaitTime 1;
MoveL [[25,420,145.8],[-0.174713,0.907209,0.375778,0.072368],[0,-1,-1,0],[0,9E9,9E9,9E9,9E9,9E9]],Work,z1,custom_tool1\WObj:=WObj0;
MoveJ [[424.57,176.97,177.86],[0,0.965807,0.259263,0],[0,-1,-1,0],[0,9E9,9E9,9E9,9E9,9E9]],Work,z1,custom_tool1\WObj:=WObj0;
MoveJ [[250.97,469.66,112.5],[0,0.663438,0.748231,0],[0,-1,-1,0],[0,9E9,9E9,9E9,9E9,9E9]],Work,z1,custom_tool1\WObj:=WObj0;
MoveL [[250.97,469.66,12.5],[0,0.663438,0.748231,0],[0,-1,-1,0],[0,9E9,9E9,9E9,9E9,9E9]],Work,z1,custom_tool1\WObj:=WObj0;
WaitTime 0.9;
SetDO Stavbar_Gripper_close, 0;
SetDO Stavbar_Gripper_open, 1;
WaitTime 1;
SetDO Stavbar_Gripper_open, 0;
MoveL [[250.97,469.66,112.5],[0,0.663438,0.748231,0],[0,-1,-1,0],[0,9E9,9E9,9E9,9E9,9E9]],Work,z1,custom_tool1\WObj:=WObj0;
MoveJ [[424.57,176.97,177.86],[0,0.965807,0.259263,0],[0,-1,-1,0],[0,9E9,9E9,9E9,9E9,9E9]],Work,z1,custom_tool1\WObj:=WObj0;
MoveJ [[25,420,145.8],[-0.174713,0.907209,0.375778,0.072368],[0,-1,-1,0],[0,9E9,9E9,9E9,9E9,9E9]],Work,z1,custom_tool1\WObj:=WObj0;
MoveL [[25,540,45.8],[-0.174713,0.907209,0.375778,0.072368],[0,-1,-1,0],[0,9E9,9E9,9E9,9E9,9E9]],Work,z1,custom_tool1\WObj:=WObj0;
IF TestDI(Stavbar_opt) THEN
WaitDI Stavbar_opt, 0;
ENDIF
WaitTime 0.9;
SetDO Stavbar_Gripper_open, 0;
SetDO Stavbar_Gripper_close, 1;
WaitTime 1;
MoveL [[25,420,145.8],[-0.174713,0.907209,0.375778,0.072368],[0,-1,-1,0],[0,9E9,9E9,9E9,9E9,9E9]],Work,z1,custom_tool1\WObj:=WObj0;
MoveJ [[424.57,176.97,177.86],[0,0.965807,0.259263,0],[0,-1,-1,0],[0,9E9,9E9,9E9,9E9,9E9]],Work,z1,custom_tool1\WObj:=WObj0;
MoveJ [[349.58,383.09,112.5],[0,0.708977,0.705232,0],[0,-1,-1,0],[0,9E9,9E9,9E9,9E9,9E9]],Work,z1,custom_tool1\WObj:=WObj0;
MoveL [[349.58,383.09,12.5],[0,0.708977,0.705232,0],[0,-1,-1,0],[0,9E9,9E9,9E9,9E9,9E9]],Work,z1,custom_tool1\WObj:=WObj0;
WaitTime 0.9;
SetDO Stavbar_Gripper_close, 0;
SetDO Stavbar_Gripper_open, 1;
WaitTime 1;
SetDO Stavbar_Gripper_open, 0;
MoveL [[349.58,383.09,112.5],[0,0.708977,0.705232,0],[0,-1,-1,0],[0,9E9,9E9,9E9,9E9,9E9]],Work,z1,custom_tool1\WObj:=WObj0;
MoveJ [[424.57,176.97,177.86],[0,0.965807,0.259263,0],[0,-1,-1,0],[0,9E9,9E9,9E9,9E9,9E9]],Work,z1,custom_tool1\WObj:=WObj0;
MoveJ [[25,420,145.8],[-0.174713,0.907209,0.375778,0.072368],[0,-1,-1,0],[0,9E9,9E9,9E9,9E9,9E9]],Work,z1,custom_tool1\WObj:=WObj0;
MoveL [[25,540,45.8],[-0.174713,0.907209,0.375778,0.072368],[0,-1,-1,0],[0,9E9,9E9,9E9,9E9,9E9]],Work,z1,custom_tool1\WObj:=WObj0;
IF TestDI(Stavbar_opt) THEN
WaitDI Stavbar_opt, 0;
ENDIF
WaitTime 0.9;
SetDO Stavbar_Gripper_open, 0;
SetDO Stavbar_Gripper_close, 1;
WaitTime 1;
MoveL [[25,420,145.8],[-0.174713,0.907209,0.375778,0.072368],[0,-1,-1,0],[0,9E9,9E9,9E9,9E9,9E9]],Work,z1,custom_tool1\WObj:=WObj0;
MoveJ [[424.57,176.97,177.86],[0,0.965807,0.259263,0],[0,-1,-1,0],[0,9E9,9E9,9E9,9E9,9E9]],Work,z1,custom_tool1\WObj:=WObj0;
MoveJ [[429.82,279.68,112.5],[0,0.799513,0.600649,0],[0,-1,-1,0],[0,9E9,9E9,9E9,9E9,9E9]],Work,z1,custom_tool1\WObj:=WObj0;
MoveL [[429.82,279.68,12.5],[0,0.799513,0.600649,0],[0,-1,-1,0],[0,9E9,9E9,9E9,9E9,9E9]],Work,z1,custom_tool1\WObj:=WObj0;
WaitTime 0.9;
SetDO Stavbar_Gripper_close, 0;
SetDO Stavbar_Gripper_open, 1;
WaitTime 1;
SetDO Stavbar_Gripper_open, 0;
MoveL [[429.82,279.68,112.5],[0,0.799513,0.600649,0],[0,-1,-1,0],[0,9E9,9E9,9E9,9E9,9E9]],Work,z1,custom_tool1\WObj:=WObj0;
MoveJ [[424.57,176.97,177.86],[0,0.965807,0.259263,0],[0,-1,-1,0],[0,9E9,9E9,9E9,9E9,9E9]],Work,z1,custom_tool1\WObj:=WObj0;
MoveJ [[25,420,145.8],[-0.174713,0.907209,0.375778,0.072368],[0,-1,-1,0],[0,9E9,9E9,9E9,9E9,9E9]],Work,z1,custom_tool1\WObj:=WObj0;
MoveL [[25,540,45.8],[-0.174713,0.907209,0.375778,0.072368],[0,-1,-1,0],[0,9E9,9E9,9E9,9E9,9E9]],Work,z1,custom_tool1\WObj:=WObj0;
IF TestDI(Stavbar_opt) THEN
WaitDI Stavbar_opt, 0;
ENDIF
WaitTime 0.9;
SetDO Stavbar_Gripper_open, 0;
SetDO Stavbar_Gripper_close, 1;
WaitTime 1;
MoveL [[25,420,145.8],[-0.174713,0.907209,0.375778,0.072368],[0,-1,-1,0],[0,9E9,9E9,9E9,9E9,9E9]],Work,z1,custom_tool1\WObj:=WObj0;
MoveJ [[424.57,176.97,177.86],[0,0.965807,0.259263,0],[0,-1,-1,0],[0,9E9,9E9,9E9,9E9,9E9]],Work,z1,custom_tool1\WObj:=WObj0;
MoveJ [[468.18,155,112.5],[0,0.898873,0.438209,0],[0,-1,-1,0],[0,9E9,9E9,9E9,9E9,9E9]],Work,z1,custom_tool1\WObj:=WObj0;
MoveL [[468.18,155,12.5],[0,0.898873,0.438209,0],[0,-1,-1,0],[0,9E9,9E9,9E9,9E9,9E9]],Work,z1,custom_tool1\WObj:=WObj0;
WaitTime 0.9;
SetDO Stavbar_Gripper_close, 0;
SetDO Stavbar_Gripper_open, 1;
WaitTime 1;
SetDO Stavbar_Gripper_open, 0;
MoveL [[468.18,155,112.5],[0,0.898873,0.438209,0],[0,-1,-1,0],[0,9E9,9E9,9E9,9E9,9E9]],Work,z1,custom_tool1\WObj:=WObj0;
MoveJ [[424.57,176.97,177.86],[0,0.965807,0.259263,0],[0,-1,-1,0],[0,9E9,9E9,9E9,9E9,9E9]],Work,z1,custom_tool1\WObj:=WObj0;
MoveJ [[25,420,145.8],[-0.174713,0.907209,0.375778,0.072368],[0,-1,-1,0],[0,9E9,9E9,9E9,9E9,9E9]],Work,z1,custom_tool1\WObj:=WObj0;
MoveL [[25,540,45.8],[-0.174713,0.907209,0.375778,0.072368],[0,-1,-1,0],[0,9E9,9E9,9E9,9E9,9E9]],Work,z1,custom_tool1\WObj:=WObj0;
IF TestDI(Stavbar_opt) THEN
WaitDI Stavbar_opt, 0;
ENDIF
WaitTime 0.9;
SetDO Stavbar_Gripper_open, 0;
SetDO Stavbar_Gripper_close, 1;
WaitTime 1;
MoveL [[25,420,145.8],[-0.174713,0.907209,0.375778,0.072368],[0,-1,-1,0],[0,9E9,9E9,9E9,9E9,9E9]],Work,z1,custom_tool1\WObj:=WObj0;
MoveJ [[424.57,176.97,177.86],[0,0.965807,0.259263,0],[0,-1,-1,0],[0,9E9,9E9,9E9,9E9,9E9]],Work,z1,custom_tool1\WObj:=WObj0;
MoveJ [[470.37,23.94,112.5],[0,0.938827,0.344388,0],[0,-1,-1,0],[0,9E9,9E9,9E9,9E9,9E9]],Work,z1,custom_tool1\WObj:=WObj0;
MoveL [[470.37,23.94,12.5],[0,0.938827,0.344388,0],[0,-1,-1,0],[0,9E9,9E9,9E9,9E9,9E9]],Work,z1,custom_tool1\WObj:=WObj0;
WaitTime 0.9;
SetDO Stavbar_Gripper_close, 0;
SetDO Stavbar_Gripper_open, 1;
WaitTime 1;
SetDO Stavbar_Gripper_open, 0;
MoveL [[470.37,23.94,112.5],[0,0.938827,0.344388,0],[0,-1,-1,0],[0,9E9,9E9,9E9,9E9,9E9]],Work,z1,custom_tool1\WObj:=WObj0;
MoveJ [[424.57,176.97,177.86],[0,0.965807,0.259263,0],[0,-1,-1,0],[0,9E9,9E9,9E9,9E9,9E9]],Work,z1,custom_tool1\WObj:=WObj0;
MoveJ [[25,420,145.8],[-0.174713,0.907209,0.375778,0.072368],[0,-1,-1,0],[0,9E9,9E9,9E9,9E9,9E9]],Work,z1,custom_tool1\WObj:=WObj0;
MoveL [[25,540,45.8],[-0.174713,0.907209,0.375778,0.072368],[0,-1,-1,0],[0,9E9,9E9,9E9,9E9,9E9]],Work,z1,custom_tool1\WObj:=WObj0;
IF TestDI(Stavbar_opt) THEN
WaitDI Stavbar_opt, 0;
ENDIF
WaitTime 0.9;
SetDO Stavbar_Gripper_open, 0;
SetDO Stavbar_Gripper_close, 1;
WaitTime 1;
MoveL [[25,420,145.8],[-0.174713,0.907209,0.375778,0.072368],[0,-1,-1,0],[0,9E9,9E9,9E9,9E9,9E9]],Work,z1,custom_tool1\WObj:=WObj0;
MoveJ [[424.57,176.97,177.86],[0,0.965807,0.259263,0],[0,-1,-1,0],[0,9E9,9E9,9E9,9E9,9E9]],Work,z1,custom_tool1\WObj:=WObj0;
MoveJ [[354.51,-166.41,175.36],[0,0.965807,0.259263,0],[0,-1,-1,0],[0,9E9,9E9,9E9,9E9,9E9]],Work,z1,custom_tool1\WObj:=WObj0;
MoveJ [[447.83,-105.23,112.5],[0,0.965807,0.259263,0],[0,-1,-1,0],[0,9E9,9E9,9E9,9E9,9E9]],Work,z1,custom_tool1\WObj:=WObj0;
MoveL [[447.83,-105.23,12.5],[0,0.965807,0.259263,0],[0,-1,-1,0],[0,9E9,9E9,9E9,9E9,9E9]],Work,z1,custom_tool1\WObj:=WObj0;
WaitTime 0.9;
SetDO Stavbar_Gripper_close, 0;
SetDO Stavbar_Gripper_open, 1;
WaitTime 1;
SetDO Stavbar_Gripper_open, 0;
MoveL [[447.83,-105.23,112.5],[0,0.965807,0.259263,0],[0,-1,-1,0],[0,9E9,9E9,9E9,9E9,9E9]],Work,z1,custom_tool1\WObj:=WObj0;
MoveJ [[354.51,-166.41,175.36],[0,0.965807,0.259263,0],[0,-1,-1,0],[0,9E9,9E9,9E9,9E9,9E9]],Work,z1,custom_tool1\WObj:=WObj0;
MoveJ [[424.57,176.97,177.86],[0,0.965807,0.259263,0],[0,-1,-1,0],[0,9E9,9E9,9E9,9E9,9E9]],Work,z1,custom_tool1\WObj:=WObj0;
MoveJ [[25,420,145.8],[-0.174713,0.907209,0.375778,0.072368],[0,-1,-1,0],[0,9E9,9E9,9E9,9E9,9E9]],Work,z1,custom_tool1\WObj:=WObj0;
MoveL [[25,540,45.8],[-0.174713,0.907209,0.375778,0.072368],[0,-1,-1,0],[0,9E9,9E9,9E9,9E9,9E9]],Work,z1,custom_tool1\WObj:=WObj0;
IF TestDI(Stavbar_opt) THEN
WaitDI Stavbar_opt, 0;
ENDIF
WaitTime 0.9;
SetDO Stavbar_Gripper_open, 0;
SetDO Stavbar_Gripper_close, 1;
WaitTime 1;
MoveL [[25,420,145.8],[-0.174713,0.907209,0.375778,0.072368],[0,-1,-1,0],[0,9E9,9E9,9E9,9E9,9E9]],Work,z1,custom_tool1\WObj:=WObj0;
MoveJ [[424.57,176.97,177.86],[0,0.965807,0.259263,0],[0,-1,-1,0],[0,9E9,9E9,9E9,9E9,9E9]],Work,z1,custom_tool1\WObj:=WObj0;
MoveJ [[354.51,-166.41,175.36],[0,0.965807,0.259263,0],[0,-1,-1,0],[0,9E9,9E9,9E9,9E9,9E9]],Work,z1,custom_tool1\WObj:=WObj0;
MoveJ [[399.19,-226.72,112.5],[0,0.99225,0.124255,0],[0,-1,-1,0],[0,9E9,9E9,9E9,9E9,9E9]],Work,z1,custom_tool1\WObj:=WObj0;
MoveL [[399.19,-226.72,12.5],[0,0.99225,0.124255,0],[0,-1,-1,0],[0,9E9,9E9,9E9,9E9,9E9]],Work,z1,custom_tool1\WObj:=WObj0;
WaitTime 0.9;
SetDO Stavbar_Gripper_close, 0;
SetDO Stavbar_Gripper_open, 1;
WaitTime 1;
SetDO Stavbar_Gripper_open, 0;
MoveL [[399.19,-226.72,112.5],[0,0.99225,0.124255,0],[0,-1,-1,0],[0,9E9,9E9,9E9,9E9,9E9]],Work,z1,custom_tool1\WObj:=WObj0;
MoveJ [[354.51,-166.41,175.36],[0,0.965807,0.259263,0],[0,-1,-1,0],[0,9E9,9E9,9E9,9E9,9E9]],Work,z1,custom_tool1\WObj:=WObj0;
MoveJ [[424.57,176.97,177.86],[0,0.965807,0.259263,0],[0,-1,-1,0],[0,9E9,9E9,9E9,9E9,9E9]],Work,z1,custom_tool1\WObj:=WObj0;
MoveJ [[25,420,145.8],[-0.174713,0.907209,0.375778,0.072368],[0,-1,-1,0],[0,9E9,9E9,9E9,9E9,9E9]],Work,z1,custom_tool1\WObj:=WObj0;
MoveL [[25,540,45.8],[-0.174713,0.907209,0.375778,0.072368],[0,-1,-1,0],[0,9E9,9E9,9E9,9E9,9E9]],Work,z1,custom_tool1\WObj:=WObj0;
IF TestDI(Stavbar_opt) THEN
WaitDI Stavbar_opt, 0;
ENDIF
WaitTime 0.9;
SetDO Stavbar_Gripper_open, 0;
SetDO Stavbar_Gripper_close, 1;
WaitTime 1;
MoveL [[25,420,145.8],[-0.174713,0.907209,0.375778,0.072368],[0,-1,-1,0],[0,9E9,9E9,9E9,9E9,9E9]],Work,z1,custom_tool1\WObj:=WObj0;
MoveJ [[424.57,176.97,177.86],[0,0.965807,0.259263,0],[0,-1,-1,0],[0,9E9,9E9,9E9,9E9,9E9]],Work,z1,custom_tool1\WObj:=WObj0;
MoveJ [[354.51,-166.41,175.36],[0,0.965807,0.259263,0],[0,-1,-1,0],[0,9E9,9E9,9E9,9E9,9E9]],Work,z1,custom_tool1\WObj:=WObj0;
MoveJ [[317.63,-329.21,112.5],[0,0.999995,0.003077,0],[0,-1,-1,0],[0,9E9,9E9,9E9,9E9,9E9]],Work,z1,custom_tool1\WObj:=WObj0;
MoveL [[317.63,-329.21,12.5],[0,0.999995,0.003077,0],[0,-1,-1,0],[0,9E9,9E9,9E9,9E9,9E9]],Work,z1,custom_tool1\WObj:=WObj0;
WaitTime 0.9;
SetDO Stavbar_Gripper_close, 0;
SetDO Stavbar_Gripper_open, 1;
WaitTime 1;
SetDO Stavbar_Gripper_open, 0;
MoveL [[317.63,-329.21,112.5],[0,0.999995,0.003077,0],[0,-1,-1,0],[0,9E9,9E9,9E9,9E9,9E9]],Work,z1,custom_tool1\WObj:=WObj0;
MoveJ [[354.51,-166.41,175.36],[0,0.965807,0.259263,0],[0,-1,-1,0],[0,9E9,9E9,9E9,9E9,9E9]],Work,z1,custom_tool1\WObj:=WObj0;
MoveJ [[424.57,176.97,177.86],[0,0.965807,0.259263,0],[0,-1,-1,0],[0,9E9,9E9,9E9,9E9,9E9]],Work,z1,custom_tool1\WObj:=WObj0;
MoveJ [[25,420,145.8],[-0.174713,0.907209,0.375778,0.072368],[0,-1,-1,0],[0,9E9,9E9,9E9,9E9,9E9]],Work,z1,custom_tool1\WObj:=WObj0;
MoveL [[25,540,45.8],[-0.174713,0.907209,0.375778,0.072368],[0,-1,-1,0],[0,9E9,9E9,9E9,9E9,9E9]],Work,z1,custom_tool1\WObj:=WObj0;
IF TestDI(Stavbar_opt) THEN
WaitDI Stavbar_opt, 0;
ENDIF
WaitTime 0.9;
SetDO Stavbar_Gripper_open, 0;
SetDO Stavbar_Gripper_close, 1;
WaitTime 1;
MoveL [[25,420,145.8],[-0.174713,0.907209,0.375778,0.072368],[0,-1,-1,0],[0,9E9,9E9,9E9,9E9,9E9]],Work,z1,custom_tool1\WObj:=WObj0;
MoveJ [[424.57,176.97,177.86],[0,0.965807,0.259263,0],[0,-1,-1,0],[0,9E9,9E9,9E9,9E9,9E9]],Work,z1,custom_tool1\WObj:=WObj0;
MoveJ [[354.51,-166.41,175.36],[0,0.965807,0.259263,0],[0,-1,-1,0],[0,9E9,9E9,9E9,9E9,9E9]],Work,z1,custom_tool1\WObj:=WObj0;
MoveJ [[219.63,-416.49,112.5],[0,0.998543,-0.053955,0],[0,-1,-1,0],[0,9E9,9E9,9E9,9E9,9E9]],Work,z1,custom_tool1\WObj:=WObj0;
MoveL [[219.63,-416.49,12.5],[0,0.998543,-0.053955,0],[0,-1,-1,0],[0,9E9,9E9,9E9,9E9,9E9]],Work,z1,custom_tool1\WObj:=WObj0;
WaitTime 0.9;
SetDO Stavbar_Gripper_close, 0;
SetDO Stavbar_Gripper_open, 1;
WaitTime 1;
SetDO Stavbar_Gripper_open, 0;
MoveL [[219.63,-416.49,112.5],[0,0.998543,-0.053955,0],[0,-1,-1,0],[0,9E9,9E9,9E9,9E9,9E9]],Work,z1,custom_tool1\WObj:=WObj0;
MoveJ [[354.51,-166.41,175.36],[0,0.965807,0.259263,0],[0,-1,-1,0],[0,9E9,9E9,9E9,9E9,9E9]],Work,z1,custom_tool1\WObj:=WObj0;
MoveJ [[424.57,176.97,177.86],[0,0.965807,0.259263,0],[0,-1,-1,0],[0,9E9,9E9,9E9,9E9,9E9]],Work,z1,custom_tool1\WObj:=WObj0;
MoveJ [[-63,420,145.8],[-0.174713,0.907209,0.375778,0.072368],[0,-1,-1,0],[0,9E9,9E9,9E9,9E9,9E9]],Work,z1,custom_tool1\WObj:=WObj0;
MoveL [[-63,540,45.8],[-0.174713,0.907209,0.375778,0.072368],[0,-1,-1,0],[0,9E9,9E9,9E9,9E9,9E9]],Work,z1,custom_tool1\WObj:=WObj0;
IF TestDI(Stavbar_opt) THEN
WaitDI Stavbar_opt, 0;
ENDIF
WaitTime 0.9;
SetDO Stavbar_Gripper_open, 0;
SetDO Stavbar_Gripper_close, 1;
WaitTime 1;
MoveL [[-63,420,145.8],[-0.174713,0.907209,0.375778,0.072368],[0,-1,-1,0],[0,9E9,9E9,9E9,9E9,9E9]],Work,z1,custom_tool1\WObj:=WObj0;
MoveJ [[424.57,176.97,177.86],[0,0.965807,0.259263,0],[0,-1,-1,0],[0,9E9,9E9,9E9,9E9,9E9]],Work,z1,custom_tool1\WObj:=WObj0;
MoveJ [[354.51,-166.41,175.36],[0,0.965807,0.259263,0],[0,-1,-1,0],[0,9E9,9E9,9E9,9E9,9E9]],Work,z1,custom_tool1\WObj:=WObj0;
MoveJ [[154.95,-466.32,112.5],[0,0.997484,-0.070889,0],[0,-1,-1,0],[0,9E9,9E9,9E9,9E9,9E9]],Work,z1,custom_tool1\WObj:=WObj0;
MoveL [[154.95,-466.32,12.5],[0,0.997484,-0.070889,0],[0,-1,-1,0],[0,9E9,9E9,9E9,9E9,9E9]],Work,z1,custom_tool1\WObj:=WObj0;
WaitTime 0.9;
SetDO Stavbar_Gripper_close, 0;
SetDO Stavbar_Gripper_open, 1;
WaitTime 1;
SetDO Stavbar_Gripper_open, 0;
MoveL [[154.95,-466.32,112.5],[0,0.997484,-0.070889,0],[0,-1,-1,0],[0,9E9,9E9,9E9,9E9,9E9]],Work,z1,custom_tool1\WObj:=WObj0;
MoveJ [[354.51,-166.41,175.36],[0,0.965807,0.259263,0],[0,-1,-1,0],[0,9E9,9E9,9E9,9E9,9E9]],Work,z1,custom_tool1\WObj:=WObj0;
MoveJ [[424.57,176.97,177.86],[0,0.965807,0.259263,0],[0,-1,-1,0],[0,9E9,9E9,9E9,9E9,9E9]],Work,z1,custom_tool1\WObj:=WObj0;
MoveJ [[25,420,145.8],[-0.174713,0.907209,0.375778,0.072368],[0,-1,-1,0],[0,9E9,9E9,9E9,9E9,9E9]],Work,z1,custom_tool1\WObj:=WObj0;
ENDPROC
ENDMODULE