! TACO Target Robot: T_ROB1
MODULE MainModule
VAR speeddata Work:= [100,20,5000,1000];
PERS tooldata custom_tool1 := [TRUE, [[-144.18,-154.4,34.77], [0.707107,0.5,-0.5,0]], [0.1,[0.10,0.00,0.00],[1,0,0,0],0,0,0]];
PROC Main()
ConfL \Off;
ConfJ \Off;
MoveJ [[25,420,145.8],[-0.174713,0.907209,0.375778,0.072368],[0,-1,-1,0],[0,9E9,9E9,9E9,9E9,9E9]],Work,z1,custom_tool1\WObj:=WObj0;
MoveL [[25,540,45.8],[-0.174713,0.907209,0.375778,0.072368],[0,-1,-1,0],[0,9E9,9E9,9E9,9E9,9E9]],Work,z1,custom_tool1\WObj:=WObj0;
IF TestDI(Stavbar_opt) THEN
WaitDI Stavbar_opt, 0;
ENDIF
WaitTime 0.9;
SetDO Stavbar_Gripper_open, 0;
SetDO Stavbar_Gripper_close, 1;
WaitTime 1;
MoveL [[25,420,145.8],[-0.174713,0.907209,0.375778,0.072368],[0,-1,-1,0],[0,9E9,9E9,9E9,9E9,9E9]],Work,z1,custom_tool1\WObj:=WObj0;
MoveJ [[388.69,207.49,294.57],[0,0.98904,0.147646,0],[0,-1,-1,0],[0,9E9,9E9,9E9,9E9,9E9]],Work,z1,custom_tool1\WObj:=WObj0;
MoveJ [[450.78,337.68,112.5],[0,0.725904,0.687796,0],[0,-1,-1,0],[0,9E9,9E9,9E9,9E9,9E9]],Work,z1,custom_tool1\WObj:=WObj0;
MoveL [[450.78,337.68,12.5],[0,0.725904,0.687796,0],[0,-1,-1,0],[0,9E9,9E9,9E9,9E9,9E9]],Work,z1,custom_tool1\WObj:=WObj0;
WaitTime 0.9;
SetDO Stavbar_Gripper_close, 0;
SetDO Stavbar_Gripper_open, 1;
WaitTime 1;
SetDO Stavbar_Gripper_open, 0;
MoveL [[450.78,337.68,112.5],[0,0.725904,0.687796,0],[0,-1,-1,0],[0,9E9,9E9,9E9,9E9,9E9]],Work,z1,custom_tool1\WObj:=WObj0;
MoveJ [[388.69,207.49,294.57],[0,0.98904,0.147646,0],[0,-1,-1,0],[0,9E9,9E9,9E9,9E9,9E9]],Work,z1,custom_tool1\WObj:=WObj0;
MoveJ [[25,420,145.8],[-0.174713,0.907209,0.375778,0.072368],[0,-1,-1,0],[0,9E9,9E9,9E9,9E9,9E9]],Work,z1,custom_tool1\WObj:=WObj0;
MoveL [[25,540,45.8],[-0.174713,0.907209,0.375778,0.072368],[0,-1,-1,0],[0,9E9,9E9,9E9,9E9,9E9]],Work,z1,custom_tool1\WObj:=WObj0;
IF TestDI(Stavbar_opt) THEN
WaitDI Stavbar_opt, 0;
ENDIF
WaitTime 0.9;
SetDO Stavbar_Gripper_open, 0;
SetDO Stavbar_Gripper_close, 1;
WaitTime 1;
MoveL [[25,420,145.8],[-0.174713,0.907209,0.375778,0.072368],[0,-1,-1,0],[0,9E9,9E9,9E9,9E9,9E9]],Work,z1,custom_tool1\WObj:=WObj0;
MoveJ [[388.69,207.49,294.57],[0,0.98904,0.147646,0],[0,-1,-1,0],[0,9E9,9E9,9E9,9E9,9E9]],Work,z1,custom_tool1\WObj:=WObj0;
MoveJ [[528.65,238.21,112.5],[0,0.773255,0.634095,0],[0,-1,-1,0],[0,9E9,9E9,9E9,9E9,9E9]],Work,z1,custom_tool1\WObj:=WObj0;
MoveL [[528.65,238.21,12.5],[0,0.773255,0.634095,0],[0,-1,-1,0],[0,9E9,9E9,9E9,9E9,9E9]],Work,z1,custom_tool1\WObj:=WObj0;
WaitTime 0.9;
SetDO Stavbar_Gripper_close, 0;
SetDO Stavbar_Gripper_open, 1;
WaitTime 1;
SetDO Stavbar_Gripper_open, 0;
MoveL [[528.65,238.21,112.5],[0,0.773255,0.634095,0],[0,-1,-1,0],[0,9E9,9E9,9E9,9E9,9E9]],Work,z1,custom_tool1\WObj:=WObj0;
MoveJ [[388.69,207.49,294.57],[0,0.98904,0.147646,0],[0,-1,-1,0],[0,9E9,9E9,9E9,9E9,9E9]],Work,z1,custom_tool1\WObj:=WObj0;
MoveJ [[25,420,145.8],[-0.174713,0.907209,0.375778,0.072368],[0,-1,-1,0],[0,9E9,9E9,9E9,9E9,9E9]],Work,z1,custom_tool1\WObj:=WObj0;
MoveL [[25,540,45.8],[-0.174713,0.907209,0.375778,0.072368],[0,-1,-1,0],[0,9E9,9E9,9E9,9E9,9E9]],Work,z1,custom_tool1\WObj:=WObj0;
IF TestDI(Stavbar_opt) THEN
WaitDI Stavbar_opt, 0;
ENDIF
WaitTime 0.9;
SetDO Stavbar_Gripper_open, 0;
SetDO Stavbar_Gripper_close, 1;
WaitTime 1;
MoveL [[25,420,145.8],[-0.174713,0.907209,0.375778,0.072368],[0,-1,-1,0],[0,9E9,9E9,9E9,9E9,9E9]],Work,z1,custom_tool1\WObj:=WObj0;
MoveJ [[388.69,207.49,294.57],[0,0.98904,0.147646,0],[0,-1,-1,0],[0,9E9,9E9,9E9,9E9,9E9]],Work,z1,custom_tool1\WObj:=WObj0;
MoveJ [[588.19,126.93,112.5],[0,0.834454,0.551078,0],[0,-1,-1,0],[0,9E9,9E9,9E9,9E9,9E9]],Work,z1,custom_tool1\WObj:=WObj0;
MoveL [[588.19,126.93,12.5],[0,0.834454,0.551078,0],[0,-1,-1,0],[0,9E9,9E9,9E9,9E9,9E9]],Work,z1,custom_tool1\WObj:=WObj0;
WaitTime 0.9;
SetDO Stavbar_Gripper_close, 0;
SetDO Stavbar_Gripper_open, 1;
WaitTime 1;
SetDO Stavbar_Gripper_open, 0;
MoveL [[588.19,126.93,112.5],[0,0.834454,0.551078,0],[0,-1,-1,0],[0,9E9,9E9,9E9,9E9,9E9]],Work,z1,custom_tool1\WObj:=WObj0;
MoveJ [[388.69,207.49,294.57],[0,0.98904,0.147646,0],[0,-1,-1,0],[0,9E9,9E9,9E9,9E9,9E9]],Work,z1,custom_tool1\WObj:=WObj0;
MoveJ [[25,420,145.8],[-0.174713,0.907209,0.375778,0.072368],[0,-1,-1,0],[0,9E9,9E9,9E9,9E9,9E9]],Work,z1,custom_tool1\WObj:=WObj0;
MoveL [[25,540,45.8],[-0.174713,0.907209,0.375778,0.072368],[0,-1,-1,0],[0,9E9,9E9,9E9,9E9,9E9]],Work,z1,custom_tool1\WObj:=WObj0;
IF TestDI(Stavbar_opt) THEN
WaitDI Stavbar_opt, 0;
ENDIF
WaitTime 0.9;
SetDO Stavbar_Gripper_open, 0;
SetDO Stavbar_Gripper_close, 1;
WaitTime 1;
MoveL [[25,420,145.8],[-0.174713,0.907209,0.375778,0.072368],[0,-1,-1,0],[0,9E9,9E9,9E9,9E9,9E9]],Work,z1,custom_tool1\WObj:=WObj0;
MoveJ [[388.69,207.49,294.57],[0,0.98904,0.147646,0],[0,-1,-1,0],[0,9E9,9E9,9E9,9E9,9E9]],Work,z1,custom_tool1\WObj:=WObj0;
MoveJ [[618.98,4.74,112.5],[0,0.903547,0.428489,0],[0,-1,-1,0],[0,9E9,9E9,9E9,9E9,9E9]],Work,z1,custom_tool1\WObj:=WObj0;
MoveL [[618.98,4.74,12.5],[0,0.903547,0.428489,0],[0,-1,-1,0],[0,9E9,9E9,9E9,9E9,9E9]],Work,z1,custom_tool1\WObj:=WObj0;
WaitTime 0.9;
SetDO Stavbar_Gripper_close, 0;
SetDO Stavbar_Gripper_open, 1;
WaitTime 1;
SetDO Stavbar_Gripper_open, 0;
MoveL [[618.98,4.74,112.5],[0,0.903547,0.428489,0],[0,-1,-1,0],[0,9E9,9E9,9E9,9E9,9E9]],Work,z1,custom_tool1\WObj:=WObj0;
MoveJ [[388.69,207.49,294.57],[0,0.98904,0.147646,0],[0,-1,-1,0],[0,9E9,9E9,9E9,9E9,9E9]],Work,z1,custom_tool1\WObj:=WObj0;
MoveJ [[25,420,145.8],[-0.174713,0.907209,0.375778,0.072368],[0,-1,-1,0],[0,9E9,9E9,9E9,9E9,9E9]],Work,z1,custom_tool1\WObj:=WObj0;
MoveL [[25,540,45.8],[-0.174713,0.907209,0.375778,0.072368],[0,-1,-1,0],[0,9E9,9E9,9E9,9E9,9E9]],Work,z1,custom_tool1\WObj:=WObj0;
IF TestDI(Stavbar_opt) THEN
WaitDI Stavbar_opt, 0;
ENDIF
WaitTime 0.9;
SetDO Stavbar_Gripper_open, 0;
SetDO Stavbar_Gripper_close, 1;
WaitTime 1;
MoveL [[25,420,145.8],[-0.174713,0.907209,0.375778,0.072368],[0,-1,-1,0],[0,9E9,9E9,9E9,9E9,9E9]],Work,z1,custom_tool1\WObj:=WObj0;
MoveJ [[388.69,207.49,294.57],[0,0.98904,0.147646,0],[0,-1,-1,0],[0,9E9,9E9,9E9,9E9,9E9]],Work,z1,custom_tool1\WObj:=WObj0;
MoveJ [[464.97,-166.41,291.3],[0,0.998758,0.049832,0],[0,-1,-1,0],[0,9E9,9E9,9E9,9E9,9E9]],Work,z1,custom_tool1\WObj:=WObj0;
MoveJ [[611.58,-120.94,112.5],[0,0.959844,0.280536,0],[0,-1,-1,0],[0,9E9,9E9,9E9,9E9,9E9]],Work,z1,custom_tool1\WObj:=WObj0;
MoveL [[611.58,-120.94,12.5],[0,0.959844,0.280536,0],[0,-1,-1,0],[0,9E9,9E9,9E9,9E9,9E9]],Work,z1,custom_tool1\WObj:=WObj0;
WaitTime 0.9;
SetDO Stavbar_Gripper_close, 0;
SetDO Stavbar_Gripper_open, 1;
WaitTime 1;
SetDO Stavbar_Gripper_open, 0;
MoveL [[611.58,-120.94,112.5],[0,0.959844,0.280536,0],[0,-1,-1,0],[0,9E9,9E9,9E9,9E9,9E9]],Work,z1,custom_tool1\WObj:=WObj0;
MoveJ [[464.97,-166.41,291.3],[0,0.998758,0.049832,0],[0,-1,-1,0],[0,9E9,9E9,9E9,9E9,9E9]],Work,z1,custom_tool1\WObj:=WObj0;
MoveJ [[388.69,207.49,294.57],[0,0.98904,0.147646,0],[0,-1,-1,0],[0,9E9,9E9,9E9,9E9,9E9]],Work,z1,custom_tool1\WObj:=WObj0;
MoveJ [[25,420,145.8],[-0.174713,0.907209,0.375778,0.072368],[0,-1,-1,0],[0,9E9,9E9,9E9,9E9,9E9]],Work,z1,custom_tool1\WObj:=WObj0;
MoveL [[25,540,45.8],[-0.174713,0.907209,0.375778,0.072368],[0,-1,-1,0],[0,9E9,9E9,9E9,9E9,9E9]],Work,z1,custom_tool1\WObj:=WObj0;
IF TestDI(Stavbar_opt) THEN
WaitDI Stavbar_opt, 0;
ENDIF
WaitTime 0.9;
SetDO Stavbar_Gripper_open, 0;
SetDO Stavbar_Gripper_close, 1;
WaitTime 1;
MoveL [[25,420,145.8],[-0.174713,0.907209,0.375778,0.072368],[0,-1,-1,0],[0,9E9,9E9,9E9,9E9,9E9]],Work,z1,custom_tool1\WObj:=WObj0;
MoveJ [[388.69,207.49,294.57],[0,0.98904,0.147646,0],[0,-1,-1,0],[0,9E9,9E9,9E9,9E9,9E9]],Work,z1,custom_tool1\WObj:=WObj0;
MoveJ [[464.97,-166.41,291.3],[0,0.998758,0.049832,0],[0,-1,-1,0],[0,9E9,9E9,9E9,9E9,9E9]],Work,z1,custom_tool1\WObj:=WObj0;
MoveJ [[567.3,-238.94,112.5],[0,0.98904,0.147646,0],[0,-1,-1,0],[0,9E9,9E9,9E9,9E9,9E9]],Work,z1,custom_tool1\WObj:=WObj0;
MoveL [[567.3,-238.94,12.5],[0,0.98904,0.147646,0],[0,-1,-1,0],[0,9E9,9E9,9E9,9E9,9E9]],Work,z1,custom_tool1\WObj:=WObj0;
WaitTime 0.9;
SetDO Stavbar_Gripper_close, 0;
SetDO Stavbar_Gripper_open, 1;
WaitTime 1;
SetDO Stavbar_Gripper_open, 0;
MoveL [[567.3,-238.94,112.5],[0,0.98904,0.147646,0],[0,-1,-1,0],[0,9E9,9E9,9E9,9E9,9E9]],Work,z1,custom_tool1\WObj:=WObj0;
MoveJ [[464.97,-166.41,291.3],[0,0.998758,0.049832,0],[0,-1,-1,0],[0,9E9,9E9,9E9,9E9,9E9]],Work,z1,custom_tool1\WObj:=WObj0;
MoveJ [[388.69,207.49,294.57],[0,0.98904,0.147646,0],[0,-1,-1,0],[0,9E9,9E9,9E9,9E9,9E9]],Work,z1,custom_tool1\WObj:=WObj0;
MoveJ [[25,420,145.8],[-0.174713,0.907209,0.375778,0.072368],[0,-1,-1,0],[0,9E9,9E9,9E9,9E9,9E9]],Work,z1,custom_tool1\WObj:=WObj0;
MoveL [[25,540,45.8],[-0.174713,0.907209,0.375778,0.072368],[0,-1,-1,0],[0,9E9,9E9,9E9,9E9,9E9]],Work,z1,custom_tool1\WObj:=WObj0;
IF TestDI(Stavbar_opt) THEN
WaitDI Stavbar_opt, 0;
ENDIF
WaitTime 0.9;
SetDO Stavbar_Gripper_open, 0;
SetDO Stavbar_Gripper_close, 1;
WaitTime 1;
MoveL [[25,420,145.8],[-0.174713,0.907209,0.375778,0.072368],[0,-1,-1,0],[0,9E9,9E9,9E9,9E9,9E9]],Work,z1,custom_tool1\WObj:=WObj0;
MoveJ [[388.69,207.49,294.57],[0,0.98904,0.147646,0],[0,-1,-1,0],[0,9E9,9E9,9E9,9E9,9E9]],Work,z1,custom_tool1\WObj:=WObj0;
MoveJ [[464.97,-166.41,291.3],[0,0.998758,0.049832,0],[0,-1,-1,0],[0,9E9,9E9,9E9,9E9,9E9]],Work,z1,custom_tool1\WObj:=WObj0;
MoveJ [[496.73,-343.6,112.5],[0,0.998758,0.049832,0],[0,-1,-1,0],[0,9E9,9E9,9E9,9E9,9E9]],Work,z1,custom_tool1\WObj:=WObj0;
MoveL [[496.73,-343.6,12.5],[0,0.998758,0.049832,0],[0,-1,-1,0],[0,9E9,9E9,9E9,9E9,9E9]],Work,z1,custom_tool1\WObj:=WObj0;
WaitTime 0.9;
SetDO Stavbar_Gripper_close, 0;
SetDO Stavbar_Gripper_open, 1;
WaitTime 1;
SetDO Stavbar_Gripper_open, 0;
MoveL [[496.73,-343.6,112.5],[0,0.998758,0.049832,0],[0,-1,-1,0],[0,9E9,9E9,9E9,9E9,9E9]],Work,z1,custom_tool1\WObj:=WObj0;
MoveJ [[464.97,-166.41,291.3],[0,0.998758,0.049832,0],[0,-1,-1,0],[0,9E9,9E9,9E9,9E9,9E9]],Work,z1,custom_tool1\WObj:=WObj0;
MoveJ [[388.69,207.49,294.57],[0,0.98904,0.147646,0],[0,-1,-1,0],[0,9E9,9E9,9E9,9E9,9E9]],Work,z1,custom_tool1\WObj:=WObj0;
MoveJ [[25,420,145.8],[-0.174713,0.907209,0.375778,0.072368],[0,-1,-1,0],[0,9E9,9E9,9E9,9E9,9E9]],Work,z1,custom_tool1\WObj:=WObj0;
MoveL [[25,540,45.8],[-0.174713,0.907209,0.375778,0.072368],[0,-1,-1,0],[0,9E9,9E9,9E9,9E9,9E9]],Work,z1,custom_tool1\WObj:=WObj0;
IF TestDI(Stavbar_opt) THEN
WaitDI Stavbar_opt, 0;
ENDIF
WaitTime 0.9;
SetDO Stavbar_Gripper_open, 0;
SetDO Stavbar_Gripper_close, 1;
WaitTime 1;
MoveL [[25,420,145.8],[-0.174713,0.907209,0.375778,0.072368],[0,-1,-1,0],[0,9E9,9E9,9E9,9E9,9E9]],Work,z1,custom_tool1\WObj:=WObj0;
MoveJ [[388.69,207.49,294.57],[0,0.98904,0.147646,0],[0,-1,-1,0],[0,9E9,9E9,9E9,9E9,9E9]],Work,z1,custom_tool1\WObj:=WObj0;
MoveJ [[464.97,-166.41,291.3],[0,0.998758,0.049832,0],[0,-1,-1,0],[0,9E9,9E9,9E9,9E9,9E9]],Work,z1,custom_tool1\WObj:=WObj0;
MoveJ [[409.88,-435.34,112.5],[0,0.999831,-0.018389,0],[0,-1,-1,0],[0,9E9,9E9,9E9,9E9,9E9]],Work,z1,custom_tool1\WObj:=WObj0;
MoveL [[409.88,-435.34,12.5],[0,0.999831,-0.018389,0],[0,-1,-1,0],[0,9E9,9E9,9E9,9E9,9E9]],Work,z1,custom_tool1\WObj:=WObj0;
WaitTime 0.9;
SetDO Stavbar_Gripper_close, 0;
SetDO Stavbar_Gripper_open, 1;
WaitTime 1;
SetDO Stavbar_Gripper_open, 0;
MoveL [[409.88,-435.34,112.5],[0,0.999831,-0.018389,0],[0,-1,-1,0],[0,9E9,9E9,9E9,9E9,9E9]],Work,z1,custom_tool1\WObj:=WObj0;
MoveJ [[464.97,-166.41,291.3],[0,0.998758,0.049832,0],[0,-1,-1,0],[0,9E9,9E9,9E9,9E9,9E9]],Work,z1,custom_tool1\WObj:=WObj0;
MoveJ [[388.69,207.49,294.57],[0,0.98904,0.147646,0],[0,-1,-1,0],[0,9E9,9E9,9E9,9E9,9E9]],Work,z1,custom_tool1\WObj:=WObj0;
MoveJ [[25,420,145.8],[-0.174713,0.907209,0.375778,0.072368],[0,-1,-1,0],[0,9E9,9E9,9E9,9E9,9E9]],Work,z1,custom_tool1\WObj:=WObj0;
MoveL [[25,540,45.8],[-0.174713,0.907209,0.375778,0.072368],[0,-1,-1,0],[0,9E9,9E9,9E9,9E9,9E9]],Work,z1,custom_tool1\WObj:=WObj0;
IF TestDI(Stavbar_opt) THEN
WaitDI Stavbar_opt, 0;
ENDIF
WaitTime 0.9;
SetDO Stavbar_Gripper_open, 0;
SetDO Stavbar_Gripper_close, 1;
WaitTime 1;
MoveL [[25,420,145.8],[-0.174713,0.907209,0.375778,0.072368],[0,-1,-1,0],[0,9E9,9E9,9E9,9E9,9E9]],Work,z1,custom_tool1\WObj:=WObj0;
MoveJ [[388.69,207.49,294.57],[0,0.98904,0.147646,0],[0,-1,-1,0],[0,9E9,9E9,9E9,9E9,9E9]],Work,z1,custom_tool1\WObj:=WObj0;
MoveJ [[464.97,-166.41,291.3],[0,0.998758,0.049832,0],[0,-1,-1,0],[0,9E9,9E9,9E9,9E9,9E9]],Work,z1,custom_tool1\WObj:=WObj0;
MoveJ [[313.01,-516.52,112.5],[0,0.997762,-0.066858,0],[0,-1,-1,0],[0,9E9,9E9,9E9,9E9,9E9]],Work,z1,custom_tool1\WObj:=WObj0;
MoveL [[313.01,-516.52,12.5],[0,0.997762,-0.066858,0],[0,-1,-1,0],[0,9E9,9E9,9E9,9E9,9E9]],Work,z1,custom_tool1\WObj:=WObj0;
WaitTime 0.9;
SetDO Stavbar_Gripper_close, 0;
SetDO Stavbar_Gripper_open, 1;
WaitTime 1;
SetDO Stavbar_Gripper_open, 0;
MoveL [[313.01,-516.52,112.5],[0,0.997762,-0.066858,0],[0,-1,-1,0],[0,9E9,9E9,9E9,9E9,9E9]],Work,z1,custom_tool1\WObj:=WObj0;
MoveJ [[464.97,-166.41,291.3],[0,0.998758,0.049832,0],[0,-1,-1,0],[0,9E9,9E9,9E9,9E9,9E9]],Work,z1,custom_tool1\WObj:=WObj0;
MoveJ [[388.69,207.49,294.57],[0,0.98904,0.147646,0],[0,-1,-1,0],[0,9E9,9E9,9E9,9E9,9E9]],Work,z1,custom_tool1\WObj:=WObj0;
MoveJ [[25,420,145.8],[-0.174713,0.907209,0.375778,0.072368],[0,-1,-1,0],[0,9E9,9E9,9E9,9E9,9E9]],Work,z1,custom_tool1\WObj:=WObj0;
MoveL [[25,540,45.8],[-0.174713,0.907209,0.375778,0.072368],[0,-1,-1,0],[0,9E9,9E9,9E9,9E9,9E9]],Work,z1,custom_tool1\WObj:=WObj0;
IF TestDI(Stavbar_opt) THEN
WaitDI Stavbar_opt, 0;
ENDIF
WaitTime 0.9;
SetDO Stavbar_Gripper_open, 0;
SetDO Stavbar_Gripper_close, 1;
WaitTime 1;
MoveL [[25,420,145.8],[-0.174713,0.907209,0.375778,0.072368],[0,-1,-1,0],[0,9E9,9E9,9E9,9E9,9E9]],Work,z1,custom_tool1\WObj:=WObj0;
MoveJ [[388.69,207.49,294.57],[0,0.98904,0.147646,0],[0,-1,-1,0],[0,9E9,9E9,9E9,9E9,9E9]],Work,z1,custom_tool1\WObj:=WObj0;
MoveJ [[464.97,-166.41,291.3],[0,0.998758,0.049832,0],[0,-1,-1,0],[0,9E9,9E9,9E9,9E9,9E9]],Work,z1,custom_tool1\WObj:=WObj0;
MoveJ [[209.7,-589.35,112.5],[0,0.994723,-0.1026,0],[0,-1,-1,0],[0,9E9,9E9,9E9,9E9,9E9]],Work,z1,custom_tool1\WObj:=WObj0;
MoveL [[209.7,-589.35,12.5],[0,0.994723,-0.1026,0],[0,-1,-1,0],[0,9E9,9E9,9E9,9E9,9E9]],Work,z1,custom_tool1\WObj:=WObj0;
WaitTime 0.9;
SetDO Stavbar_Gripper_close, 0;
SetDO Stavbar_Gripper_open, 1;
WaitTime 1;
SetDO Stavbar_Gripper_open, 0;
MoveL [[209.7,-589.35,112.5],[0,0.994723,-0.1026,0],[0,-1,-1,0],[0,9E9,9E9,9E9,9E9,9E9]],Work,z1,custom_tool1\WObj:=WObj0;
MoveJ [[464.97,-166.41,291.3],[0,0.998758,0.049832,0],[0,-1,-1,0],[0,9E9,9E9,9E9,9E9,9E9]],Work,z1,custom_tool1\WObj:=WObj0;
MoveJ [[388.69,207.49,294.57],[0,0.98904,0.147646,0],[0,-1,-1,0],[0,9E9,9E9,9E9,9E9,9E9]],Work,z1,custom_tool1\WObj:=WObj0;
MoveJ [[25,420,145.8],[-0.174713,0.907209,0.375778,0.072368],[0,-1,-1,0],[0,9E9,9E9,9E9,9E9,9E9]],Work,z1,custom_tool1\WObj:=WObj0;
MoveJ [[-63,420,145.8],[-0.174713,0.907209,0.375778,0.072368],[0,-1,-1,0],[0,9E9,9E9,9E9,9E9,9E9]],Work,z1,custom_tool1\WObj:=WObj0;
MoveL [[-63,540,45.8],[-0.174713,0.907209,0.375778,0.072368],[0,-1,-1,0],[0,9E9,9E9,9E9,9E9,9E9]],Work,z1,custom_tool1\WObj:=WObj0;
IF TestDI(Stavbar_opt) THEN
WaitDI Stavbar_opt, 0;
ENDIF
WaitTime 0.9;
SetDO Stavbar_Gripper_open, 0;
SetDO Stavbar_Gripper_close, 1;
WaitTime 1;
MoveL [[-63,420,145.8],[-0.174713,0.907209,0.375778,0.072368],[0,-1,-1,0],[0,9E9,9E9,9E9,9E9,9E9]],Work,z1,custom_tool1\WObj:=WObj0;
MoveJ [[25,420,145.8],[-0.174713,0.907209,0.375778,0.072368],[0,-1,-1,0],[0,9E9,9E9,9E9,9E9,9E9]],Work,z1,custom_tool1\WObj:=WObj0;
MoveJ [[388.69,207.49,294.57],[0,0.98904,0.147646,0],[0,-1,-1,0],[0,9E9,9E9,9E9,9E9,9E9]],Work,z1,custom_tool1\WObj:=WObj0;
MoveJ [[464.97,-166.41,291.3],[0,0.998758,0.049832,0],[0,-1,-1,0],[0,9E9,9E9,9E9,9E9,9E9]],Work,z1,custom_tool1\WObj:=WObj0;
MoveJ [[142.67,-631.56,112.5],[0,0.993117,-0.117128,0],[0,-1,-1,0],[0,9E9,9E9,9E9,9E9,9E9]],Work,z1,custom_tool1\WObj:=WObj0;
MoveL [[142.67,-631.56,12.5],[0,0.993117,-0.117128,0],[0,-1,-1,0],[0,9E9,9E9,9E9,9E9,9E9]],Work,z1,custom_tool1\WObj:=WObj0;
WaitTime 0.9;
SetDO Stavbar_Gripper_close, 0;
SetDO Stavbar_Gripper_open, 1;
WaitTime 1;
SetDO Stavbar_Gripper_open, 0;
MoveL [[142.67,-631.56,112.5],[0,0.993117,-0.117128,0],[0,-1,-1,0],[0,9E9,9E9,9E9,9E9,9E9]],Work,z1,custom_tool1\WObj:=WObj0;
MoveJ [[464.97,-166.41,291.3],[0,0.998758,0.049832,0],[0,-1,-1,0],[0,9E9,9E9,9E9,9E9,9E9]],Work,z1,custom_tool1\WObj:=WObj0;
MoveJ [[388.69,207.49,294.57],[0,0.98904,0.147646,0],[0,-1,-1,0],[0,9E9,9E9,9E9,9E9,9E9]],Work,z1,custom_tool1\WObj:=WObj0;
MoveJ [[25,420,145.8],[-0.174713,0.907209,0.375778,0.072368],[0,-1,-1,0],[0,9E9,9E9,9E9,9E9,9E9]],Work,z1,custom_tool1\WObj:=WObj0;
MoveJ [[-63,420,145.8],[-0.174713,0.907209,0.375778,0.072368],[0,-1,-1,0],[0,9E9,9E9,9E9,9E9,9E9]],Work,z1,custom_tool1\WObj:=WObj0;
MoveL [[-63,540,45.8],[-0.174713,0.907209,0.375778,0.072368],[0,-1,-1,0],[0,9E9,9E9,9E9,9E9,9E9]],Work,z1,custom_tool1\WObj:=WObj0;
IF TestDI(Stavbar_opt) THEN
WaitDI Stavbar_opt, 0;
ENDIF
WaitTime 0.9;
SetDO Stavbar_Gripper_open, 0;
SetDO Stavbar_Gripper_close, 1;
WaitTime 1;
MoveL [[-63,420,145.8],[-0.174713,0.907209,0.375778,0.072368],[0,-1,-1,0],[0,9E9,9E9,9E9,9E9,9E9]],Work,z1,custom_tool1\WObj:=WObj0;
MoveJ [[25,420,145.8],[-0.174713,0.907209,0.375778,0.072368],[0,-1,-1,0],[0,9E9,9E9,9E9,9E9,9E9]],Work,z1,custom_tool1\WObj:=WObj0;
MoveJ [[388.69,207.49,294.57],[0,0.98904,0.147646,0],[0,-1,-1,0],[0,9E9,9E9,9E9,9E9,9E9]],Work,z1,custom_tool1\WObj:=WObj0;
MoveJ [[440.09,349.59,135.5],[0,0.725904,0.687796,0],[0,-1,-1,0],[0,9E9,9E9,9E9,9E9,9E9]],Work,z1,custom_tool1\WObj:=WObj0;
MoveL [[440.09,349.59,35.5],[0,0.725904,0.687796,0],[0,-1,-1,0],[0,9E9,9E9,9E9,9E9,9E9]],Work,z1,custom_tool1\WObj:=WObj0;
WaitTime 0.9;
SetDO Stavbar_Gripper_close, 0;
SetDO Stavbar_Gripper_open, 1;
WaitTime 1;
SetDO Stavbar_Gripper_open, 0;
MoveL [[440.09,349.59,135.5],[0,0.725904,0.687796,0],[0,-1,-1,0],[0,9E9,9E9,9E9,9E9,9E9]],Work,z1,custom_tool1\WObj:=WObj0;
MoveJ [[388.69,207.49,294.57],[0,0.98904,0.147646,0],[0,-1,-1,0],[0,9E9,9E9,9E9,9E9,9E9]],Work,z1,custom_tool1\WObj:=WObj0;
MoveJ [[25,420,145.8],[-0.174713,0.907209,0.375778,0.072368],[0,-1,-1,0],[0,9E9,9E9,9E9,9E9,9E9]],Work,z1,custom_tool1\WObj:=WObj0;
MoveL [[25,540,45.8],[-0.174713,0.907209,0.375778,0.072368],[0,-1,-1,0],[0,9E9,9E9,9E9,9E9,9E9]],Work,z1,custom_tool1\WObj:=WObj0;
IF TestDI(Stavbar_opt) THEN
WaitDI Stavbar_opt, 0;
ENDIF
WaitTime 0.9;
SetDO Stavbar_Gripper_open, 0;
SetDO Stavbar_Gripper_close, 1;
WaitTime 1;
MoveL [[25,420,145.8],[-0.174713,0.907209,0.375778,0.072368],[0,-1,-1,0],[0,9E9,9E9,9E9,9E9,9E9]],Work,z1,custom_tool1\WObj:=WObj0;
MoveJ [[388.69,207.49,294.57],[0,0.98904,0.147646,0],[0,-1,-1,0],[0,9E9,9E9,9E9,9E9,9E9]],Work,z1,custom_tool1\WObj:=WObj0;
MoveJ [[491.49,289.34,135.5],[0,0.747919,0.66379,0],[0,-1,-1,0],[0,9E9,9E9,9E9,9E9,9E9]],Work,z1,custom_tool1\WObj:=WObj0;
MoveL [[491.49,289.34,35.5],[0,0.747919,0.66379,0],[0,-1,-1,0],[0,9E9,9E9,9E9,9E9,9E9]],Work,z1,custom_tool1\WObj:=WObj0;
WaitTime 0.9;
SetDO Stavbar_Gripper_close, 0;
SetDO Stavbar_Gripper_open, 1;
WaitTime 1;
SetDO Stavbar_Gripper_open, 0;
MoveL [[491.49,289.34,135.5],[0,0.747919,0.66379,0],[0,-1,-1,0],[0,9E9,9E9,9E9,9E9,9E9]],Work,z1,custom_tool1\WObj:=WObj0;
MoveJ [[388.69,207.49,294.57],[0,0.98904,0.147646,0],[0,-1,-1,0],[0,9E9,9E9,9E9,9E9,9E9]],Work,z1,custom_tool1\WObj:=WObj0;
MoveJ [[25,420,145.8],[-0.174713,0.907209,0.375778,0.072368],[0,-1,-1,0],[0,9E9,9E9,9E9,9E9,9E9]],Work,z1,custom_tool1\WObj:=WObj0;
MoveL [[25,540,45.8],[-0.174713,0.907209,0.375778,0.072368],[0,-1,-1,0],[0,9E9,9E9,9E9,9E9,9E9]],Work,z1,custom_tool1\WObj:=WObj0;
IF TestDI(Stavbar_opt) THEN
WaitDI Stavbar_opt, 0;
ENDIF
WaitTime 0.9;
SetDO Stavbar_Gripper_open, 0;
SetDO Stavbar_Gripper_close, 1;
WaitTime 1;
MoveL [[25,420,145.8],[-0.174713,0.907209,0.375778,0.072368],[0,-1,-1,0],[0,9E9,9E9,9E9,9E9,9E9]],Work,z1,custom_tool1\WObj:=WObj0;
MoveJ [[388.69,207.49,294.57],[0,0.98904,0.147646,0],[0,-1,-1,0],[0,9E9,9E9,9E9,9E9,9E9]],Work,z1,custom_tool1\WObj:=WObj0;
MoveJ [[561.29,184.1,135.5],[0,0.802166,0.597101,0],[0,-1,-1,0],[0,9E9,9E9,9E9,9E9,9E9]],Work,z1,custom_tool1\WObj:=WObj0;
MoveL [[561.29,184.1,35.5],[0,0.802166,0.597101,0],[0,-1,-1,0],[0,9E9,9E9,9E9,9E9,9E9]],Work,z1,custom_tool1\WObj:=WObj0;
WaitTime 0.9;
SetDO Stavbar_Gripper_close, 0;
SetDO Stavbar_Gripper_open, 1;
WaitTime 1;
SetDO Stavbar_Gripper_open, 0;
MoveL [[561.29,184.1,135.5],[0,0.802166,0.597101,0],[0,-1,-1,0],[0,9E9,9E9,9E9,9E9,9E9]],Work,z1,custom_tool1\WObj:=WObj0;
MoveJ [[388.69,207.49,294.57],[0,0.98904,0.147646,0],[0,-1,-1,0],[0,9E9,9E9,9E9,9E9,9E9]],Work,z1,custom_tool1\WObj:=WObj0;
MoveJ [[25,420,145.8],[-0.174713,0.907209,0.375778,0.072368],[0,-1,-1,0],[0,9E9,9E9,9E9,9E9,9E9]],Work,z1,custom_tool1\WObj:=WObj0;
MoveL [[25,540,45.8],[-0.174713,0.907209,0.375778,0.072368],[0,-1,-1,0],[0,9E9,9E9,9E9,9E9,9E9]],Work,z1,custom_tool1\WObj:=WObj0;
IF TestDI(Stavbar_opt) THEN
WaitDI Stavbar_opt, 0;
ENDIF
WaitTime 0.9;
SetDO Stavbar_Gripper_open, 0;
SetDO Stavbar_Gripper_close, 1;
WaitTime 1;
MoveL [[25,420,145.8],[-0.174713,0.907209,0.375778,0.072368],[0,-1,-1,0],[0,9E9,9E9,9E9,9E9,9E9]],Work,z1,custom_tool1\WObj:=WObj0;
MoveJ [[388.69,207.49,294.57],[0,0.98904,0.147646,0],[0,-1,-1,0],[0,9E9,9E9,9E9,9E9,9E9]],Work,z1,custom_tool1\WObj:=WObj0;
MoveJ [[607.91,66.92,135.5],[0,0.869026,0.494767,0],[0,-1,-1,0],[0,9E9,9E9,9E9,9E9,9E9]],Work,z1,custom_tool1\WObj:=WObj0;
MoveL [[607.91,66.92,35.5],[0,0.869026,0.494767,0],[0,-1,-1,0],[0,9E9,9E9,9E9,9E9,9E9]],Work,z1,custom_tool1\WObj:=WObj0;
WaitTime 0.9;
SetDO Stavbar_Gripper_close, 0;
SetDO Stavbar_Gripper_open, 1;
WaitTime 1;
SetDO Stavbar_Gripper_open, 0;
MoveL [[607.91,66.92,135.5],[0,0.869026,0.494767,0],[0,-1,-1,0],[0,9E9,9E9,9E9,9E9,9E9]],Work,z1,custom_tool1\WObj:=WObj0;
MoveJ [[388.69,207.49,294.57],[0,0.98904,0.147646,0],[0,-1,-1,0],[0,9E9,9E9,9E9,9E9,9E9]],Work,z1,custom_tool1\WObj:=WObj0;
MoveJ [[25,420,145.8],[-0.174713,0.907209,0.375778,0.072368],[0,-1,-1,0],[0,9E9,9E9,9E9,9E9,9E9]],Work,z1,custom_tool1\WObj:=WObj0;
MoveL [[25,540,45.8],[-0.174713,0.907209,0.375778,0.072368],[0,-1,-1,0],[0,9E9,9E9,9E9,9E9,9E9]],Work,z1,custom_tool1\WObj:=WObj0;
IF TestDI(Stavbar_opt) THEN
WaitDI Stavbar_opt, 0;
ENDIF
WaitTime 0.9;
SetDO Stavbar_Gripper_open, 0;
SetDO Stavbar_Gripper_close, 1;
WaitTime 1;
MoveL [[25,420,145.8],[-0.174713,0.907209,0.375778,0.072368],[0,-1,-1,0],[0,9E9,9E9,9E9,9E9,9E9]],Work,z1,custom_tool1\WObj:=WObj0;
MoveJ [[388.69,207.49,294.57],[0,0.98904,0.147646,0],[0,-1,-1,0],[0,9E9,9E9,9E9,9E9,9E9]],Work,z1,custom_tool1\WObj:=WObj0;
MoveJ [[464.97,-166.41,291.3],[0,0.998758,0.049832,0],[0,-1,-1,0],[0,9E9,9E9,9E9,9E9,9E9]],Work,z1,custom_tool1\WObj:=WObj0;
MoveJ [[620.3,-58.39,135.5],[0,0.934769,0.355255,0],[0,-1,-1,0],[0,9E9,9E9,9E9,9E9,9E9]],Work,z1,custom_tool1\WObj:=WObj0;
MoveL [[620.3,-58.39,35.5],[0,0.934769,0.355255,0],[0,-1,-1,0],[0,9E9,9E9,9E9,9E9,9E9]],Work,z1,custom_tool1\WObj:=WObj0;
WaitTime 0.9;
SetDO Stavbar_Gripper_close, 0;
SetDO Stavbar_Gripper_open, 1;
WaitTime 1;
SetDO Stavbar_Gripper_open, 0;
MoveL [[620.3,-58.39,135.5],[0,0.934769,0.355255,0],[0,-1,-1,0],[0,9E9,9E9,9E9,9E9,9E9]],Work,z1,custom_tool1\WObj:=WObj0;
MoveJ [[464.97,-166.41,291.3],[0,0.998758,0.049832,0],[0,-1,-1,0],[0,9E9,9E9,9E9,9E9,9E9]],Work,z1,custom_tool1\WObj:=WObj0;
MoveJ [[388.69,207.49,294.57],[0,0.98904,0.147646,0],[0,-1,-1,0],[0,9E9,9E9,9E9,9E9,9E9]],Work,z1,custom_tool1\WObj:=WObj0;
MoveJ [[25,420,145.8],[-0.174713,0.907209,0.375778,0.072368],[0,-1,-1,0],[0,9E9,9E9,9E9,9E9,9E9]],Work,z1,custom_tool1\WObj:=WObj0;
MoveL [[25,540,45.8],[-0.174713,0.907209,0.375778,0.072368],[0,-1,-1,0],[0,9E9,9E9,9E9,9E9,9E9]],Work,z1,custom_tool1\WObj:=WObj0;
IF TestDI(Stavbar_opt) THEN
WaitDI Stavbar_opt, 0;
ENDIF
WaitTime 0.9;
SetDO Stavbar_Gripper_open, 0;
SetDO Stavbar_Gripper_close, 1;
WaitTime 1;
MoveL [[25,420,145.8],[-0.174713,0.907209,0.375778,0.072368],[0,-1,-1,0],[0,9E9,9E9,9E9,9E9,9E9]],Work,z1,custom_tool1\WObj:=WObj0;
MoveJ [[388.69,207.49,294.57],[0,0.98904,0.147646,0],[0,-1,-1,0],[0,9E9,9E9,9E9,9E9,9E9]],Work,z1,custom_tool1\WObj:=WObj0;
MoveJ [[464.97,-166.41,291.3],[0,0.998758,0.049832,0],[0,-1,-1,0],[0,9E9,9E9,9E9,9E9,9E9]],Work,z1,custom_tool1\WObj:=WObj0;
MoveJ [[593.48,-181.45,135.5],[0,0.977683,0.210085,0],[0,-1,-1,0],[0,9E9,9E9,9E9,9E9,9E9]],Work,z1,custom_tool1\WObj:=WObj0;
MoveL [[593.48,-181.45,35.5],[0,0.977683,0.210085,0],[0,-1,-1,0],[0,9E9,9E9,9E9,9E9,9E9]],Work,z1,custom_tool1\WObj:=WObj0;
WaitTime 0.9;
SetDO Stavbar_Gripper_close, 0;
SetDO Stavbar_Gripper_open, 1;
WaitTime 1;
SetDO Stavbar_Gripper_open, 0;
MoveL [[593.48,-181.45,135.5],[0,0.977683,0.210085,0],[0,-1,-1,0],[0,9E9,9E9,9E9,9E9,9E9]],Work,z1,custom_tool1\WObj:=WObj0;
MoveJ [[464.97,-166.41,291.3],[0,0.998758,0.049832,0],[0,-1,-1,0],[0,9E9,9E9,9E9,9E9,9E9]],Work,z1,custom_tool1\WObj:=WObj0;
MoveJ [[388.69,207.49,294.57],[0,0.98904,0.147646,0],[0,-1,-1,0],[0,9E9,9E9,9E9,9E9,9E9]],Work,z1,custom_tool1\WObj:=WObj0;
MoveJ [[25,420,145.8],[-0.174713,0.907209,0.375778,0.072368],[0,-1,-1,0],[0,9E9,9E9,9E9,9E9,9E9]],Work,z1,custom_tool1\WObj:=WObj0;
MoveL [[25,540,45.8],[-0.174713,0.907209,0.375778,0.072368],[0,-1,-1,0],[0,9E9,9E9,9E9,9E9,9E9]],Work,z1,custom_tool1\WObj:=WObj0;
IF TestDI(Stavbar_opt) THEN
WaitDI Stavbar_opt, 0;
ENDIF
WaitTime 0.9;
SetDO Stavbar_Gripper_open, 0;
SetDO Stavbar_Gripper_close, 1;
WaitTime 1;
MoveL [[25,420,145.8],[-0.174713,0.907209,0.375778,0.072368],[0,-1,-1,0],[0,9E9,9E9,9E9,9E9,9E9]],Work,z1,custom_tool1\WObj:=WObj0;
MoveJ [[388.69,207.49,294.57],[0,0.98904,0.147646,0],[0,-1,-1,0],[0,9E9,9E9,9E9,9E9,9E9]],Work,z1,custom_tool1\WObj:=WObj0;
MoveJ [[464.97,-166.41,291.3],[0,0.998758,0.049832,0],[0,-1,-1,0],[0,9E9,9E9,9E9,9E9,9E9]],Work,z1,custom_tool1\WObj:=WObj0;
MoveJ [[534.59,-293,135.5],[0,0.995534,0.094405,0],[0,-1,-1,0],[0,9E9,9E9,9E9,9E9,9E9]],Work,z1,custom_tool1\WObj:=WObj0;
MoveL [[534.59,-293,35.5],[0,0.995534,0.094405,0],[0,-1,-1,0],[0,9E9,9E9,9E9,9E9,9E9]],Work,z1,custom_tool1\WObj:=WObj0;
WaitTime 0.9;
SetDO Stavbar_Gripper_close, 0;
SetDO Stavbar_Gripper_open, 1;
WaitTime 1;
SetDO Stavbar_Gripper_open, 0;
MoveL [[534.59,-293,135.5],[0,0.995534,0.094405,0],[0,-1,-1,0],[0,9E9,9E9,9E9,9E9,9E9]],Work,z1,custom_tool1\WObj:=WObj0;
MoveJ [[464.97,-166.41,291.3],[0,0.998758,0.049832,0],[0,-1,-1,0],[0,9E9,9E9,9E9,9E9,9E9]],Work,z1,custom_tool1\WObj:=WObj0;
MoveJ [[388.69,207.49,294.57],[0,0.98904,0.147646,0],[0,-1,-1,0],[0,9E9,9E9,9E9,9E9,9E9]],Work,z1,custom_tool1\WObj:=WObj0;
MoveJ [[25,420,145.8],[-0.174713,0.907209,0.375778,0.072368],[0,-1,-1,0],[0,9E9,9E9,9E9,9E9,9E9]],Work,z1,custom_tool1\WObj:=WObj0;
MoveL [[25,540,45.8],[-0.174713,0.907209,0.375778,0.072368],[0,-1,-1,0],[0,9E9,9E9,9E9,9E9,9E9]],Work,z1,custom_tool1\WObj:=WObj0;
IF TestDI(Stavbar_opt) THEN
WaitDI Stavbar_opt, 0;
ENDIF
WaitTime 0.9;
SetDO Stavbar_Gripper_open, 0;
SetDO Stavbar_Gripper_close, 1;
WaitTime 1;
MoveL [[25,420,145.8],[-0.174713,0.907209,0.375778,0.072368],[0,-1,-1,0],[0,9E9,9E9,9E9,9E9,9E9]],Work,z1,custom_tool1\WObj:=WObj0;
MoveJ [[388.69,207.49,294.57],[0,0.98904,0.147646,0],[0,-1,-1,0],[0,9E9,9E9,9E9,9E9,9E9]],Work,z1,custom_tool1\WObj:=WObj0;
MoveJ [[464.97,-166.41,291.3],[0,0.998758,0.049832,0],[0,-1,-1,0],[0,9E9,9E9,9E9,9E9,9E9]],Work,z1,custom_tool1\WObj:=WObj0;
MoveJ [[454.87,-390.94,135.5],[0,0.99992,0.012683,0],[0,-1,-1,0],[0,9E9,9E9,9E9,9E9,9E9]],Work,z1,custom_tool1\WObj:=WObj0;
MoveL [[454.87,-390.94,35.5],[0,0.99992,0.012683,0],[0,-1,-1,0],[0,9E9,9E9,9E9,9E9,9E9]],Work,z1,custom_tool1\WObj:=WObj0;
WaitTime 0.9;
SetDO Stavbar_Gripper_close, 0;
SetDO Stavbar_Gripper_open, 1;
WaitTime 1;
SetDO Stavbar_Gripper_open, 0;
MoveL [[454.87,-390.94,135.5],[0,0.99992,0.012683,0],[0,-1,-1,0],[0,9E9,9E9,9E9,9E9,9E9]],Work,z1,custom_tool1\WObj:=WObj0;
MoveJ [[464.97,-166.41,291.3],[0,0.998758,0.049832,0],[0,-1,-1,0],[0,9E9,9E9,9E9,9E9,9E9]],Work,z1,custom_tool1\WObj:=WObj0;
MoveJ [[388.69,207.49,294.57],[0,0.98904,0.147646,0],[0,-1,-1,0],[0,9E9,9E9,9E9,9E9,9E9]],Work,z1,custom_tool1\WObj:=WObj0;
MoveJ [[25,420,145.8],[-0.174713,0.907209,0.375778,0.072368],[0,-1,-1,0],[0,9E9,9E9,9E9,9E9,9E9]],Work,z1,custom_tool1\WObj:=WObj0;
MoveL [[25,540,45.8],[-0.174713,0.907209,0.375778,0.072368],[0,-1,-1,0],[0,9E9,9E9,9E9,9E9,9E9]],Work,z1,custom_tool1\WObj:=WObj0;
IF TestDI(Stavbar_opt) THEN
WaitDI Stavbar_opt, 0;
ENDIF
WaitTime 0.9;
SetDO Stavbar_Gripper_open, 0;
SetDO Stavbar_Gripper_close, 1;
WaitTime 1;
MoveL [[25,420,145.8],[-0.174713,0.907209,0.375778,0.072368],[0,-1,-1,0],[0,9E9,9E9,9E9,9E9,9E9]],Work,z1,custom_tool1\WObj:=WObj0;
MoveJ [[388.69,207.49,294.57],[0,0.98904,0.147646,0],[0,-1,-1,0],[0,9E9,9E9,9E9,9E9,9E9]],Work,z1,custom_tool1\WObj:=WObj0;
MoveJ [[464.97,-166.41,291.3],[0,0.998758,0.049832,0],[0,-1,-1,0],[0,9E9,9E9,9E9,9E9,9E9]],Work,z1,custom_tool1\WObj:=WObj0;
MoveJ [[362.43,-477.1,135.5],[0,0.999006,-0.044578,0],[0,-1,-1,0],[0,9E9,9E9,9E9,9E9,9E9]],Work,z1,custom_tool1\WObj:=WObj0;
MoveL [[362.43,-477.1,35.5],[0,0.999006,-0.044578,0],[0,-1,-1,0],[0,9E9,9E9,9E9,9E9,9E9]],Work,z1,custom_tool1\WObj:=WObj0;
WaitTime 0.9;
SetDO Stavbar_Gripper_close, 0;
SetDO Stavbar_Gripper_open, 1;
WaitTime 1;
SetDO Stavbar_Gripper_open, 0;
MoveL [[362.43,-477.1,135.5],[0,0.999006,-0.044578,0],[0,-1,-1,0],[0,9E9,9E9,9E9,9E9,9E9]],Work,z1,custom_tool1\WObj:=WObj0;
MoveJ [[464.97,-166.41,291.3],[0,0.998758,0.049832,0],[0,-1,-1,0],[0,9E9,9E9,9E9,9E9,9E9]],Work,z1,custom_tool1\WObj:=WObj0;
MoveJ [[388.69,207.49,294.57],[0,0.98904,0.147646,0],[0,-1,-1,0],[0,9E9,9E9,9E9,9E9,9E9]],Work,z1,custom_tool1\WObj:=WObj0;
MoveJ [[25,420,145.8],[-0.174713,0.907209,0.375778,0.072368],[0,-1,-1,0],[0,9E9,9E9,9E9,9E9,9E9]],Work,z1,custom_tool1\WObj:=WObj0;
MoveL [[25,540,45.8],[-0.174713,0.907209,0.375778,0.072368],[0,-1,-1,0],[0,9E9,9E9,9E9,9E9,9E9]],Work,z1,custom_tool1\WObj:=WObj0;
IF TestDI(Stavbar_opt) THEN
WaitDI Stavbar_opt, 0;
ENDIF
WaitTime 0.9;
SetDO Stavbar_Gripper_open, 0;
SetDO Stavbar_Gripper_close, 1;
WaitTime 1;
MoveL [[25,420,145.8],[-0.174713,0.907209,0.375778,0.072368],[0,-1,-1,0],[0,9E9,9E9,9E9,9E9,9E9]],Work,z1,custom_tool1\WObj:=WObj0;
MoveJ [[388.69,207.49,294.57],[0,0.98904,0.147646,0],[0,-1,-1,0],[0,9E9,9E9,9E9,9E9,9E9]],Work,z1,custom_tool1\WObj:=WObj0;
MoveJ [[464.97,-166.41,291.3],[0,0.998758,0.049832,0],[0,-1,-1,0],[0,9E9,9E9,9E9,9E9,9E9]],Work,z1,custom_tool1\WObj:=WObj0;
MoveJ [[262.01,-553.86,135.5],[0,0.996295,-0.085999,0],[0,-1,-1,0],[0,9E9,9E9,9E9,9E9,9E9]],Work,z1,custom_tool1\WObj:=WObj0;
MoveL [[262.01,-553.86,35.5],[0,0.996295,-0.085999,0],[0,-1,-1,0],[0,9E9,9E9,9E9,9E9,9E9]],Work,z1,custom_tool1\WObj:=WObj0;
WaitTime 0.9;
SetDO Stavbar_Gripper_close, 0;
SetDO Stavbar_Gripper_open, 1;
WaitTime 1;
SetDO Stavbar_Gripper_open, 0;
MoveL [[262.01,-553.86,135.5],[0,0.996295,-0.085999,0],[0,-1,-1,0],[0,9E9,9E9,9E9,9E9,9E9]],Work,z1,custom_tool1\WObj:=WObj0;
MoveJ [[464.97,-166.41,291.3],[0,0.998758,0.049832,0],[0,-1,-1,0],[0,9E9,9E9,9E9,9E9,9E9]],Work,z1,custom_tool1\WObj:=WObj0;
MoveJ [[388.69,207.49,294.57],[0,0.98904,0.147646,0],[0,-1,-1,0],[0,9E9,9E9,9E9,9E9,9E9]],Work,z1,custom_tool1\WObj:=WObj0;
MoveJ [[25,420,145.8],[-0.174713,0.907209,0.375778,0.072368],[0,-1,-1,0],[0,9E9,9E9,9E9,9E9,9E9]],Work,z1,custom_tool1\WObj:=WObj0;
MoveL [[25,540,45.8],[-0.174713,0.907209,0.375778,0.072368],[0,-1,-1,0],[0,9E9,9E9,9E9,9E9,9E9]],Work,z1,custom_tool1\WObj:=WObj0;
IF TestDI(Stavbar_opt) THEN
WaitDI Stavbar_opt, 0;
ENDIF
WaitTime 0.9;
SetDO Stavbar_Gripper_open, 0;
SetDO Stavbar_Gripper_close, 1;
WaitTime 1;
MoveL [[25,420,145.8],[-0.174713,0.907209,0.375778,0.072368],[0,-1,-1,0],[0,9E9,9E9,9E9,9E9,9E9]],Work,z1,custom_tool1\WObj:=WObj0;
MoveJ [[388.69,207.49,294.57],[0,0.98904,0.147646,0],[0,-1,-1,0],[0,9E9,9E9,9E9,9E9,9E9]],Work,z1,custom_tool1\WObj:=WObj0;
MoveJ [[464.97,-166.41,291.3],[0,0.998758,0.049832,0],[0,-1,-1,0],[0,9E9,9E9,9E9,9E9,9E9]],Work,z1,custom_tool1\WObj:=WObj0;
MoveJ [[156.31,-623.19,135.5],[0,0.993117,-0.117128,0],[0,-1,-1,0],[0,9E9,9E9,9E9,9E9,9E9]],Work,z1,custom_tool1\WObj:=WObj0;
MoveL [[156.31,-623.19,35.5],[0,0.993117,-0.117128,0],[0,-1,-1,0],[0,9E9,9E9,9E9,9E9,9E9]],Work,z1,custom_tool1\WObj:=WObj0;
WaitTime 0.9;
SetDO Stavbar_Gripper_close, 0;
SetDO Stavbar_Gripper_open, 1;
WaitTime 1;
SetDO Stavbar_Gripper_open, 0;
MoveL [[156.31,-623.19,135.5],[0,0.993117,-0.117128,0],[0,-1,-1,0],[0,9E9,9E9,9E9,9E9,9E9]],Work,z1,custom_tool1\WObj:=WObj0;
MoveJ [[464.97,-166.41,291.3],[0,0.998758,0.049832,0],[0,-1,-1,0],[0,9E9,9E9,9E9,9E9,9E9]],Work,z1,custom_tool1\WObj:=WObj0;
MoveJ [[388.69,207.49,294.57],[0,0.98904,0.147646,0],[0,-1,-1,0],[0,9E9,9E9,9E9,9E9,9E9]],Work,z1,custom_tool1\WObj:=WObj0;
MoveJ [[25,420,145.8],[-0.174713,0.907209,0.375778,0.072368],[0,-1,-1,0],[0,9E9,9E9,9E9,9E9,9E9]],Work,z1,custom_tool1\WObj:=WObj0;
MoveL [[25,540,45.8],[-0.174713,0.907209,0.375778,0.072368],[0,-1,-1,0],[0,9E9,9E9,9E9,9E9,9E9]],Work,z1,custom_tool1\WObj:=WObj0;
IF TestDI(Stavbar_opt) THEN
WaitDI Stavbar_opt, 0;
ENDIF
WaitTime 0.9;
SetDO Stavbar_Gripper_open, 0;
SetDO Stavbar_Gripper_close, 1;
WaitTime 1;
MoveL [[25,420,145.8],[-0.174713,0.907209,0.375778,0.072368],[0,-1,-1,0],[0,9E9,9E9,9E9,9E9,9E9]],Work,z1,custom_tool1\WObj:=WObj0;
MoveJ [[388.69,207.49,294.57],[0,0.98904,0.147646,0],[0,-1,-1,0],[0,9E9,9E9,9E9,9E9,9E9]],Work,z1,custom_tool1\WObj:=WObj0;
MoveJ [[450.78,337.68,158.5],[0,0.725904,0.687796,0],[0,-1,-1,0],[0,9E9,9E9,9E9,9E9,9E9]],Work,z1,custom_tool1\WObj:=WObj0;
MoveL [[450.78,337.68,58.5],[0,0.725904,0.687796,0],[0,-1,-1,0],[0,9E9,9E9,9E9,9E9,9E9]],Work,z1,custom_tool1\WObj:=WObj0;
WaitTime 0.9;
SetDO Stavbar_Gripper_close, 0;
SetDO Stavbar_Gripper_open, 1;
WaitTime 1;
SetDO Stavbar_Gripper_open, 0;
MoveL [[450.78,337.68,158.5],[0,0.725904,0.687796,0],[0,-1,-1,0],[0,9E9,9E9,9E9,9E9,9E9]],Work,z1,custom_tool1\WObj:=WObj0;
MoveJ [[388.69,207.49,294.57],[0,0.98904,0.147646,0],[0,-1,-1,0],[0,9E9,9E9,9E9,9E9,9E9]],Work,z1,custom_tool1\WObj:=WObj0;
MoveJ [[25,420,145.8],[-0.174713,0.907209,0.375778,0.072368],[0,-1,-1,0],[0,9E9,9E9,9E9,9E9,9E9]],Work,z1,custom_tool1\WObj:=WObj0;
MoveL [[25,540,45.8],[-0.174713,0.907209,0.375778,0.072368],[0,-1,-1,0],[0,9E9,9E9,9E9,9E9,9E9]],Work,z1,custom_tool1\WObj:=WObj0;
IF TestDI(Stavbar_opt) THEN
WaitDI Stavbar_opt, 0;
ENDIF
WaitTime 0.9;
SetDO Stavbar_Gripper_open, 0;
SetDO Stavbar_Gripper_close, 1;
WaitTime 1;
MoveL [[25,420,145.8],[-0.174713,0.907209,0.375778,0.072368],[0,-1,-1,0],[0,9E9,9E9,9E9,9E9,9E9]],Work,z1,custom_tool1\WObj:=WObj0;
MoveJ [[388.69,207.49,294.57],[0,0.98904,0.147646,0],[0,-1,-1,0],[0,9E9,9E9,9E9,9E9,9E9]],Work,z1,custom_tool1\WObj:=WObj0;
MoveJ [[528.65,238.21,158.5],[0,0.773255,0.634095,0],[0,-1,-1,0],[0,9E9,9E9,9E9,9E9,9E9]],Work,z1,custom_tool1\WObj:=WObj0;
MoveL [[528.65,238.21,58.5],[0,0.773255,0.634095,0],[0,-1,-1,0],[0,9E9,9E9,9E9,9E9,9E9]],Work,z1,custom_tool1\WObj:=WObj0;
WaitTime 0.9;
SetDO Stavbar_Gripper_close, 0;
SetDO Stavbar_Gripper_open, 1;
WaitTime 1;
SetDO Stavbar_Gripper_open, 0;
MoveL [[528.65,238.21,158.5],[0,0.773255,0.634095,0],[0,-1,-1,0],[0,9E9,9E9,9E9,9E9,9E9]],Work,z1,custom_tool1\WObj:=WObj0;
MoveJ [[388.69,207.49,294.57],[0,0.98904,0.147646,0],[0,-1,-1,0],[0,9E9,9E9,9E9,9E9,9E9]],Work,z1,custom_tool1\WObj:=WObj0;
MoveJ [[25,420,145.8],[-0.174713,0.907209,0.375778,0.072368],[0,-1,-1,0],[0,9E9,9E9,9E9,9E9,9E9]],Work,z1,custom_tool1\WObj:=WObj0;
MoveL [[25,540,45.8],[-0.174713,0.907209,0.375778,0.072368],[0,-1,-1,0],[0,9E9,9E9,9E9,9E9,9E9]],Work,z1,custom_tool1\WObj:=WObj0;
IF TestDI(Stavbar_opt) THEN
WaitDI Stavbar_opt, 0;
ENDIF
WaitTime 0.9;
SetDO Stavbar_Gripper_open, 0;
SetDO Stavbar_Gripper_close, 1;
WaitTime 1;
MoveL [[25,420,145.8],[-0.174713,0.907209,0.375778,0.072368],[0,-1,-1,0],[0,9E9,9E9,9E9,9E9,9E9]],Work,z1,custom_tool1\WObj:=WObj0;
MoveJ [[388.69,207.49,294.57],[0,0.98904,0.147646,0],[0,-1,-1,0],[0,9E9,9E9,9E9,9E9,9E9]],Work,z1,custom_tool1\WObj:=WObj0;
MoveJ [[588.19,126.93,158.5],[0,0.834454,0.551078,0],[0,-1,-1,0],[0,9E9,9E9,9E9,9E9,9E9]],Work,z1,custom_tool1\WObj:=WObj0;
MoveL [[588.19,126.93,58.5],[0,0.834454,0.551078,0],[0,-1,-1,0],[0,9E9,9E9,9E9,9E9,9E9]],Work,z1,custom_tool1\WObj:=WObj0;
WaitTime 0.9;
SetDO Stavbar_Gripper_close, 0;
SetDO Stavbar_Gripper_open, 1;
WaitTime 1;
SetDO Stavbar_Gripper_open, 0;
MoveL [[588.19,126.93,158.5],[0,0.834454,0.551078,0],[0,-1,-1,0],[0,9E9,9E9,9E9,9E9,9E9]],Work,z1,custom_tool1\WObj:=WObj0;
MoveJ [[388.69,207.49,294.57],[0,0.98904,0.147646,0],[0,-1,-1,0],[0,9E9,9E9,9E9,9E9,9E9]],Work,z1,custom_tool1\WObj:=WObj0;
MoveJ [[25,420,145.8],[-0.174713,0.907209,0.375778,0.072368],[0,-1,-1,0],[0,9E9,9E9,9E9,9E9,9E9]],Work,z1,custom_tool1\WObj:=WObj0;
MoveL [[25,540,45.8],[-0.174713,0.907209,0.375778,0.072368],[0,-1,-1,0],[0,9E9,9E9,9E9,9E9,9E9]],Work,z1,custom_tool1\WObj:=WObj0;
IF TestDI(Stavbar_opt) THEN
WaitDI Stavbar_opt, 0;
ENDIF
WaitTime 0.9;
SetDO Stavbar_Gripper_open, 0;
SetDO Stavbar_Gripper_close, 1;
WaitTime 1;
MoveL [[25,420,145.8],[-0.174713,0.907209,0.375778,0.072368],[0,-1,-1,0],[0,9E9,9E9,9E9,9E9,9E9]],Work,z1,custom_tool1\WObj:=WObj0;
MoveJ [[388.69,207.49,294.57],[0,0.98904,0.147646,0],[0,-1,-1,0],[0,9E9,9E9,9E9,9E9,9E9]],Work,z1,custom_tool1\WObj:=WObj0;
MoveJ [[618.98,4.74,158.5],[0,0.903547,0.428489,0],[0,-1,-1,0],[0,9E9,9E9,9E9,9E9,9E9]],Work,z1,custom_tool1\WObj:=WObj0;
MoveL [[618.98,4.74,58.5],[0,0.903547,0.428489,0],[0,-1,-1,0],[0,9E9,9E9,9E9,9E9,9E9]],Work,z1,custom_tool1\WObj:=WObj0;
WaitTime 0.9;
SetDO Stavbar_Gripper_close, 0;
SetDO Stavbar_Gripper_open, 1;
WaitTime 1;
SetDO Stavbar_Gripper_open, 0;
MoveL [[618.98,4.74,158.5],[0,0.903547,0.428489,0],[0,-1,-1,0],[0,9E9,9E9,9E9,9E9,9E9]],Work,z1,custom_tool1\WObj:=WObj0;
MoveJ [[388.69,207.49,294.57],[0,0.98904,0.147646,0],[0,-1,-1,0],[0,9E9,9E9,9E9,9E9,9E9]],Work,z1,custom_tool1\WObj:=WObj0;
MoveJ [[25,420,145.8],[-0.174713,0.907209,0.375778,0.072368],[0,-1,-1,0],[0,9E9,9E9,9E9,9E9,9E9]],Work,z1,custom_tool1\WObj:=WObj0;
MoveL [[25,540,45.8],[-0.174713,0.907209,0.375778,0.072368],[0,-1,-1,0],[0,9E9,9E9,9E9,9E9,9E9]],Work,z1,custom_tool1\WObj:=WObj0;
IF TestDI(Stavbar_opt) THEN
WaitDI Stavbar_opt, 0;
ENDIF
WaitTime 0.9;
SetDO Stavbar_Gripper_open, 0;
SetDO Stavbar_Gripper_close, 1;
WaitTime 1;
MoveL [[25,420,145.8],[-0.174713,0.907209,0.375778,0.072368],[0,-1,-1,0],[0,9E9,9E9,9E9,9E9,9E9]],Work,z1,custom_tool1\WObj:=WObj0;
MoveJ [[388.69,207.49,294.57],[0,0.98904,0.147646,0],[0,-1,-1,0],[0,9E9,9E9,9E9,9E9,9E9]],Work,z1,custom_tool1\WObj:=WObj0;
MoveJ [[464.97,-166.41,291.3],[0,0.998758,0.049832,0],[0,-1,-1,0],[0,9E9,9E9,9E9,9E9,9E9]],Work,z1,custom_tool1\WObj:=WObj0;
MoveJ [[611.58,-120.94,158.5],[0,0.959844,0.280536,0],[0,-1,-1,0],[0,9E9,9E9,9E9,9E9,9E9]],Work,z1,custom_tool1\WObj:=WObj0;
MoveL [[611.58,-120.94,58.5],[0,0.959844,0.280536,0],[0,-1,-1,0],[0,9E9,9E9,9E9,9E9,9E9]],Work,z1,custom_tool1\WObj:=WObj0;
WaitTime 0.9;
SetDO Stavbar_Gripper_close, 0;
SetDO Stavbar_Gripper_open, 1;
WaitTime 1;
SetDO Stavbar_Gripper_open, 0;
MoveL [[611.58,-120.94,158.5],[0,0.959844,0.280536,0],[0,-1,-1,0],[0,9E9,9E9,9E9,9E9,9E9]],Work,z1,custom_tool1\WObj:=WObj0;
MoveJ [[464.97,-166.41,291.3],[0,0.998758,0.049832,0],[0,-1,-1,0],[0,9E9,9E9,9E9,9E9,9E9]],Work,z1,custom_tool1\WObj:=WObj0;
MoveJ [[388.69,207.49,294.57],[0,0.98904,0.147646,0],[0,-1,-1,0],[0,9E9,9E9,9E9,9E9,9E9]],Work,z1,custom_tool1\WObj:=WObj0;
MoveJ [[25,420,145.8],[-0.174713,0.907209,0.375778,0.072368],[0,-1,-1,0],[0,9E9,9E9,9E9,9E9,9E9]],Work,z1,custom_tool1\WObj:=WObj0;
MoveL [[25,540,45.8],[-0.174713,0.907209,0.375778,0.072368],[0,-1,-1,0],[0,9E9,9E9,9E9,9E9,9E9]],Work,z1,custom_tool1\WObj:=WObj0;
IF TestDI(Stavbar_opt) THEN
WaitDI Stavbar_opt, 0;
ENDIF
WaitTime 0.9;
SetDO Stavbar_Gripper_open, 0;
SetDO Stavbar_Gripper_close, 1;
WaitTime 1;
MoveL [[25,420,145.8],[-0.174713,0.907209,0.375778,0.072368],[0,-1,-1,0],[0,9E9,9E9,9E9,9E9,9E9]],Work,z1,custom_tool1\WObj:=WObj0;
MoveJ [[388.69,207.49,294.57],[0,0.98904,0.147646,0],[0,-1,-1,0],[0,9E9,9E9,9E9,9E9,9E9]],Work,z1,custom_tool1\WObj:=WObj0;
MoveJ [[464.97,-166.41,291.3],[0,0.998758,0.049832,0],[0,-1,-1,0],[0,9E9,9E9,9E9,9E9,9E9]],Work,z1,custom_tool1\WObj:=WObj0;
MoveJ [[567.3,-238.94,158.5],[0,0.98904,0.147646,0],[0,-1,-1,0],[0,9E9,9E9,9E9,9E9,9E9]],Work,z1,custom_tool1\WObj:=WObj0;
MoveL [[567.3,-238.94,58.5],[0,0.98904,0.147646,0],[0,-1,-1,0],[0,9E9,9E9,9E9,9E9,9E9]],Work,z1,custom_tool1\WObj:=WObj0;
WaitTime 0.9;
SetDO Stavbar_Gripper_close, 0;
SetDO Stavbar_Gripper_open, 1;
WaitTime 1;
SetDO Stavbar_Gripper_open, 0;
MoveL [[567.3,-238.94,158.5],[0,0.98904,0.147646,0],[0,-1,-1,0],[0,9E9,9E9,9E9,9E9,9E9]],Work,z1,custom_tool1\WObj:=WObj0;
MoveJ [[464.97,-166.41,291.3],[0,0.998758,0.049832,0],[0,-1,-1,0],[0,9E9,9E9,9E9,9E9,9E9]],Work,z1,custom_tool1\WObj:=WObj0;
MoveJ [[388.69,207.49,294.57],[0,0.98904,0.147646,0],[0,-1,-1,0],[0,9E9,9E9,9E9,9E9,9E9]],Work,z1,custom_tool1\WObj:=WObj0;
MoveJ [[25,420,145.8],[-0.174713,0.907209,0.375778,0.072368],[0,-1,-1,0],[0,9E9,9E9,9E9,9E9,9E9]],Work,z1,custom_tool1\WObj:=WObj0;
MoveL [[25,540,45.8],[-0.174713,0.907209,0.375778,0.072368],[0,-1,-1,0],[0,9E9,9E9,9E9,9E9,9E9]],Work,z1,custom_tool1\WObj:=WObj0;
IF TestDI(Stavbar_opt) THEN
WaitDI Stavbar_opt, 0;
ENDIF
WaitTime 0.9;
SetDO Stavbar_Gripper_open, 0;
SetDO Stavbar_Gripper_close, 1;
WaitTime 1;
MoveL [[25,420,145.8],[-0.174713,0.907209,0.375778,0.072368],[0,-1,-1,0],[0,9E9,9E9,9E9,9E9,9E9]],Work,z1,custom_tool1\WObj:=WObj0;
MoveJ [[388.69,207.49,294.57],[0,0.98904,0.147646,0],[0,-1,-1,0],[0,9E9,9E9,9E9,9E9,9E9]],Work,z1,custom_tool1\WObj:=WObj0;
MoveJ [[464.97,-166.41,291.3],[0,0.998758,0.049832,0],[0,-1,-1,0],[0,9E9,9E9,9E9,9E9,9E9]],Work,z1,custom_tool1\WObj:=WObj0;
MoveJ [[496.73,-343.6,158.5],[0,0.998758,0.049832,0],[0,-1,-1,0],[0,9E9,9E9,9E9,9E9,9E9]],Work,z1,custom_tool1\WObj:=WObj0;
MoveL [[496.73,-343.6,58.5],[0,0.998758,0.049832,0],[0,-1,-1,0],[0,9E9,9E9,9E9,9E9,9E9]],Work,z1,custom_tool1\WObj:=WObj0;
WaitTime 0.9;
SetDO Stavbar_Gripper_close, 0;
SetDO Stavbar_Gripper_open, 1;
WaitTime 1;
SetDO Stavbar_Gripper_open, 0;
MoveL [[496.73,-343.6,158.5],[0,0.998758,0.049832,0],[0,-1,-1,0],[0,9E9,9E9,9E9,9E9,9E9]],Work,z1,custom_tool1\WObj:=WObj0;
MoveJ [[464.97,-166.41,291.3],[0,0.998758,0.049832,0],[0,-1,-1,0],[0,9E9,9E9,9E9,9E9,9E9]],Work,z1,custom_tool1\WObj:=WObj0;
MoveJ [[388.69,207.49,294.57],[0,0.98904,0.147646,0],[0,-1,-1,0],[0,9E9,9E9,9E9,9E9,9E9]],Work,z1,custom_tool1\WObj:=WObj0;
MoveJ [[25,420,145.8],[-0.174713,0.907209,0.375778,0.072368],[0,-1,-1,0],[0,9E9,9E9,9E9,9E9,9E9]],Work,z1,custom_tool1\WObj:=WObj0;
MoveL [[25,540,45.8],[-0.174713,0.907209,0.375778,0.072368],[0,-1,-1,0],[0,9E9,9E9,9E9,9E9,9E9]],Work,z1,custom_tool1\WObj:=WObj0;
IF TestDI(Stavbar_opt) THEN
WaitDI Stavbar_opt, 0;
ENDIF
WaitTime 0.9;
SetDO Stavbar_Gripper_open, 0;
SetDO Stavbar_Gripper_close, 1;
WaitTime 1;
MoveL [[25,420,145.8],[-0.174713,0.907209,0.375778,0.072368],[0,-1,-1,0],[0,9E9,9E9,9E9,9E9,9E9]],Work,z1,custom_tool1\WObj:=WObj0;
MoveJ [[388.69,207.49,294.57],[0,0.98904,0.147646,0],[0,-1,-1,0],[0,9E9,9E9,9E9,9E9,9E9]],Work,z1,custom_tool1\WObj:=WObj0;
MoveJ [[464.97,-166.41,291.3],[0,0.998758,0.049832,0],[0,-1,-1,0],[0,9E9,9E9,9E9,9E9,9E9]],Work,z1,custom_tool1\WObj:=WObj0;
MoveJ [[409.88,-435.34,158.5],[0,0.999831,-0.018389,0],[0,-1,-1,0],[0,9E9,9E9,9E9,9E9,9E9]],Work,z1,custom_tool1\WObj:=WObj0;
MoveL [[409.88,-435.34,58.5],[0,0.999831,-0.018389,0],[0,-1,-1,0],[0,9E9,9E9,9E9,9E9,9E9]],Work,z1,custom_tool1\WObj:=WObj0;
WaitTime 0.9;
SetDO Stavbar_Gripper_close, 0;
SetDO Stavbar_Gripper_open, 1;
WaitTime 1;
SetDO Stavbar_Gripper_open, 0;
MoveL [[409.88,-435.34,158.5],[0,0.999831,-0.018389,0],[0,-1,-1,0],[0,9E9,9E9,9E9,9E9,9E9]],Work,z1,custom_tool1\WObj:=WObj0;
MoveJ [[464.97,-166.41,291.3],[0,0.998758,0.049832,0],[0,-1,-1,0],[0,9E9,9E9,9E9,9E9,9E9]],Work,z1,custom_tool1\WObj:=WObj0;
MoveJ [[388.69,207.49,294.57],[0,0.98904,0.147646,0],[0,-1,-1,0],[0,9E9,9E9,9E9,9E9,9E9]],Work,z1,custom_tool1\WObj:=WObj0;
MoveJ [[25,420,145.8],[-0.174713,0.907209,0.375778,0.072368],[0,-1,-1,0],[0,9E9,9E9,9E9,9E9,9E9]],Work,z1,custom_tool1\WObj:=WObj0;
MoveL [[25,540,45.8],[-0.174713,0.907209,0.375778,0.072368],[0,-1,-1,0],[0,9E9,9E9,9E9,9E9,9E9]],Work,z1,custom_tool1\WObj:=WObj0;
IF TestDI(Stavbar_opt) THEN
WaitDI Stavbar_opt, 0;
ENDIF
WaitTime 0.9;
SetDO Stavbar_Gripper_open, 0;
SetDO Stavbar_Gripper_close, 1;
WaitTime 1;
MoveL [[25,420,145.8],[-0.174713,0.907209,0.375778,0.072368],[0,-1,-1,0],[0,9E9,9E9,9E9,9E9,9E9]],Work,z1,custom_tool1\WObj:=WObj0;
MoveJ [[388.69,207.49,294.57],[0,0.98904,0.147646,0],[0,-1,-1,0],[0,9E9,9E9,9E9,9E9,9E9]],Work,z1,custom_tool1\WObj:=WObj0;
MoveJ [[464.97,-166.41,291.3],[0,0.998758,0.049832,0],[0,-1,-1,0],[0,9E9,9E9,9E9,9E9,9E9]],Work,z1,custom_tool1\WObj:=WObj0;
MoveJ [[313.01,-516.52,158.5],[0,0.997762,-0.066858,0],[0,-1,-1,0],[0,9E9,9E9,9E9,9E9,9E9]],Work,z1,custom_tool1\WObj:=WObj0;
MoveL [[313.01,-516.52,58.5],[0,0.997762,-0.066858,0],[0,-1,-1,0],[0,9E9,9E9,9E9,9E9,9E9]],Work,z1,custom_tool1\WObj:=WObj0;
WaitTime 0.9;
SetDO Stavbar_Gripper_close, 0;
SetDO Stavbar_Gripper_open, 1;
WaitTime 1;
SetDO Stavbar_Gripper_open, 0;
MoveL [[313.01,-516.52,158.5],[0,0.997762,-0.066858,0],[0,-1,-1,0],[0,9E9,9E9,9E9,9E9,9E9]],Work,z1,custom_tool1\WObj:=WObj0;
MoveJ [[464.97,-166.41,291.3],[0,0.998758,0.049832,0],[0,-1,-1,0],[0,9E9,9E9,9E9,9E9,9E9]],Work,z1,custom_tool1\WObj:=WObj0;
MoveJ [[388.69,207.49,294.57],[0,0.98904,0.147646,0],[0,-1,-1,0],[0,9E9,9E9,9E9,9E9,9E9]],Work,z1,custom_tool1\WObj:=WObj0;
MoveJ [[25,420,145.8],[-0.174713,0.907209,0.375778,0.072368],[0,-1,-1,0],[0,9E9,9E9,9E9,9E9,9E9]],Work,z1,custom_tool1\WObj:=WObj0;
MoveL [[25,540,45.8],[-0.174713,0.907209,0.375778,0.072368],[0,-1,-1,0],[0,9E9,9E9,9E9,9E9,9E9]],Work,z1,custom_tool1\WObj:=WObj0;
IF TestDI(Stavbar_opt) THEN
WaitDI Stavbar_opt, 0;
ENDIF
WaitTime 0.9;
SetDO Stavbar_Gripper_open, 0;
SetDO Stavbar_Gripper_close, 1;
WaitTime 1;
MoveL [[25,420,145.8],[-0.174713,0.907209,0.375778,0.072368],[0,-1,-1,0],[0,9E9,9E9,9E9,9E9,9E9]],Work,z1,custom_tool1\WObj:=WObj0;
MoveJ [[388.69,207.49,294.57],[0,0.98904,0.147646,0],[0,-1,-1,0],[0,9E9,9E9,9E9,9E9,9E9]],Work,z1,custom_tool1\WObj:=WObj0;
MoveJ [[464.97,-166.41,291.3],[0,0.998758,0.049832,0],[0,-1,-1,0],[0,9E9,9E9,9E9,9E9,9E9]],Work,z1,custom_tool1\WObj:=WObj0;
MoveJ [[209.7,-589.35,158.5],[0,0.994723,-0.1026,0],[0,-1,-1,0],[0,9E9,9E9,9E9,9E9,9E9]],Work,z1,custom_tool1\WObj:=WObj0;
MoveL [[209.7,-589.35,58.5],[0,0.994723,-0.1026,0],[0,-1,-1,0],[0,9E9,9E9,9E9,9E9,9E9]],Work,z1,custom_tool1\WObj:=WObj0;
WaitTime 0.9;
SetDO Stavbar_Gripper_close, 0;
SetDO Stavbar_Gripper_open, 1;
WaitTime 1;
SetDO Stavbar_Gripper_open, 0;
MoveL [[209.7,-589.35,158.5],[0,0.994723,-0.1026,0],[0,-1,-1,0],[0,9E9,9E9,9E9,9E9,9E9]],Work,z1,custom_tool1\WObj:=WObj0;
MoveJ [[464.97,-166.41,291.3],[0,0.998758,0.049832,0],[0,-1,-1,0],[0,9E9,9E9,9E9,9E9,9E9]],Work,z1,custom_tool1\WObj:=WObj0;
MoveJ [[388.69,207.49,294.57],[0,0.98904,0.147646,0],[0,-1,-1,0],[0,9E9,9E9,9E9,9E9,9E9]],Work,z1,custom_tool1\WObj:=WObj0;
MoveJ [[25,420,145.8],[-0.174713,0.907209,0.375778,0.072368],[0,-1,-1,0],[0,9E9,9E9,9E9,9E9,9E9]],Work,z1,custom_tool1\WObj:=WObj0;
MoveJ [[-63,420,145.8],[-0.174713,0.907209,0.375778,0.072368],[0,-1,-1,0],[0,9E9,9E9,9E9,9E9,9E9]],Work,z1,custom_tool1\WObj:=WObj0;
MoveL [[-63,540,45.8],[-0.174713,0.907209,0.375778,0.072368],[0,-1,-1,0],[0,9E9,9E9,9E9,9E9,9E9]],Work,z1,custom_tool1\WObj:=WObj0;
IF TestDI(Stavbar_opt) THEN
WaitDI Stavbar_opt, 0;
ENDIF
WaitTime 0.9;
SetDO Stavbar_Gripper_open, 0;
SetDO Stavbar_Gripper_close, 1;
WaitTime 1;
MoveL [[-63,420,145.8],[-0.174713,0.907209,0.375778,0.072368],[0,-1,-1,0],[0,9E9,9E9,9E9,9E9,9E9]],Work,z1,custom_tool1\WObj:=WObj0;
MoveJ [[25,420,145.8],[-0.174713,0.907209,0.375778,0.072368],[0,-1,-1,0],[0,9E9,9E9,9E9,9E9,9E9]],Work,z1,custom_tool1\WObj:=WObj0;
MoveJ [[388.69,207.49,294.57],[0,0.98904,0.147646,0],[0,-1,-1,0],[0,9E9,9E9,9E9,9E9,9E9]],Work,z1,custom_tool1\WObj:=WObj0;
MoveJ [[464.97,-166.41,291.3],[0,0.998758,0.049832,0],[0,-1,-1,0],[0,9E9,9E9,9E9,9E9,9E9]],Work,z1,custom_tool1\WObj:=WObj0;
MoveJ [[142.67,-631.56,158.5],[0,0.993117,-0.117128,0],[0,-1,-1,0],[0,9E9,9E9,9E9,9E9,9E9]],Work,z1,custom_tool1\WObj:=WObj0;
MoveL [[142.67,-631.56,58.5],[0,0.993117,-0.117128,0],[0,-1,-1,0],[0,9E9,9E9,9E9,9E9,9E9]],Work,z1,custom_tool1\WObj:=WObj0;
WaitTime 0.9;
SetDO Stavbar_Gripper_close, 0;
SetDO Stavbar_Gripper_open, 1;
WaitTime 1;
SetDO Stavbar_Gripper_open, 0;
MoveL [[142.67,-631.56,158.5],[0,0.993117,-0.117128,0],[0,-1,-1,0],[0,9E9,9E9,9E9,9E9,9E9]],Work,z1,custom_tool1\WObj:=WObj0;
MoveJ [[464.97,-166.41,291.3],[0,0.998758,0.049832,0],[0,-1,-1,0],[0,9E9,9E9,9E9,9E9,9E9]],Work,z1,custom_tool1\WObj:=WObj0;
MoveJ [[388.69,207.49,294.57],[0,0.98904,0.147646,0],[0,-1,-1,0],[0,9E9,9E9,9E9,9E9,9E9]],Work,z1,custom_tool1\WObj:=WObj0;
MoveJ [[25,420,145.8],[-0.174713,0.907209,0.375778,0.072368],[0,-1,-1,0],[0,9E9,9E9,9E9,9E9,9E9]],Work,z1,custom_tool1\WObj:=WObj0;
MoveJ [[-63,420,145.8],[-0.174713,0.907209,0.375778,0.072368],[0,-1,-1,0],[0,9E9,9E9,9E9,9E9,9E9]],Work,z1,custom_tool1\WObj:=WObj0;
MoveL [[-63,540,45.8],[-0.174713,0.907209,0.375778,0.072368],[0,-1,-1,0],[0,9E9,9E9,9E9,9E9,9E9]],Work,z1,custom_tool1\WObj:=WObj0;
IF TestDI(Stavbar_opt) THEN
WaitDI Stavbar_opt, 0;
ENDIF
WaitTime 0.9;
SetDO Stavbar_Gripper_open, 0;
SetDO Stavbar_Gripper_close, 1;
WaitTime 1;
MoveL [[-63,420,145.8],[-0.174713,0.907209,0.375778,0.072368],[0,-1,-1,0],[0,9E9,9E9,9E9,9E9,9E9]],Work,z1,custom_tool1\WObj:=WObj0;
MoveJ [[25,420,145.8],[-0.174713,0.907209,0.375778,0.072368],[0,-1,-1,0],[0,9E9,9E9,9E9,9E9,9E9]],Work,z1,custom_tool1\WObj:=WObj0;
MoveJ [[388.69,207.49,294.57],[0,0.98904,0.147646,0],[0,-1,-1,0],[0,9E9,9E9,9E9,9E9,9E9]],Work,z1,custom_tool1\WObj:=WObj0;
MoveJ [[440.09,349.59,181.5],[0,0.725904,0.687796,0],[0,-1,-1,0],[0,9E9,9E9,9E9,9E9,9E9]],Work,z1,custom_tool1\WObj:=WObj0;
MoveL [[440.09,349.59,81.5],[0,0.725904,0.687796,0],[0,-1,-1,0],[0,9E9,9E9,9E9,9E9,9E9]],Work,z1,custom_tool1\WObj:=WObj0;
WaitTime 0.9;
SetDO Stavbar_Gripper_close, 0;
SetDO Stavbar_Gripper_open, 1;
WaitTime 1;
SetDO Stavbar_Gripper_open, 0;
MoveL [[440.09,349.59,181.5],[0,0.725904,0.687796,0],[0,-1,-1,0],[0,9E9,9E9,9E9,9E9,9E9]],Work,z1,custom_tool1\WObj:=WObj0;
MoveJ [[388.69,207.49,294.57],[0,0.98904,0.147646,0],[0,-1,-1,0],[0,9E9,9E9,9E9,9E9,9E9]],Work,z1,custom_tool1\WObj:=WObj0;
MoveJ [[25,420,145.8],[-0.174713,0.907209,0.375778,0.072368],[0,-1,-1,0],[0,9E9,9E9,9E9,9E9,9E9]],Work,z1,custom_tool1\WObj:=WObj0;
MoveL [[25,540,45.8],[-0.174713,0.907209,0.375778,0.072368],[0,-1,-1,0],[0,9E9,9E9,9E9,9E9,9E9]],Work,z1,custom_tool1\WObj:=WObj0;
IF TestDI(Stavbar_opt) THEN
WaitDI Stavbar_opt, 0;
ENDIF
WaitTime 0.9;
SetDO Stavbar_Gripper_open, 0;
SetDO Stavbar_Gripper_close, 1;
WaitTime 1;
MoveL [[25,420,145.8],[-0.174713,0.907209,0.375778,0.072368],[0,-1,-1,0],[0,9E9,9E9,9E9,9E9,9E9]],Work,z1,custom_tool1\WObj:=WObj0;
MoveJ [[388.69,207.49,294.57],[0,0.98904,0.147646,0],[0,-1,-1,0],[0,9E9,9E9,9E9,9E9,9E9]],Work,z1,custom_tool1\WObj:=WObj0;
MoveJ [[491.49,289.34,181.5],[0,0.747919,0.66379,0],[0,-1,-1,0],[0,9E9,9E9,9E9,9E9,9E9]],Work,z1,custom_tool1\WObj:=WObj0;
MoveL [[491.49,289.34,81.5],[0,0.747919,0.66379,0],[0,-1,-1,0],[0,9E9,9E9,9E9,9E9,9E9]],Work,z1,custom_tool1\WObj:=WObj0;
WaitTime 0.9;
SetDO Stavbar_Gripper_close, 0;
SetDO Stavbar_Gripper_open, 1;
WaitTime 1;
SetDO Stavbar_Gripper_open, 0;
MoveL [[491.49,289.34,181.5],[0,0.747919,0.66379,0],[0,-1,-1,0],[0,9E9,9E9,9E9,9E9,9E9]],Work,z1,custom_tool1\WObj:=WObj0;
MoveJ [[388.69,207.49,294.57],[0,0.98904,0.147646,0],[0,-1,-1,0],[0,9E9,9E9,9E9,9E9,9E9]],Work,z1,custom_tool1\WObj:=WObj0;
MoveJ [[25,420,145.8],[-0.174713,0.907209,0.375778,0.072368],[0,-1,-1,0],[0,9E9,9E9,9E9,9E9,9E9]],Work,z1,custom_tool1\WObj:=WObj0;
MoveL [[25,540,45.8],[-0.174713,0.907209,0.375778,0.072368],[0,-1,-1,0],[0,9E9,9E9,9E9,9E9,9E9]],Work,z1,custom_tool1\WObj:=WObj0;
IF TestDI(Stavbar_opt) THEN
WaitDI Stavbar_opt, 0;
ENDIF
WaitTime 0.9;
SetDO Stavbar_Gripper_open, 0;
SetDO Stavbar_Gripper_close, 1;
WaitTime 1;
MoveL [[25,420,145.8],[-0.174713,0.907209,0.375778,0.072368],[0,-1,-1,0],[0,9E9,9E9,9E9,9E9,9E9]],Work,z1,custom_tool1\WObj:=WObj0;
MoveJ [[388.69,207.49,294.57],[0,0.98904,0.147646,0],[0,-1,-1,0],[0,9E9,9E9,9E9,9E9,9E9]],Work,z1,custom_tool1\WObj:=WObj0;
MoveJ [[561.29,184.1,181.5],[0,0.802166,0.597101,0],[0,-1,-1,0],[0,9E9,9E9,9E9,9E9,9E9]],Work,z1,custom_tool1\WObj:=WObj0;
MoveL [[561.29,184.1,81.5],[0,0.802166,0.597101,0],[0,-1,-1,0],[0,9E9,9E9,9E9,9E9,9E9]],Work,z1,custom_tool1\WObj:=WObj0;
WaitTime 0.9;
SetDO Stavbar_Gripper_close, 0;
SetDO Stavbar_Gripper_open, 1;
WaitTime 1;
SetDO Stavbar_Gripper_open, 0;
MoveL [[561.29,184.1,181.5],[0,0.802166,0.597101,0],[0,-1,-1,0],[0,9E9,9E9,9E9,9E9,9E9]],Work,z1,custom_tool1\WObj:=WObj0;
MoveJ [[388.69,207.49,294.57],[0,0.98904,0.147646,0],[0,-1,-1,0],[0,9E9,9E9,9E9,9E9,9E9]],Work,z1,custom_tool1\WObj:=WObj0;
MoveJ [[25,420,145.8],[-0.174713,0.907209,0.375778,0.072368],[0,-1,-1,0],[0,9E9,9E9,9E9,9E9,9E9]],Work,z1,custom_tool1\WObj:=WObj0;
MoveL [[25,540,45.8],[-0.174713,0.907209,0.375778,0.072368],[0,-1,-1,0],[0,9E9,9E9,9E9,9E9,9E9]],Work,z1,custom_tool1\WObj:=WObj0;
IF TestDI(Stavbar_opt) THEN
WaitDI Stavbar_opt, 0;
ENDIF
WaitTime 0.9;
SetDO Stavbar_Gripper_open, 0;
SetDO Stavbar_Gripper_close, 1;
WaitTime 1;
MoveL [[25,420,145.8],[-0.174713,0.907209,0.375778,0.072368],[0,-1,-1,0],[0,9E9,9E9,9E9,9E9,9E9]],Work,z1,custom_tool1\WObj:=WObj0;
MoveJ [[388.69,207.49,294.57],[0,0.98904,0.147646,0],[0,-1,-1,0],[0,9E9,9E9,9E9,9E9,9E9]],Work,z1,custom_tool1\WObj:=WObj0;
MoveJ [[607.91,66.92,181.5],[0,0.869026,0.494767,0],[0,-1,-1,0],[0,9E9,9E9,9E9,9E9,9E9]],Work,z1,custom_tool1\WObj:=WObj0;
MoveL [[607.91,66.92,81.5],[0,0.869026,0.494767,0],[0,-1,-1,0],[0,9E9,9E9,9E9,9E9,9E9]],Work,z1,custom_tool1\WObj:=WObj0;
WaitTime 0.9;
SetDO Stavbar_Gripper_close, 0;
SetDO Stavbar_Gripper_open, 1;
WaitTime 1;
SetDO Stavbar_Gripper_open, 0;
MoveL [[607.91,66.92,181.5],[0,0.869026,0.494767,0],[0,-1,-1,0],[0,9E9,9E9,9E9,9E9,9E9]],Work,z1,custom_tool1\WObj:=WObj0;
MoveJ [[388.69,207.49,294.57],[0,0.98904,0.147646,0],[0,-1,-1,0],[0,9E9,9E9,9E9,9E9,9E9]],Work,z1,custom_tool1\WObj:=WObj0;
MoveJ [[25,420,145.8],[-0.174713,0.907209,0.375778,0.072368],[0,-1,-1,0],[0,9E9,9E9,9E9,9E9,9E9]],Work,z1,custom_tool1\WObj:=WObj0;
MoveL [[25,540,45.8],[-0.174713,0.907209,0.375778,0.072368],[0,-1,-1,0],[0,9E9,9E9,9E9,9E9,9E9]],Work,z1,custom_tool1\WObj:=WObj0;
IF TestDI(Stavbar_opt) THEN
WaitDI Stavbar_opt, 0;
ENDIF
WaitTime 0.9;
SetDO Stavbar_Gripper_open, 0;
SetDO Stavbar_Gripper_close, 1;
WaitTime 1;
MoveL [[25,420,145.8],[-0.174713,0.907209,0.375778,0.072368],[0,-1,-1,0],[0,9E9,9E9,9E9,9E9,9E9]],Work,z1,custom_tool1\WObj:=WObj0;
MoveJ [[388.69,207.49,294.57],[0,0.98904,0.147646,0],[0,-1,-1,0],[0,9E9,9E9,9E9,9E9,9E9]],Work,z1,custom_tool1\WObj:=WObj0;
MoveJ [[464.97,-166.41,291.3],[0,0.998758,0.049832,0],[0,-1,-1,0],[0,9E9,9E9,9E9,9E9,9E9]],Work,z1,custom_tool1\WObj:=WObj0;
MoveJ [[620.3,-58.39,181.5],[0,0.934769,0.355255,0],[0,-1,-1,0],[0,9E9,9E9,9E9,9E9,9E9]],Work,z1,custom_tool1\WObj:=WObj0;
MoveL [[620.3,-58.39,81.5],[0,0.934769,0.355255,0],[0,-1,-1,0],[0,9E9,9E9,9E9,9E9,9E9]],Work,z1,custom_tool1\WObj:=WObj0;
WaitTime 0.9;
SetDO Stavbar_Gripper_close, 0;
SetDO Stavbar_Gripper_open, 1;
WaitTime 1;
SetDO Stavbar_Gripper_open, 0;
MoveL [[620.3,-58.39,181.5],[0,0.934769,0.355255,0],[0,-1,-1,0],[0,9E9,9E9,9E9,9E9,9E9]],Work,z1,custom_tool1\WObj:=WObj0;
MoveJ [[464.97,-166.41,291.3],[0,0.998758,0.049832,0],[0,-1,-1,0],[0,9E9,9E9,9E9,9E9,9E9]],Work,z1,custom_tool1\WObj:=WObj0;
MoveJ [[388.69,207.49,294.57],[0,0.98904,0.147646,0],[0,-1,-1,0],[0,9E9,9E9,9E9,9E9,9E9]],Work,z1,custom_tool1\WObj:=WObj0;
MoveJ [[25,420,145.8],[-0.174713,0.907209,0.375778,0.072368],[0,-1,-1,0],[0,9E9,9E9,9E9,9E9,9E9]],Work,z1,custom_tool1\WObj:=WObj0;
MoveL [[25,540,45.8],[-0.174713,0.907209,0.375778,0.072368],[0,-1,-1,0],[0,9E9,9E9,9E9,9E9,9E9]],Work,z1,custom_tool1\WObj:=WObj0;
IF TestDI(Stavbar_opt) THEN
WaitDI Stavbar_opt, 0;
ENDIF
WaitTime 0.9;
SetDO Stavbar_Gripper_open, 0;
SetDO Stavbar_Gripper_close, 1;
WaitTime 1;
MoveL [[25,420,145.8],[-0.174713,0.907209,0.375778,0.072368],[0,-1,-1,0],[0,9E9,9E9,9E9,9E9,9E9]],Work,z1,custom_tool1\WObj:=WObj0;
MoveJ [[388.69,207.49,294.57],[0,0.98904,0.147646,0],[0,-1,-1,0],[0,9E9,9E9,9E9,9E9,9E9]],Work,z1,custom_tool1\WObj:=WObj0;
MoveJ [[464.97,-166.41,291.3],[0,0.998758,0.049832,0],[0,-1,-1,0],[0,9E9,9E9,9E9,9E9,9E9]],Work,z1,custom_tool1\WObj:=WObj0;
MoveJ [[593.48,-181.45,181.5],[0,0.977683,0.210085,0],[0,-1,-1,0],[0,9E9,9E9,9E9,9E9,9E9]],Work,z1,custom_tool1\WObj:=WObj0;
MoveL [[593.48,-181.45,81.5],[0,0.977683,0.210085,0],[0,-1,-1,0],[0,9E9,9E9,9E9,9E9,9E9]],Work,z1,custom_tool1\WObj:=WObj0;
WaitTime 0.9;
SetDO Stavbar_Gripper_close, 0;
SetDO Stavbar_Gripper_open, 1;
WaitTime 1;
SetDO Stavbar_Gripper_open, 0;
MoveL [[593.48,-181.45,181.5],[0,0.977683,0.210085,0],[0,-1,-1,0],[0,9E9,9E9,9E9,9E9,9E9]],Work,z1,custom_tool1\WObj:=WObj0;
MoveJ [[464.97,-166.41,291.3],[0,0.998758,0.049832,0],[0,-1,-1,0],[0,9E9,9E9,9E9,9E9,9E9]],Work,z1,custom_tool1\WObj:=WObj0;
MoveJ [[388.69,207.49,294.57],[0,0.98904,0.147646,0],[0,-1,-1,0],[0,9E9,9E9,9E9,9E9,9E9]],Work,z1,custom_tool1\WObj:=WObj0;
MoveJ [[25,420,145.8],[-0.174713,0.907209,0.375778,0.072368],[0,-1,-1,0],[0,9E9,9E9,9E9,9E9,9E9]],Work,z1,custom_tool1\WObj:=WObj0;
MoveL [[25,540,45.8],[-0.174713,0.907209,0.375778,0.072368],[0,-1,-1,0],[0,9E9,9E9,9E9,9E9,9E9]],Work,z1,custom_tool1\WObj:=WObj0;
IF TestDI(Stavbar_opt) THEN
WaitDI Stavbar_opt, 0;
ENDIF
WaitTime 0.9;
SetDO Stavbar_Gripper_open, 0;
SetDO Stavbar_Gripper_close, 1;
WaitTime 1;
MoveL [[25,420,145.8],[-0.174713,0.907209,0.375778,0.072368],[0,-1,-1,0],[0,9E9,9E9,9E9,9E9,9E9]],Work,z1,custom_tool1\WObj:=WObj0;
MoveJ [[388.69,207.49,294.57],[0,0.98904,0.147646,0],[0,-1,-1,0],[0,9E9,9E9,9E9,9E9,9E9]],Work,z1,custom_tool1\WObj:=WObj0;
MoveJ [[464.97,-166.41,291.3],[0,0.998758,0.049832,0],[0,-1,-1,0],[0,9E9,9E9,9E9,9E9,9E9]],Work,z1,custom_tool1\WObj:=WObj0;
MoveJ [[534.59,-293,181.5],[0,0.995534,0.094405,0],[0,-1,-1,0],[0,9E9,9E9,9E9,9E9,9E9]],Work,z1,custom_tool1\WObj:=WObj0;
MoveL [[534.59,-293,81.5],[0,0.995534,0.094405,0],[0,-1,-1,0],[0,9E9,9E9,9E9,9E9,9E9]],Work,z1,custom_tool1\WObj:=WObj0;
WaitTime 0.9;
SetDO Stavbar_Gripper_close, 0;
SetDO Stavbar_Gripper_open, 1;
WaitTime 1;
SetDO Stavbar_Gripper_open, 0;
MoveL [[534.59,-293,181.5],[0,0.995534,0.094405,0],[0,-1,-1,0],[0,9E9,9E9,9E9,9E9,9E9]],Work,z1,custom_tool1\WObj:=WObj0;
MoveJ [[464.97,-166.41,291.3],[0,0.998758,0.049832,0],[0,-1,-1,0],[0,9E9,9E9,9E9,9E9,9E9]],Work,z1,custom_tool1\WObj:=WObj0;
MoveJ [[388.69,207.49,294.57],[0,0.98904,0.147646,0],[0,-1,-1,0],[0,9E9,9E9,9E9,9E9,9E9]],Work,z1,custom_tool1\WObj:=WObj0;
MoveJ [[25,420,145.8],[-0.174713,0.907209,0.375778,0.072368],[0,-1,-1,0],[0,9E9,9E9,9E9,9E9,9E9]],Work,z1,custom_tool1\WObj:=WObj0;
MoveL [[25,540,45.8],[-0.174713,0.907209,0.375778,0.072368],[0,-1,-1,0],[0,9E9,9E9,9E9,9E9,9E9]],Work,z1,custom_tool1\WObj:=WObj0;
IF TestDI(Stavbar_opt) THEN
WaitDI Stavbar_opt, 0;
ENDIF
WaitTime 0.9;
SetDO Stavbar_Gripper_open, 0;
SetDO Stavbar_Gripper_close, 1;
WaitTime 1;
MoveL [[25,420,145.8],[-0.174713,0.907209,0.375778,0.072368],[0,-1,-1,0],[0,9E9,9E9,9E9,9E9,9E9]],Work,z1,custom_tool1\WObj:=WObj0;
MoveJ [[388.69,207.49,294.57],[0,0.98904,0.147646,0],[0,-1,-1,0],[0,9E9,9E9,9E9,9E9,9E9]],Work,z1,custom_tool1\WObj:=WObj0;
MoveJ [[464.97,-166.41,291.3],[0,0.998758,0.049832,0],[0,-1,-1,0],[0,9E9,9E9,9E9,9E9,9E9]],Work,z1,custom_tool1\WObj:=WObj0;
MoveJ [[454.87,-390.94,181.5],[0,0.99992,0.012683,0],[0,-1,-1,0],[0,9E9,9E9,9E9,9E9,9E9]],Work,z1,custom_tool1\WObj:=WObj0;
MoveL [[454.87,-390.94,81.5],[0,0.99992,0.012683,0],[0,-1,-1,0],[0,9E9,9E9,9E9,9E9,9E9]],Work,z1,custom_tool1\WObj:=WObj0;
WaitTime 0.9;
SetDO Stavbar_Gripper_close, 0;
SetDO Stavbar_Gripper_open, 1;
WaitTime 1;
SetDO Stavbar_Gripper_open, 0;
MoveL [[454.87,-390.94,181.5],[0,0.99992,0.012683,0],[0,-1,-1,0],[0,9E9,9E9,9E9,9E9,9E9]],Work,z1,custom_tool1\WObj:=WObj0;
MoveJ [[464.97,-166.41,291.3],[0,0.998758,0.049832,0],[0,-1,-1,0],[0,9E9,9E9,9E9,9E9,9E9]],Work,z1,custom_tool1\WObj:=WObj0;
MoveJ [[388.69,207.49,294.57],[0,0.98904,0.147646,0],[0,-1,-1,0],[0,9E9,9E9,9E9,9E9,9E9]],Work,z1,custom_tool1\WObj:=WObj0;
MoveJ [[25,420,145.8],[-0.174713,0.907209,0.375778,0.072368],[0,-1,-1,0],[0,9E9,9E9,9E9,9E9,9E9]],Work,z1,custom_tool1\WObj:=WObj0;
MoveL [[25,540,45.8],[-0.174713,0.907209,0.375778,0.072368],[0,-1,-1,0],[0,9E9,9E9,9E9,9E9,9E9]],Work,z1,custom_tool1\WObj:=WObj0;
IF TestDI(Stavbar_opt) THEN
WaitDI Stavbar_opt, 0;
ENDIF
WaitTime 0.9;
SetDO Stavbar_Gripper_open, 0;
SetDO Stavbar_Gripper_close, 1;
WaitTime 1;
MoveL [[25,420,145.8],[-0.174713,0.907209,0.375778,0.072368],[0,-1,-1,0],[0,9E9,9E9,9E9,9E9,9E9]],Work,z1,custom_tool1\WObj:=WObj0;
MoveJ [[388.69,207.49,294.57],[0,0.98904,0.147646,0],[0,-1,-1,0],[0,9E9,9E9,9E9,9E9,9E9]],Work,z1,custom_tool1\WObj:=WObj0;
MoveJ [[464.97,-166.41,291.3],[0,0.998758,0.049832,0],[0,-1,-1,0],[0,9E9,9E9,9E9,9E9,9E9]],Work,z1,custom_tool1\WObj:=WObj0;
MoveJ [[362.43,-477.1,181.5],[0,0.999006,-0.044578,0],[0,-1,-1,0],[0,9E9,9E9,9E9,9E9,9E9]],Work,z1,custom_tool1\WObj:=WObj0;
MoveL [[362.43,-477.1,81.5],[0,0.999006,-0.044578,0],[0,-1,-1,0],[0,9E9,9E9,9E9,9E9,9E9]],Work,z1,custom_tool1\WObj:=WObj0;
WaitTime 0.9;
SetDO Stavbar_Gripper_close, 0;
SetDO Stavbar_Gripper_open, 1;
WaitTime 1;
SetDO Stavbar_Gripper_open, 0;
MoveL [[362.43,-477.1,181.5],[0,0.999006,-0.044578,0],[0,-1,-1,0],[0,9E9,9E9,9E9,9E9,9E9]],Work,z1,custom_tool1\WObj:=WObj0;
MoveJ [[464.97,-166.41,291.3],[0,0.998758,0.049832,0],[0,-1,-1,0],[0,9E9,9E9,9E9,9E9,9E9]],Work,z1,custom_tool1\WObj:=WObj0;
MoveJ [[388.69,207.49,294.57],[0,0.98904,0.147646,0],[0,-1,-1,0],[0,9E9,9E9,9E9,9E9,9E9]],Work,z1,custom_tool1\WObj:=WObj0;
MoveJ [[25,420,145.8],[-0.174713,0.907209,0.375778,0.072368],[0,-1,-1,0],[0,9E9,9E9,9E9,9E9,9E9]],Work,z1,custom_tool1\WObj:=WObj0;
MoveL [[25,540,45.8],[-0.174713,0.907209,0.375778,0.072368],[0,-1,-1,0],[0,9E9,9E9,9E9,9E9,9E9]],Work,z1,custom_tool1\WObj:=WObj0;
IF TestDI(Stavbar_opt) THEN
WaitDI Stavbar_opt, 0;
ENDIF
WaitTime 0.9;
SetDO Stavbar_Gripper_open, 0;
SetDO Stavbar_Gripper_close, 1;
WaitTime 1;
MoveL [[25,420,145.8],[-0.174713,0.907209,0.375778,0.072368],[0,-1,-1,0],[0,9E9,9E9,9E9,9E9,9E9]],Work,z1,custom_tool1\WObj:=WObj0;
MoveJ [[388.69,207.49,294.57],[0,0.98904,0.147646,0],[0,-1,-1,0],[0,9E9,9E9,9E9,9E9,9E9]],Work,z1,custom_tool1\WObj:=WObj0;
MoveJ [[464.97,-166.41,291.3],[0,0.998758,0.049832,0],[0,-1,-1,0],[0,9E9,9E9,9E9,9E9,9E9]],Work,z1,custom_tool1\WObj:=WObj0;
MoveJ [[262.01,-553.86,181.5],[0,0.996295,-0.085999,0],[0,-1,-1,0],[0,9E9,9E9,9E9,9E9,9E9]],Work,z1,custom_tool1\WObj:=WObj0;
MoveL [[262.01,-553.86,81.5],[0,0.996295,-0.085999,0],[0,-1,-1,0],[0,9E9,9E9,9E9,9E9,9E9]],Work,z1,custom_tool1\WObj:=WObj0;
WaitTime 0.9;
SetDO Stavbar_Gripper_close, 0;
SetDO Stavbar_Gripper_open, 1;
WaitTime 1;
SetDO Stavbar_Gripper_open, 0;
MoveL [[262.01,-553.86,181.5],[0,0.996295,-0.085999,0],[0,-1,-1,0],[0,9E9,9E9,9E9,9E9,9E9]],Work,z1,custom_tool1\WObj:=WObj0;
MoveJ [[464.97,-166.41,291.3],[0,0.998758,0.049832,0],[0,-1,-1,0],[0,9E9,9E9,9E9,9E9,9E9]],Work,z1,custom_tool1\WObj:=WObj0;
MoveJ [[388.69,207.49,294.57],[0,0.98904,0.147646,0],[0,-1,-1,0],[0,9E9,9E9,9E9,9E9,9E9]],Work,z1,custom_tool1\WObj:=WObj0;
MoveJ [[25,420,145.8],[-0.174713,0.907209,0.375778,0.072368],[0,-1,-1,0],[0,9E9,9E9,9E9,9E9,9E9]],Work,z1,custom_tool1\WObj:=WObj0;
MoveL [[25,540,45.8],[-0.174713,0.907209,0.375778,0.072368],[0,-1,-1,0],[0,9E9,9E9,9E9,9E9,9E9]],Work,z1,custom_tool1\WObj:=WObj0;
IF TestDI(Stavbar_opt) THEN
WaitDI Stavbar_opt, 0;
ENDIF
WaitTime 0.9;
SetDO Stavbar_Gripper_open, 0;
SetDO Stavbar_Gripper_close, 1;
WaitTime 1;
MoveL [[25,420,145.8],[-0.174713,0.907209,0.375778,0.072368],[0,-1,-1,0],[0,9E9,9E9,9E9,9E9,9E9]],Work,z1,custom_tool1\WObj:=WObj0;
MoveJ [[388.69,207.49,294.57],[0,0.98904,0.147646,0],[0,-1,-1,0],[0,9E9,9E9,9E9,9E9,9E9]],Work,z1,custom_tool1\WObj:=WObj0;
MoveJ [[464.97,-166.41,291.3],[0,0.998758,0.049832,0],[0,-1,-1,0],[0,9E9,9E9,9E9,9E9,9E9]],Work,z1,custom_tool1\WObj:=WObj0;
MoveJ [[156.31,-623.19,181.5],[0,0.993117,-0.117128,0],[0,-1,-1,0],[0,9E9,9E9,9E9,9E9,9E9]],Work,z1,custom_tool1\WObj:=WObj0;
MoveL [[156.31,-623.19,81.5],[0,0.993117,-0.117128,0],[0,-1,-1,0],[0,9E9,9E9,9E9,9E9,9E9]],Work,z1,custom_tool1\WObj:=WObj0;
WaitTime 0.9;
SetDO Stavbar_Gripper_close, 0;
SetDO Stavbar_Gripper_open, 1;
WaitTime 1;
SetDO Stavbar_Gripper_open, 0;
MoveL [[156.31,-623.19,181.5],[0,0.993117,-0.117128,0],[0,-1,-1,0],[0,9E9,9E9,9E9,9E9,9E9]],Work,z1,custom_tool1\WObj:=WObj0;
MoveJ [[464.97,-166.41,291.3],[0,0.998758,0.049832,0],[0,-1,-1,0],[0,9E9,9E9,9E9,9E9,9E9]],Work,z1,custom_tool1\WObj:=WObj0;
MoveJ [[388.69,207.49,294.57],[0,0.98904,0.147646,0],[0,-1,-1,0],[0,9E9,9E9,9E9,9E9,9E9]],Work,z1,custom_tool1\WObj:=WObj0;
MoveJ [[25,420,145.8],[-0.174713,0.907209,0.375778,0.072368],[0,-1,-1,0],[0,9E9,9E9,9E9,9E9,9E9]],Work,z1,custom_tool1\WObj:=WObj0;
MoveL [[25,540,45.8],[-0.174713,0.907209,0.375778,0.072368],[0,-1,-1,0],[0,9E9,9E9,9E9,9E9,9E9]],Work,z1,custom_tool1\WObj:=WObj0;
IF TestDI(Stavbar_opt) THEN
WaitDI Stavbar_opt, 0;
ENDIF
WaitTime 0.9;
SetDO Stavbar_Gripper_open, 0;
SetDO Stavbar_Gripper_close, 1;
WaitTime 1;
MoveL [[25,420,145.8],[-0.174713,0.907209,0.375778,0.072368],[0,-1,-1,0],[0,9E9,9E9,9E9,9E9,9E9]],Work,z1,custom_tool1\WObj:=WObj0;
MoveJ [[388.69,207.49,294.57],[0,0.98904,0.147646,0],[0,-1,-1,0],[0,9E9,9E9,9E9,9E9,9E9]],Work,z1,custom_tool1\WObj:=WObj0;
MoveJ [[450.78,337.68,204.5],[0,0.725904,0.687796,0],[0,-1,-1,0],[0,9E9,9E9,9E9,9E9,9E9]],Work,z1,custom_tool1\WObj:=WObj0;
MoveL [[450.78,337.68,104.5],[0,0.725904,0.687796,0],[0,-1,-1,0],[0,9E9,9E9,9E9,9E9,9E9]],Work,z1,custom_tool1\WObj:=WObj0;
WaitTime 0.9;
SetDO Stavbar_Gripper_close, 0;
SetDO Stavbar_Gripper_open, 1;
WaitTime 1;
SetDO Stavbar_Gripper_open, 0;
MoveL [[450.78,337.68,204.5],[0,0.725904,0.687796,0],[0,-1,-1,0],[0,9E9,9E9,9E9,9E9,9E9]],Work,z1,custom_tool1\WObj:=WObj0;
MoveJ [[388.69,207.49,294.57],[0,0.98904,0.147646,0],[0,-1,-1,0],[0,9E9,9E9,9E9,9E9,9E9]],Work,z1,custom_tool1\WObj:=WObj0;
MoveJ [[25,420,145.8],[-0.174713,0.907209,0.375778,0.072368],[0,-1,-1,0],[0,9E9,9E9,9E9,9E9,9E9]],Work,z1,custom_tool1\WObj:=WObj0;
MoveL [[25,540,45.8],[-0.174713,0.907209,0.375778,0.072368],[0,-1,-1,0],[0,9E9,9E9,9E9,9E9,9E9]],Work,z1,custom_tool1\WObj:=WObj0;
IF TestDI(Stavbar_opt) THEN
WaitDI Stavbar_opt, 0;
ENDIF
WaitTime 0.9;
SetDO Stavbar_Gripper_open, 0;
SetDO Stavbar_Gripper_close, 1;
WaitTime 1;
MoveL [[25,420,145.8],[-0.174713,0.907209,0.375778,0.072368],[0,-1,-1,0],[0,9E9,9E9,9E9,9E9,9E9]],Work,z1,custom_tool1\WObj:=WObj0;
MoveJ [[388.69,207.49,294.57],[0,0.98904,0.147646,0],[0,-1,-1,0],[0,9E9,9E9,9E9,9E9,9E9]],Work,z1,custom_tool1\WObj:=WObj0;
MoveJ [[528.65,238.21,204.5],[0,0.773255,0.634095,0],[0,-1,-1,0],[0,9E9,9E9,9E9,9E9,9E9]],Work,z1,custom_tool1\WObj:=WObj0;
MoveL [[528.65,238.21,104.5],[0,0.773255,0.634095,0],[0,-1,-1,0],[0,9E9,9E9,9E9,9E9,9E9]],Work,z1,custom_tool1\WObj:=WObj0;
WaitTime 0.9;
SetDO Stavbar_Gripper_close, 0;
SetDO Stavbar_Gripper_open, 1;
WaitTime 1;
SetDO Stavbar_Gripper_open, 0;
MoveL [[528.65,238.21,204.5],[0,0.773255,0.634095,0],[0,-1,-1,0],[0,9E9,9E9,9E9,9E9,9E9]],Work,z1,custom_tool1\WObj:=WObj0;
MoveJ [[388.69,207.49,294.57],[0,0.98904,0.147646,0],[0,-1,-1,0],[0,9E9,9E9,9E9,9E9,9E9]],Work,z1,custom_tool1\WObj:=WObj0;
MoveJ [[25,420,145.8],[-0.174713,0.907209,0.375778,0.072368],[0,-1,-1,0],[0,9E9,9E9,9E9,9E9,9E9]],Work,z1,custom_tool1\WObj:=WObj0;
MoveL [[25,540,45.8],[-0.174713,0.907209,0.375778,0.072368],[0,-1,-1,0],[0,9E9,9E9,9E9,9E9,9E9]],Work,z1,custom_tool1\WObj:=WObj0;
IF TestDI(Stavbar_opt) THEN
WaitDI Stavbar_opt, 0;
ENDIF
WaitTime 0.9;
SetDO Stavbar_Gripper_open, 0;
SetDO Stavbar_Gripper_close, 1;
WaitTime 1;
MoveL [[25,420,145.8],[-0.174713,0.907209,0.375778,0.072368],[0,-1,-1,0],[0,9E9,9E9,9E9,9E9,9E9]],Work,z1,custom_tool1\WObj:=WObj0;
MoveJ [[388.69,207.49,294.57],[0,0.98904,0.147646,0],[0,-1,-1,0],[0,9E9,9E9,9E9,9E9,9E9]],Work,z1,custom_tool1\WObj:=WObj0;
MoveJ [[588.19,126.93,204.5],[0,0.834454,0.551078,0],[0,-1,-1,0],[0,9E9,9E9,9E9,9E9,9E9]],Work,z1,custom_tool1\WObj:=WObj0;
MoveL [[588.19,126.93,104.5],[0,0.834454,0.551078,0],[0,-1,-1,0],[0,9E9,9E9,9E9,9E9,9E9]],Work,z1,custom_tool1\WObj:=WObj0;
WaitTime 0.9;
SetDO Stavbar_Gripper_close, 0;
SetDO Stavbar_Gripper_open, 1;
WaitTime 1;
SetDO Stavbar_Gripper_open, 0;
MoveL [[588.19,126.93,204.5],[0,0.834454,0.551078,0],[0,-1,-1,0],[0,9E9,9E9,9E9,9E9,9E9]],Work,z1,custom_tool1\WObj:=WObj0;
MoveJ [[388.69,207.49,294.57],[0,0.98904,0.147646,0],[0,-1,-1,0],[0,9E9,9E9,9E9,9E9,9E9]],Work,z1,custom_tool1\WObj:=WObj0;
MoveJ [[25,420,145.8],[-0.174713,0.907209,0.375778,0.072368],[0,-1,-1,0],[0,9E9,9E9,9E9,9E9,9E9]],Work,z1,custom_tool1\WObj:=WObj0;
MoveL [[25,540,45.8],[-0.174713,0.907209,0.375778,0.072368],[0,-1,-1,0],[0,9E9,9E9,9E9,9E9,9E9]],Work,z1,custom_tool1\WObj:=WObj0;
IF TestDI(Stavbar_opt) THEN
WaitDI Stavbar_opt, 0;
ENDIF
WaitTime 0.9;
SetDO Stavbar_Gripper_open, 0;
SetDO Stavbar_Gripper_close, 1;
WaitTime 1;
MoveL [[25,420,145.8],[-0.174713,0.907209,0.375778,0.072368],[0,-1,-1,0],[0,9E9,9E9,9E9,9E9,9E9]],Work,z1,custom_tool1\WObj:=WObj0;
MoveJ [[388.69,207.49,294.57],[0,0.98904,0.147646,0],[0,-1,-1,0],[0,9E9,9E9,9E9,9E9,9E9]],Work,z1,custom_tool1\WObj:=WObj0;
MoveJ [[618.98,4.74,204.5],[0,0.903547,0.428489,0],[0,-1,-1,0],[0,9E9,9E9,9E9,9E9,9E9]],Work,z1,custom_tool1\WObj:=WObj0;
MoveL [[618.98,4.74,104.5],[0,0.903547,0.428489,0],[0,-1,-1,0],[0,9E9,9E9,9E9,9E9,9E9]],Work,z1,custom_tool1\WObj:=WObj0;
WaitTime 0.9;
SetDO Stavbar_Gripper_close, 0;
SetDO Stavbar_Gripper_open, 1;
WaitTime 1;
SetDO Stavbar_Gripper_open, 0;
MoveL [[618.98,4.74,204.5],[0,0.903547,0.428489,0],[0,-1,-1,0],[0,9E9,9E9,9E9,9E9,9E9]],Work,z1,custom_tool1\WObj:=WObj0;
MoveJ [[388.69,207.49,294.57],[0,0.98904,0.147646,0],[0,-1,-1,0],[0,9E9,9E9,9E9,9E9,9E9]],Work,z1,custom_tool1\WObj:=WObj0;
MoveJ [[25,420,145.8],[-0.174713,0.907209,0.375778,0.072368],[0,-1,-1,0],[0,9E9,9E9,9E9,9E9,9E9]],Work,z1,custom_tool1\WObj:=WObj0;
MoveL [[25,540,45.8],[-0.174713,0.907209,0.375778,0.072368],[0,-1,-1,0],[0,9E9,9E9,9E9,9E9,9E9]],Work,z1,custom_tool1\WObj:=WObj0;
IF TestDI(Stavbar_opt) THEN
WaitDI Stavbar_opt, 0;
ENDIF
WaitTime 0.9;
SetDO Stavbar_Gripper_open, 0;
SetDO Stavbar_Gripper_close, 1;
WaitTime 1;
MoveL [[25,420,145.8],[-0.174713,0.907209,0.375778,0.072368],[0,-1,-1,0],[0,9E9,9E9,9E9,9E9,9E9]],Work,z1,custom_tool1\WObj:=WObj0;
MoveJ [[388.69,207.49,294.57],[0,0.98904,0.147646,0],[0,-1,-1,0],[0,9E9,9E9,9E9,9E9,9E9]],Work,z1,custom_tool1\WObj:=WObj0;
MoveJ [[464.97,-166.41,291.3],[0,0.998758,0.049832,0],[0,-1,-1,0],[0,9E9,9E9,9E9,9E9,9E9]],Work,z1,custom_tool1\WObj:=WObj0;
MoveJ [[611.58,-120.94,204.5],[0,0.959844,0.280536,0],[0,-1,-1,0],[0,9E9,9E9,9E9,9E9,9E9]],Work,z1,custom_tool1\WObj:=WObj0;
MoveL [[611.58,-120.94,104.5],[0,0.959844,0.280536,0],[0,-1,-1,0],[0,9E9,9E9,9E9,9E9,9E9]],Work,z1,custom_tool1\WObj:=WObj0;
WaitTime 0.9;
SetDO Stavbar_Gripper_close, 0;
SetDO Stavbar_Gripper_open, 1;
WaitTime 1;
SetDO Stavbar_Gripper_open, 0;
MoveL [[611.58,-120.94,204.5],[0,0.959844,0.280536,0],[0,-1,-1,0],[0,9E9,9E9,9E9,9E9,9E9]],Work,z1,custom_tool1\WObj:=WObj0;
MoveJ [[464.97,-166.41,291.3],[0,0.998758,0.049832,0],[0,-1,-1,0],[0,9E9,9E9,9E9,9E9,9E9]],Work,z1,custom_tool1\WObj:=WObj0;
MoveJ [[388.69,207.49,294.57],[0,0.98904,0.147646,0],[0,-1,-1,0],[0,9E9,9E9,9E9,9E9,9E9]],Work,z1,custom_tool1\WObj:=WObj0;
MoveJ [[25,420,145.8],[-0.174713,0.907209,0.375778,0.072368],[0,-1,-1,0],[0,9E9,9E9,9E9,9E9,9E9]],Work,z1,custom_tool1\WObj:=WObj0;
MoveL [[25,540,45.8],[-0.174713,0.907209,0.375778,0.072368],[0,-1,-1,0],[0,9E9,9E9,9E9,9E9,9E9]],Work,z1,custom_tool1\WObj:=WObj0;
IF TestDI(Stavbar_opt) THEN
WaitDI Stavbar_opt, 0;
ENDIF
WaitTime 0.9;
SetDO Stavbar_Gripper_open, 0;
SetDO Stavbar_Gripper_close, 1;
WaitTime 1;
MoveL [[25,420,145.8],[-0.174713,0.907209,0.375778,0.072368],[0,-1,-1,0],[0,9E9,9E9,9E9,9E9,9E9]],Work,z1,custom_tool1\WObj:=WObj0;
MoveJ [[388.69,207.49,294.57],[0,0.98904,0.147646,0],[0,-1,-1,0],[0,9E9,9E9,9E9,9E9,9E9]],Work,z1,custom_tool1\WObj:=WObj0;
MoveJ [[464.97,-166.41,291.3],[0,0.998758,0.049832,0],[0,-1,-1,0],[0,9E9,9E9,9E9,9E9,9E9]],Work,z1,custom_tool1\WObj:=WObj0;
MoveJ [[567.3,-238.94,204.5],[0,0.98904,0.147646,0],[0,-1,-1,0],[0,9E9,9E9,9E9,9E9,9E9]],Work,z1,custom_tool1\WObj:=WObj0;
MoveL [[567.3,-238.94,104.5],[0,0.98904,0.147646,0],[0,-1,-1,0],[0,9E9,9E9,9E9,9E9,9E9]],Work,z1,custom_tool1\WObj:=WObj0;
WaitTime 0.9;
SetDO Stavbar_Gripper_close, 0;
SetDO Stavbar_Gripper_open, 1;
WaitTime 1;
SetDO Stavbar_Gripper_open, 0;
MoveL [[567.3,-238.94,204.5],[0,0.98904,0.147646,0],[0,-1,-1,0],[0,9E9,9E9,9E9,9E9,9E9]],Work,z1,custom_tool1\WObj:=WObj0;
MoveJ [[464.97,-166.41,291.3],[0,0.998758,0.049832,0],[0,-1,-1,0],[0,9E9,9E9,9E9,9E9,9E9]],Work,z1,custom_tool1\WObj:=WObj0;
MoveJ [[388.69,207.49,294.57],[0,0.98904,0.147646,0],[0,-1,-1,0],[0,9E9,9E9,9E9,9E9,9E9]],Work,z1,custom_tool1\WObj:=WObj0;
MoveJ [[25,420,145.8],[-0.174713,0.907209,0.375778,0.072368],[0,-1,-1,0],[0,9E9,9E9,9E9,9E9,9E9]],Work,z1,custom_tool1\WObj:=WObj0;
MoveL [[25,540,45.8],[-0.174713,0.907209,0.375778,0.072368],[0,-1,-1,0],[0,9E9,9E9,9E9,9E9,9E9]],Work,z1,custom_tool1\WObj:=WObj0;
IF TestDI(Stavbar_opt) THEN
WaitDI Stavbar_opt, 0;
ENDIF
WaitTime 0.9;
SetDO Stavbar_Gripper_open, 0;
SetDO Stavbar_Gripper_close, 1;
WaitTime 1;
MoveL [[25,420,145.8],[-0.174713,0.907209,0.375778,0.072368],[0,-1,-1,0],[0,9E9,9E9,9E9,9E9,9E9]],Work,z1,custom_tool1\WObj:=WObj0;
MoveJ [[388.69,207.49,294.57],[0,0.98904,0.147646,0],[0,-1,-1,0],[0,9E9,9E9,9E9,9E9,9E9]],Work,z1,custom_tool1\WObj:=WObj0;
MoveJ [[464.97,-166.41,291.3],[0,0.998758,0.049832,0],[0,-1,-1,0],[0,9E9,9E9,9E9,9E9,9E9]],Work,z1,custom_tool1\WObj:=WObj0;
MoveJ [[496.73,-343.6,204.5],[0,0.998758,0.049832,0],[0,-1,-1,0],[0,9E9,9E9,9E9,9E9,9E9]],Work,z1,custom_tool1\WObj:=WObj0;
MoveL [[496.73,-343.6,104.5],[0,0.998758,0.049832,0],[0,-1,-1,0],[0,9E9,9E9,9E9,9E9,9E9]],Work,z1,custom_tool1\WObj:=WObj0;
WaitTime 0.9;
SetDO Stavbar_Gripper_close, 0;
SetDO Stavbar_Gripper_open, 1;
WaitTime 1;
SetDO Stavbar_Gripper_open, 0;
MoveL [[496.73,-343.6,204.5],[0,0.998758,0.049832,0],[0,-1,-1,0],[0,9E9,9E9,9E9,9E9,9E9]],Work,z1,custom_tool1\WObj:=WObj0;
MoveJ [[464.97,-166.41,291.3],[0,0.998758,0.049832,0],[0,-1,-1,0],[0,9E9,9E9,9E9,9E9,9E9]],Work,z1,custom_tool1\WObj:=WObj0;
MoveJ [[388.69,207.49,294.57],[0,0.98904,0.147646,0],[0,-1,-1,0],[0,9E9,9E9,9E9,9E9,9E9]],Work,z1,custom_tool1\WObj:=WObj0;
MoveJ [[25,420,145.8],[-0.174713,0.907209,0.375778,0.072368],[0,-1,-1,0],[0,9E9,9E9,9E9,9E9,9E9]],Work,z1,custom_tool1\WObj:=WObj0;
MoveL [[25,540,45.8],[-0.174713,0.907209,0.375778,0.072368],[0,-1,-1,0],[0,9E9,9E9,9E9,9E9,9E9]],Work,z1,custom_tool1\WObj:=WObj0;
IF TestDI(Stavbar_opt) THEN
WaitDI Stavbar_opt, 0;
ENDIF
WaitTime 0.9;
SetDO Stavbar_Gripper_open, 0;
SetDO Stavbar_Gripper_close, 1;
WaitTime 1;
MoveL [[25,420,145.8],[-0.174713,0.907209,0.375778,0.072368],[0,-1,-1,0],[0,9E9,9E9,9E9,9E9,9E9]],Work,z1,custom_tool1\WObj:=WObj0;
MoveJ [[388.69,207.49,294.57],[0,0.98904,0.147646,0],[0,-1,-1,0],[0,9E9,9E9,9E9,9E9,9E9]],Work,z1,custom_tool1\WObj:=WObj0;
MoveJ [[464.97,-166.41,291.3],[0,0.998758,0.049832,0],[0,-1,-1,0],[0,9E9,9E9,9E9,9E9,9E9]],Work,z1,custom_tool1\WObj:=WObj0;
MoveJ [[409.88,-435.34,204.5],[0,0.999831,-0.018389,0],[0,-1,-1,0],[0,9E9,9E9,9E9,9E9,9E9]],Work,z1,custom_tool1\WObj:=WObj0;
MoveL [[409.88,-435.34,104.5],[0,0.999831,-0.018389,0],[0,-1,-1,0],[0,9E9,9E9,9E9,9E9,9E9]],Work,z1,custom_tool1\WObj:=WObj0;
WaitTime 0.9;
SetDO Stavbar_Gripper_close, 0;
SetDO Stavbar_Gripper_open, 1;
WaitTime 1;
SetDO Stavbar_Gripper_open, 0;
MoveL [[409.88,-435.34,204.5],[0,0.999831,-0.018389,0],[0,-1,-1,0],[0,9E9,9E9,9E9,9E9,9E9]],Work,z1,custom_tool1\WObj:=WObj0;
MoveJ [[464.97,-166.41,291.3],[0,0.998758,0.049832,0],[0,-1,-1,0],[0,9E9,9E9,9E9,9E9,9E9]],Work,z1,custom_tool1\WObj:=WObj0;
MoveJ [[388.69,207.49,294.57],[0,0.98904,0.147646,0],[0,-1,-1,0],[0,9E9,9E9,9E9,9E9,9E9]],Work,z1,custom_tool1\WObj:=WObj0;
MoveJ [[25,420,145.8],[-0.174713,0.907209,0.375778,0.072368],[0,-1,-1,0],[0,9E9,9E9,9E9,9E9,9E9]],Work,z1,custom_tool1\WObj:=WObj0;
MoveL [[25,540,45.8],[-0.174713,0.907209,0.375778,0.072368],[0,-1,-1,0],[0,9E9,9E9,9E9,9E9,9E9]],Work,z1,custom_tool1\WObj:=WObj0;
IF TestDI(Stavbar_opt) THEN
WaitDI Stavbar_opt, 0;
ENDIF
WaitTime 0.9;
SetDO Stavbar_Gripper_open, 0;
SetDO Stavbar_Gripper_close, 1;
WaitTime 1;
MoveL [[25,420,145.8],[-0.174713,0.907209,0.375778,0.072368],[0,-1,-1,0],[0,9E9,9E9,9E9,9E9,9E9]],Work,z1,custom_tool1\WObj:=WObj0;
MoveJ [[388.69,207.49,294.57],[0,0.98904,0.147646,0],[0,-1,-1,0],[0,9E9,9E9,9E9,9E9,9E9]],Work,z1,custom_tool1\WObj:=WObj0;
MoveJ [[464.97,-166.41,291.3],[0,0.998758,0.049832,0],[0,-1,-1,0],[0,9E9,9E9,9E9,9E9,9E9]],Work,z1,custom_tool1\WObj:=WObj0;
MoveJ [[313.01,-516.52,204.5],[0,0.997762,-0.066858,0],[0,-1,-1,0],[0,9E9,9E9,9E9,9E9,9E9]],Work,z1,custom_tool1\WObj:=WObj0;
MoveL [[313.01,-516.52,104.5],[0,0.997762,-0.066858,0],[0,-1,-1,0],[0,9E9,9E9,9E9,9E9,9E9]],Work,z1,custom_tool1\WObj:=WObj0;
WaitTime 0.9;
SetDO Stavbar_Gripper_close, 0;
SetDO Stavbar_Gripper_open, 1;
WaitTime 1;
SetDO Stavbar_Gripper_open, 0;
MoveL [[313.01,-516.52,204.5],[0,0.997762,-0.066858,0],[0,-1,-1,0],[0,9E9,9E9,9E9,9E9,9E9]],Work,z1,custom_tool1\WObj:=WObj0;
MoveJ [[464.97,-166.41,291.3],[0,0.998758,0.049832,0],[0,-1,-1,0],[0,9E9,9E9,9E9,9E9,9E9]],Work,z1,custom_tool1\WObj:=WObj0;
MoveJ [[388.69,207.49,294.57],[0,0.98904,0.147646,0],[0,-1,-1,0],[0,9E9,9E9,9E9,9E9,9E9]],Work,z1,custom_tool1\WObj:=WObj0;
MoveJ [[25,420,145.8],[-0.174713,0.907209,0.375778,0.072368],[0,-1,-1,0],[0,9E9,9E9,9E9,9E9,9E9]],Work,z1,custom_tool1\WObj:=WObj0;
MoveL [[25,540,45.8],[-0.174713,0.907209,0.375778,0.072368],[0,-1,-1,0],[0,9E9,9E9,9E9,9E9,9E9]],Work,z1,custom_tool1\WObj:=WObj0;
IF TestDI(Stavbar_opt) THEN
WaitDI Stavbar_opt, 0;
ENDIF
WaitTime 0.9;
SetDO Stavbar_Gripper_open, 0;
SetDO Stavbar_Gripper_close, 1;
WaitTime 1;
MoveL [[25,420,145.8],[-0.174713,0.907209,0.375778,0.072368],[0,-1,-1,0],[0,9E9,9E9,9E9,9E9,9E9]],Work,z1,custom_tool1\WObj:=WObj0;
MoveJ [[388.69,207.49,294.57],[0,0.98904,0.147646,0],[0,-1,-1,0],[0,9E9,9E9,9E9,9E9,9E9]],Work,z1,custom_tool1\WObj:=WObj0;
MoveJ [[464.97,-166.41,291.3],[0,0.998758,0.049832,0],[0,-1,-1,0],[0,9E9,9E9,9E9,9E9,9E9]],Work,z1,custom_tool1\WObj:=WObj0;
MoveJ [[209.7,-589.35,204.5],[0,0.994723,-0.1026,0],[0,-1,-1,0],[0,9E9,9E9,9E9,9E9,9E9]],Work,z1,custom_tool1\WObj:=WObj0;
MoveL [[209.7,-589.35,104.5],[0,0.994723,-0.1026,0],[0,-1,-1,0],[0,9E9,9E9,9E9,9E9,9E9]],Work,z1,custom_tool1\WObj:=WObj0;
WaitTime 0.9;
SetDO Stavbar_Gripper_close, 0;
SetDO Stavbar_Gripper_open, 1;
WaitTime 1;
SetDO Stavbar_Gripper_open, 0;
MoveL [[209.7,-589.35,204.5],[0,0.994723,-0.1026,0],[0,-1,-1,0],[0,9E9,9E9,9E9,9E9,9E9]],Work,z1,custom_tool1\WObj:=WObj0;
MoveJ [[464.97,-166.41,291.3],[0,0.998758,0.049832,0],[0,-1,-1,0],[0,9E9,9E9,9E9,9E9,9E9]],Work,z1,custom_tool1\WObj:=WObj0;
MoveJ [[388.69,207.49,294.57],[0,0.98904,0.147646,0],[0,-1,-1,0],[0,9E9,9E9,9E9,9E9,9E9]],Work,z1,custom_tool1\WObj:=WObj0;
MoveJ [[25,420,145.8],[-0.174713,0.907209,0.375778,0.072368],[0,-1,-1,0],[0,9E9,9E9,9E9,9E9,9E9]],Work,z1,custom_tool1\WObj:=WObj0;
MoveJ [[-63,420,145.8],[-0.174713,0.907209,0.375778,0.072368],[0,-1,-1,0],[0,9E9,9E9,9E9,9E9,9E9]],Work,z1,custom_tool1\WObj:=WObj0;
MoveL [[-63,540,45.8],[-0.174713,0.907209,0.375778,0.072368],[0,-1,-1,0],[0,9E9,9E9,9E9,9E9,9E9]],Work,z1,custom_tool1\WObj:=WObj0;
IF TestDI(Stavbar_opt) THEN
WaitDI Stavbar_opt, 0;
ENDIF
WaitTime 0.9;
SetDO Stavbar_Gripper_open, 0;
SetDO Stavbar_Gripper_close, 1;
WaitTime 1;
MoveL [[-63,420,145.8],[-0.174713,0.907209,0.375778,0.072368],[0,-1,-1,0],[0,9E9,9E9,9E9,9E9,9E9]],Work,z1,custom_tool1\WObj:=WObj0;
MoveJ [[25,420,145.8],[-0.174713,0.907209,0.375778,0.072368],[0,-1,-1,0],[0,9E9,9E9,9E9,9E9,9E9]],Work,z1,custom_tool1\WObj:=WObj0;
MoveJ [[388.69,207.49,294.57],[0,0.98904,0.147646,0],[0,-1,-1,0],[0,9E9,9E9,9E9,9E9,9E9]],Work,z1,custom_tool1\WObj:=WObj0;
MoveJ [[464.97,-166.41,291.3],[0,0.998758,0.049832,0],[0,-1,-1,0],[0,9E9,9E9,9E9,9E9,9E9]],Work,z1,custom_tool1\WObj:=WObj0;
MoveJ [[142.67,-631.56,204.5],[0,0.993117,-0.117128,0],[0,-1,-1,0],[0,9E9,9E9,9E9,9E9,9E9]],Work,z1,custom_tool1\WObj:=WObj0;
MoveL [[142.67,-631.56,104.5],[0,0.993117,-0.117128,0],[0,-1,-1,0],[0,9E9,9E9,9E9,9E9,9E9]],Work,z1,custom_tool1\WObj:=WObj0;
WaitTime 0.9;
SetDO Stavbar_Gripper_close, 0;
SetDO Stavbar_Gripper_open, 1;
WaitTime 1;
SetDO Stavbar_Gripper_open, 0;
MoveL [[142.67,-631.56,204.5],[0,0.993117,-0.117128,0],[0,-1,-1,0],[0,9E9,9E9,9E9,9E9,9E9]],Work,z1,custom_tool1\WObj:=WObj0;
MoveJ [[464.97,-166.41,291.3],[0,0.998758,0.049832,0],[0,-1,-1,0],[0,9E9,9E9,9E9,9E9,9E9]],Work,z1,custom_tool1\WObj:=WObj0;
MoveJ [[388.69,207.49,294.57],[0,0.98904,0.147646,0],[0,-1,-1,0],[0,9E9,9E9,9E9,9E9,9E9]],Work,z1,custom_tool1\WObj:=WObj0;
MoveJ [[25,420,145.8],[-0.174713,0.907209,0.375778,0.072368],[0,-1,-1,0],[0,9E9,9E9,9E9,9E9,9E9]],Work,z1,custom_tool1\WObj:=WObj0;
MoveJ [[-63,420,145.8],[-0.174713,0.907209,0.375778,0.072368],[0,-1,-1,0],[0,9E9,9E9,9E9,9E9,9E9]],Work,z1,custom_tool1\WObj:=WObj0;
MoveL [[-63,540,45.8],[-0.174713,0.907209,0.375778,0.072368],[0,-1,-1,0],[0,9E9,9E9,9E9,9E9,9E9]],Work,z1,custom_tool1\WObj:=WObj0;
IF TestDI(Stavbar_opt) THEN
WaitDI Stavbar_opt, 0;
ENDIF
WaitTime 0.9;
SetDO Stavbar_Gripper_open, 0;
SetDO Stavbar_Gripper_close, 1;
WaitTime 1;
MoveL [[-63,420,145.8],[-0.174713,0.907209,0.375778,0.072368],[0,-1,-1,0],[0,9E9,9E9,9E9,9E9,9E9]],Work,z1,custom_tool1\WObj:=WObj0;
MoveJ [[25,420,145.8],[-0.174713,0.907209,0.375778,0.072368],[0,-1,-1,0],[0,9E9,9E9,9E9,9E9,9E9]],Work,z1,custom_tool1\WObj:=WObj0;
MoveJ [[388.69,207.49,294.57],[0,0.98904,0.147646,0],[0,-1,-1,0],[0,9E9,9E9,9E9,9E9,9E9]],Work,z1,custom_tool1\WObj:=WObj0;
MoveJ [[440.09,349.59,227.5],[0,0.725904,0.687796,0],[0,-1,-1,0],[0,9E9,9E9,9E9,9E9,9E9]],Work,z1,custom_tool1\WObj:=WObj0;
MoveL [[440.09,349.59,127.5],[0,0.725904,0.687796,0],[0,-1,-1,0],[0,9E9,9E9,9E9,9E9,9E9]],Work,z1,custom_tool1\WObj:=WObj0;
WaitTime 0.9;
SetDO Stavbar_Gripper_close, 0;
SetDO Stavbar_Gripper_open, 1;
WaitTime 1;
SetDO Stavbar_Gripper_open, 0;
MoveL [[440.09,349.59,227.5],[0,0.725904,0.687796,0],[0,-1,-1,0],[0,9E9,9E9,9E9,9E9,9E9]],Work,z1,custom_tool1\WObj:=WObj0;
MoveJ [[388.69,207.49,294.57],[0,0.98904,0.147646,0],[0,-1,-1,0],[0,9E9,9E9,9E9,9E9,9E9]],Work,z1,custom_tool1\WObj:=WObj0;
MoveJ [[25,420,145.8],[-0.174713,0.907209,0.375778,0.072368],[0,-1,-1,0],[0,9E9,9E9,9E9,9E9,9E9]],Work,z1,custom_tool1\WObj:=WObj0;
MoveL [[25,540,45.8],[-0.174713,0.907209,0.375778,0.072368],[0,-1,-1,0],[0,9E9,9E9,9E9,9E9,9E9]],Work,z1,custom_tool1\WObj:=WObj0;
IF TestDI(Stavbar_opt) THEN
WaitDI Stavbar_opt, 0;
ENDIF
WaitTime 0.9;
SetDO Stavbar_Gripper_open, 0;
SetDO Stavbar_Gripper_close, 1;
WaitTime 1;
MoveL [[25,420,145.8],[-0.174713,0.907209,0.375778,0.072368],[0,-1,-1,0],[0,9E9,9E9,9E9,9E9,9E9]],Work,z1,custom_tool1\WObj:=WObj0;
MoveJ [[388.69,207.49,294.57],[0,0.98904,0.147646,0],[0,-1,-1,0],[0,9E9,9E9,9E9,9E9,9E9]],Work,z1,custom_tool1\WObj:=WObj0;
MoveJ [[491.49,289.34,227.5],[0,0.747919,0.66379,0],[0,-1,-1,0],[0,9E9,9E9,9E9,9E9,9E9]],Work,z1,custom_tool1\WObj:=WObj0;
MoveL [[491.49,289.34,127.5],[0,0.747919,0.66379,0],[0,-1,-1,0],[0,9E9,9E9,9E9,9E9,9E9]],Work,z1,custom_tool1\WObj:=WObj0;
WaitTime 0.9;
SetDO Stavbar_Gripper_close, 0;
SetDO Stavbar_Gripper_open, 1;
WaitTime 1;
SetDO Stavbar_Gripper_open, 0;
MoveL [[491.49,289.34,227.5],[0,0.747919,0.66379,0],[0,-1,-1,0],[0,9E9,9E9,9E9,9E9,9E9]],Work,z1,custom_tool1\WObj:=WObj0;
MoveJ [[388.69,207.49,294.57],[0,0.98904,0.147646,0],[0,-1,-1,0],[0,9E9,9E9,9E9,9E9,9E9]],Work,z1,custom_tool1\WObj:=WObj0;
MoveJ [[25,420,145.8],[-0.174713,0.907209,0.375778,0.072368],[0,-1,-1,0],[0,9E9,9E9,9E9,9E9,9E9]],Work,z1,custom_tool1\WObj:=WObj0;
MoveL [[25,540,45.8],[-0.174713,0.907209,0.375778,0.072368],[0,-1,-1,0],[0,9E9,9E9,9E9,9E9,9E9]],Work,z1,custom_tool1\WObj:=WObj0;
IF TestDI(Stavbar_opt) THEN
WaitDI Stavbar_opt, 0;
ENDIF
WaitTime 0.9;
SetDO Stavbar_Gripper_open, 0;
SetDO Stavbar_Gripper_close, 1;
WaitTime 1;
MoveL [[25,420,145.8],[-0.174713,0.907209,0.375778,0.072368],[0,-1,-1,0],[0,9E9,9E9,9E9,9E9,9E9]],Work,z1,custom_tool1\WObj:=WObj0;
MoveJ [[388.69,207.49,294.57],[0,0.98904,0.147646,0],[0,-1,-1,0],[0,9E9,9E9,9E9,9E9,9E9]],Work,z1,custom_tool1\WObj:=WObj0;
MoveJ [[561.29,184.1,227.5],[0,0.802166,0.597101,0],[0,-1,-1,0],[0,9E9,9E9,9E9,9E9,9E9]],Work,z1,custom_tool1\WObj:=WObj0;
MoveL [[561.29,184.1,127.5],[0,0.802166,0.597101,0],[0,-1,-1,0],[0,9E9,9E9,9E9,9E9,9E9]],Work,z1,custom_tool1\WObj:=WObj0;
WaitTime 0.9;
SetDO Stavbar_Gripper_close, 0;
SetDO Stavbar_Gripper_open, 1;
WaitTime 1;
SetDO Stavbar_Gripper_open, 0;
MoveL [[561.29,184.1,227.5],[0,0.802166,0.597101,0],[0,-1,-1,0],[0,9E9,9E9,9E9,9E9,9E9]],Work,z1,custom_tool1\WObj:=WObj0;
MoveJ [[388.69,207.49,294.57],[0,0.98904,0.147646,0],[0,-1,-1,0],[0,9E9,9E9,9E9,9E9,9E9]],Work,z1,custom_tool1\WObj:=WObj0;
MoveJ [[25,420,145.8],[-0.174713,0.907209,0.375778,0.072368],[0,-1,-1,0],[0,9E9,9E9,9E9,9E9,9E9]],Work,z1,custom_tool1\WObj:=WObj0;
MoveL [[25,540,45.8],[-0.174713,0.907209,0.375778,0.072368],[0,-1,-1,0],[0,9E9,9E9,9E9,9E9,9E9]],Work,z1,custom_tool1\WObj:=WObj0;
IF TestDI(Stavbar_opt) THEN
WaitDI Stavbar_opt, 0;
ENDIF
WaitTime 0.9;
SetDO Stavbar_Gripper_open, 0;
SetDO Stavbar_Gripper_close, 1;
WaitTime 1;
MoveL [[25,420,145.8],[-0.174713,0.907209,0.375778,0.072368],[0,-1,-1,0],[0,9E9,9E9,9E9,9E9,9E9]],Work,z1,custom_tool1\WObj:=WObj0;
MoveJ [[388.69,207.49,294.57],[0,0.98904,0.147646,0],[0,-1,-1,0],[0,9E9,9E9,9E9,9E9,9E9]],Work,z1,custom_tool1\WObj:=WObj0;
MoveJ [[607.91,66.92,227.5],[0,0.869026,0.494767,0],[0,-1,-1,0],[0,9E9,9E9,9E9,9E9,9E9]],Work,z1,custom_tool1\WObj:=WObj0;
MoveL [[607.91,66.92,127.5],[0,0.869026,0.494767,0],[0,-1,-1,0],[0,9E9,9E9,9E9,9E9,9E9]],Work,z1,custom_tool1\WObj:=WObj0;
WaitTime 0.9;
SetDO Stavbar_Gripper_close, 0;
SetDO Stavbar_Gripper_open, 1;
WaitTime 1;
SetDO Stavbar_Gripper_open, 0;
MoveL [[607.91,66.92,227.5],[0,0.869026,0.494767,0],[0,-1,-1,0],[0,9E9,9E9,9E9,9E9,9E9]],Work,z1,custom_tool1\WObj:=WObj0;
MoveJ [[388.69,207.49,294.57],[0,0.98904,0.147646,0],[0,-1,-1,0],[0,9E9,9E9,9E9,9E9,9E9]],Work,z1,custom_tool1\WObj:=WObj0;
MoveJ [[25,420,145.8],[-0.174713,0.907209,0.375778,0.072368],[0,-1,-1,0],[0,9E9,9E9,9E9,9E9,9E9]],Work,z1,custom_tool1\WObj:=WObj0;
MoveL [[25,540,45.8],[-0.174713,0.907209,0.375778,0.072368],[0,-1,-1,0],[0,9E9,9E9,9E9,9E9,9E9]],Work,z1,custom_tool1\WObj:=WObj0;
IF TestDI(Stavbar_opt) THEN
WaitDI Stavbar_opt, 0;
ENDIF
WaitTime 0.9;
SetDO Stavbar_Gripper_open, 0;
SetDO Stavbar_Gripper_close, 1;
WaitTime 1;
MoveL [[25,420,145.8],[-0.174713,0.907209,0.375778,0.072368],[0,-1,-1,0],[0,9E9,9E9,9E9,9E9,9E9]],Work,z1,custom_tool1\WObj:=WObj0;
MoveJ [[388.69,207.49,294.57],[0,0.98904,0.147646,0],[0,-1,-1,0],[0,9E9,9E9,9E9,9E9,9E9]],Work,z1,custom_tool1\WObj:=WObj0;
MoveJ [[464.97,-166.41,291.3],[0,0.998758,0.049832,0],[0,-1,-1,0],[0,9E9,9E9,9E9,9E9,9E9]],Work,z1,custom_tool1\WObj:=WObj0;
MoveJ [[620.3,-58.39,227.5],[0,0.934769,0.355255,0],[0,-1,-1,0],[0,9E9,9E9,9E9,9E9,9E9]],Work,z1,custom_tool1\WObj:=WObj0;
MoveL [[620.3,-58.39,127.5],[0,0.934769,0.355255,0],[0,-1,-1,0],[0,9E9,9E9,9E9,9E9,9E9]],Work,z1,custom_tool1\WObj:=WObj0;
WaitTime 0.9;
SetDO Stavbar_Gripper_close, 0;
SetDO Stavbar_Gripper_open, 1;
WaitTime 1;
SetDO Stavbar_Gripper_open, 0;
MoveL [[620.3,-58.39,227.5],[0,0.934769,0.355255,0],[0,-1,-1,0],[0,9E9,9E9,9E9,9E9,9E9]],Work,z1,custom_tool1\WObj:=WObj0;
MoveJ [[464.97,-166.41,291.3],[0,0.998758,0.049832,0],[0,-1,-1,0],[0,9E9,9E9,9E9,9E9,9E9]],Work,z1,custom_tool1\WObj:=WObj0;
MoveJ [[388.69,207.49,294.57],[0,0.98904,0.147646,0],[0,-1,-1,0],[0,9E9,9E9,9E9,9E9,9E9]],Work,z1,custom_tool1\WObj:=WObj0;
MoveJ [[25,420,145.8],[-0.174713,0.907209,0.375778,0.072368],[0,-1,-1,0],[0,9E9,9E9,9E9,9E9,9E9]],Work,z1,custom_tool1\WObj:=WObj0;
MoveL [[25,540,45.8],[-0.174713,0.907209,0.375778,0.072368],[0,-1,-1,0],[0,9E9,9E9,9E9,9E9,9E9]],Work,z1,custom_tool1\WObj:=WObj0;
IF TestDI(Stavbar_opt) THEN
WaitDI Stavbar_opt, 0;
ENDIF
WaitTime 0.9;
SetDO Stavbar_Gripper_open, 0;
SetDO Stavbar_Gripper_close, 1;
WaitTime 1;
MoveL [[25,420,145.8],[-0.174713,0.907209,0.375778,0.072368],[0,-1,-1,0],[0,9E9,9E9,9E9,9E9,9E9]],Work,z1,custom_tool1\WObj:=WObj0;
MoveJ [[388.69,207.49,294.57],[0,0.98904,0.147646,0],[0,-1,-1,0],[0,9E9,9E9,9E9,9E9,9E9]],Work,z1,custom_tool1\WObj:=WObj0;
MoveJ [[464.97,-166.41,291.3],[0,0.998758,0.049832,0],[0,-1,-1,0],[0,9E9,9E9,9E9,9E9,9E9]],Work,z1,custom_tool1\WObj:=WObj0;
MoveJ [[593.48,-181.45,227.5],[0,0.977683,0.210085,0],[0,-1,-1,0],[0,9E9,9E9,9E9,9E9,9E9]],Work,z1,custom_tool1\WObj:=WObj0;
MoveL [[593.48,-181.45,127.5],[0,0.977683,0.210085,0],[0,-1,-1,0],[0,9E9,9E9,9E9,9E9,9E9]],Work,z1,custom_tool1\WObj:=WObj0;
WaitTime 0.9;
SetDO Stavbar_Gripper_close, 0;
SetDO Stavbar_Gripper_open, 1;
WaitTime 1;
SetDO Stavbar_Gripper_open, 0;
MoveL [[593.48,-181.45,227.5],[0,0.977683,0.210085,0],[0,-1,-1,0],[0,9E9,9E9,9E9,9E9,9E9]],Work,z1,custom_tool1\WObj:=WObj0;
MoveJ [[464.97,-166.41,291.3],[0,0.998758,0.049832,0],[0,-1,-1,0],[0,9E9,9E9,9E9,9E9,9E9]],Work,z1,custom_tool1\WObj:=WObj0;
MoveJ [[388.69,207.49,294.57],[0,0.98904,0.147646,0],[0,-1,-1,0],[0,9E9,9E9,9E9,9E9,9E9]],Work,z1,custom_tool1\WObj:=WObj0;
MoveJ [[25,420,145.8],[-0.174713,0.907209,0.375778,0.072368],[0,-1,-1,0],[0,9E9,9E9,9E9,9E9,9E9]],Work,z1,custom_tool1\WObj:=WObj0;
MoveL [[25,540,45.8],[-0.174713,0.907209,0.375778,0.072368],[0,-1,-1,0],[0,9E9,9E9,9E9,9E9,9E9]],Work,z1,custom_tool1\WObj:=WObj0;
IF TestDI(Stavbar_opt) THEN
WaitDI Stavbar_opt, 0;
ENDIF
WaitTime 0.9;
SetDO Stavbar_Gripper_open, 0;
SetDO Stavbar_Gripper_close, 1;
WaitTime 1;
MoveL [[25,420,145.8],[-0.174713,0.907209,0.375778,0.072368],[0,-1,-1,0],[0,9E9,9E9,9E9,9E9,9E9]],Work,z1,custom_tool1\WObj:=WObj0;
MoveJ [[388.69,207.49,294.57],[0,0.98904,0.147646,0],[0,-1,-1,0],[0,9E9,9E9,9E9,9E9,9E9]],Work,z1,custom_tool1\WObj:=WObj0;
MoveJ [[464.97,-166.41,291.3],[0,0.998758,0.049832,0],[0,-1,-1,0],[0,9E9,9E9,9E9,9E9,9E9]],Work,z1,custom_tool1\WObj:=WObj0;
MoveJ [[534.59,-293,227.5],[0,0.995534,0.094405,0],[0,-1,-1,0],[0,9E9,9E9,9E9,9E9,9E9]],Work,z1,custom_tool1\WObj:=WObj0;
MoveL [[534.59,-293,127.5],[0,0.995534,0.094405,0],[0,-1,-1,0],[0,9E9,9E9,9E9,9E9,9E9]],Work,z1,custom_tool1\WObj:=WObj0;
WaitTime 0.9;
SetDO Stavbar_Gripper_close, 0;
SetDO Stavbar_Gripper_open, 1;
WaitTime 1;
SetDO Stavbar_Gripper_open, 0;
MoveL [[534.59,-293,227.5],[0,0.995534,0.094405,0],[0,-1,-1,0],[0,9E9,9E9,9E9,9E9,9E9]],Work,z1,custom_tool1\WObj:=WObj0;
MoveJ [[464.97,-166.41,291.3],[0,0.998758,0.049832,0],[0,-1,-1,0],[0,9E9,9E9,9E9,9E9,9E9]],Work,z1,custom_tool1\WObj:=WObj0;
MoveJ [[388.69,207.49,294.57],[0,0.98904,0.147646,0],[0,-1,-1,0],[0,9E9,9E9,9E9,9E9,9E9]],Work,z1,custom_tool1\WObj:=WObj0;
MoveJ [[25,420,145.8],[-0.174713,0.907209,0.375778,0.072368],[0,-1,-1,0],[0,9E9,9E9,9E9,9E9,9E9]],Work,z1,custom_tool1\WObj:=WObj0;
MoveL [[25,540,45.8],[-0.174713,0.907209,0.375778,0.072368],[0,-1,-1,0],[0,9E9,9E9,9E9,9E9,9E9]],Work,z1,custom_tool1\WObj:=WObj0;
IF TestDI(Stavbar_opt) THEN
WaitDI Stavbar_opt, 0;
ENDIF
WaitTime 0.9;
SetDO Stavbar_Gripper_open, 0;
SetDO Stavbar_Gripper_close, 1;
WaitTime 1;
MoveL [[25,420,145.8],[-0.174713,0.907209,0.375778,0.072368],[0,-1,-1,0],[0,9E9,9E9,9E9,9E9,9E9]],Work,z1,custom_tool1\WObj:=WObj0;
MoveJ [[388.69,207.49,294.57],[0,0.98904,0.147646,0],[0,-1,-1,0],[0,9E9,9E9,9E9,9E9,9E9]],Work,z1,custom_tool1\WObj:=WObj0;
MoveJ [[464.97,-166.41,291.3],[0,0.998758,0.049832,0],[0,-1,-1,0],[0,9E9,9E9,9E9,9E9,9E9]],Work,z1,custom_tool1\WObj:=WObj0;
MoveJ [[454.87,-390.94,227.5],[0,0.99992,0.012683,0],[0,-1,-1,0],[0,9E9,9E9,9E9,9E9,9E9]],Work,z1,custom_tool1\WObj:=WObj0;
MoveL [[454.87,-390.94,127.5],[0,0.99992,0.012683,0],[0,-1,-1,0],[0,9E9,9E9,9E9,9E9,9E9]],Work,z1,custom_tool1\WObj:=WObj0;
WaitTime 0.9;
SetDO Stavbar_Gripper_close, 0;
SetDO Stavbar_Gripper_open, 1;
WaitTime 1;
SetDO Stavbar_Gripper_open, 0;
MoveL [[454.87,-390.94,227.5],[0,0.99992,0.012683,0],[0,-1,-1,0],[0,9E9,9E9,9E9,9E9,9E9]],Work,z1,custom_tool1\WObj:=WObj0;
MoveJ [[464.97,-166.41,291.3],[0,0.998758,0.049832,0],[0,-1,-1,0],[0,9E9,9E9,9E9,9E9,9E9]],Work,z1,custom_tool1\WObj:=WObj0;
MoveJ [[388.69,207.49,294.57],[0,0.98904,0.147646,0],[0,-1,-1,0],[0,9E9,9E9,9E9,9E9,9E9]],Work,z1,custom_tool1\WObj:=WObj0;
MoveJ [[25,420,145.8],[-0.174713,0.907209,0.375778,0.072368],[0,-1,-1,0],[0,9E9,9E9,9E9,9E9,9E9]],Work,z1,custom_tool1\WObj:=WObj0;
MoveL [[25,540,45.8],[-0.174713,0.907209,0.375778,0.072368],[0,-1,-1,0],[0,9E9,9E9,9E9,9E9,9E9]],Work,z1,custom_tool1\WObj:=WObj0;
IF TestDI(Stavbar_opt) THEN
WaitDI Stavbar_opt, 0;
ENDIF
WaitTime 0.9;
SetDO Stavbar_Gripper_open, 0;
SetDO Stavbar_Gripper_close, 1;
WaitTime 1;
MoveL [[25,420,145.8],[-0.174713,0.907209,0.375778,0.072368],[0,-1,-1,0],[0,9E9,9E9,9E9,9E9,9E9]],Work,z1,custom_tool1\WObj:=WObj0;
MoveJ [[388.69,207.49,294.57],[0,0.98904,0.147646,0],[0,-1,-1,0],[0,9E9,9E9,9E9,9E9,9E9]],Work,z1,custom_tool1\WObj:=WObj0;
MoveJ [[464.97,-166.41,291.3],[0,0.998758,0.049832,0],[0,-1,-1,0],[0,9E9,9E9,9E9,9E9,9E9]],Work,z1,custom_tool1\WObj:=WObj0;
MoveJ [[362.43,-477.1,227.5],[0,0.999006,-0.044578,0],[0,-1,-1,0],[0,9E9,9E9,9E9,9E9,9E9]],Work,z1,custom_tool1\WObj:=WObj0;
MoveL [[362.43,-477.1,127.5],[0,0.999006,-0.044578,0],[0,-1,-1,0],[0,9E9,9E9,9E9,9E9,9E9]],Work,z1,custom_tool1\WObj:=WObj0;
WaitTime 0.9;
SetDO Stavbar_Gripper_close, 0;
SetDO Stavbar_Gripper_open, 1;
WaitTime 1;
SetDO Stavbar_Gripper_open, 0;
MoveL [[362.43,-477.1,227.5],[0,0.999006,-0.044578,0],[0,-1,-1,0],[0,9E9,9E9,9E9,9E9,9E9]],Work,z1,custom_tool1\WObj:=WObj0;
MoveJ [[464.97,-166.41,291.3],[0,0.998758,0.049832,0],[0,-1,-1,0],[0,9E9,9E9,9E9,9E9,9E9]],Work,z1,custom_tool1\WObj:=WObj0;
MoveJ [[388.69,207.49,294.57],[0,0.98904,0.147646,0],[0,-1,-1,0],[0,9E9,9E9,9E9,9E9,9E9]],Work,z1,custom_tool1\WObj:=WObj0;
MoveJ [[25,420,145.8],[-0.174713,0.907209,0.375778,0.072368],[0,-1,-1,0],[0,9E9,9E9,9E9,9E9,9E9]],Work,z1,custom_tool1\WObj:=WObj0;
MoveL [[25,540,45.8],[-0.174713,0.907209,0.375778,0.072368],[0,-1,-1,0],[0,9E9,9E9,9E9,9E9,9E9]],Work,z1,custom_tool1\WObj:=WObj0;
IF TestDI(Stavbar_opt) THEN
WaitDI Stavbar_opt, 0;
ENDIF
WaitTime 0.9;
SetDO Stavbar_Gripper_open, 0;
SetDO Stavbar_Gripper_close, 1;
WaitTime 1;
MoveL [[25,420,145.8],[-0.174713,0.907209,0.375778,0.072368],[0,-1,-1,0],[0,9E9,9E9,9E9,9E9,9E9]],Work,z1,custom_tool1\WObj:=WObj0;
MoveJ [[388.69,207.49,294.57],[0,0.98904,0.147646,0],[0,-1,-1,0],[0,9E9,9E9,9E9,9E9,9E9]],Work,z1,custom_tool1\WObj:=WObj0;
MoveJ [[464.97,-166.41,291.3],[0,0.998758,0.049832,0],[0,-1,-1,0],[0,9E9,9E9,9E9,9E9,9E9]],Work,z1,custom_tool1\WObj:=WObj0;
MoveJ [[262.01,-553.86,227.5],[0,0.996295,-0.085999,0],[0,-1,-1,0],[0,9E9,9E9,9E9,9E9,9E9]],Work,z1,custom_tool1\WObj:=WObj0;
MoveL [[262.01,-553.86,127.5],[0,0.996295,-0.085999,0],[0,-1,-1,0],[0,9E9,9E9,9E9,9E9,9E9]],Work,z1,custom_tool1\WObj:=WObj0;
WaitTime 0.9;
SetDO Stavbar_Gripper_close, 0;
SetDO Stavbar_Gripper_open, 1;
WaitTime 1;
SetDO Stavbar_Gripper_open, 0;
MoveL [[262.01,-553.86,227.5],[0,0.996295,-0.085999,0],[0,-1,-1,0],[0,9E9,9E9,9E9,9E9,9E9]],Work,z1,custom_tool1\WObj:=WObj0;
MoveJ [[464.97,-166.41,291.3],[0,0.998758,0.049832,0],[0,-1,-1,0],[0,9E9,9E9,9E9,9E9,9E9]],Work,z1,custom_tool1\WObj:=WObj0;
MoveJ [[388.69,207.49,294.57],[0,0.98904,0.147646,0],[0,-1,-1,0],[0,9E9,9E9,9E9,9E9,9E9]],Work,z1,custom_tool1\WObj:=WObj0;
MoveJ [[25,420,145.8],[-0.174713,0.907209,0.375778,0.072368],[0,-1,-1,0],[0,9E9,9E9,9E9,9E9,9E9]],Work,z1,custom_tool1\WObj:=WObj0;
MoveL [[25,540,45.8],[-0.174713,0.907209,0.375778,0.072368],[0,-1,-1,0],[0,9E9,9E9,9E9,9E9,9E9]],Work,z1,custom_tool1\WObj:=WObj0;
IF TestDI(Stavbar_opt) THEN
WaitDI Stavbar_opt, 0;
ENDIF
WaitTime 0.9;
SetDO Stavbar_Gripper_open, 0;
SetDO Stavbar_Gripper_close, 1;
WaitTime 1;
MoveL [[25,420,145.8],[-0.174713,0.907209,0.375778,0.072368],[0,-1,-1,0],[0,9E9,9E9,9E9,9E9,9E9]],Work,z1,custom_tool1\WObj:=WObj0;
MoveJ [[388.69,207.49,294.57],[0,0.98904,0.147646,0],[0,-1,-1,0],[0,9E9,9E9,9E9,9E9,9E9]],Work,z1,custom_tool1\WObj:=WObj0;
MoveJ [[464.97,-166.41,291.3],[0,0.998758,0.049832,0],[0,-1,-1,0],[0,9E9,9E9,9E9,9E9,9E9]],Work,z1,custom_tool1\WObj:=WObj0;
MoveJ [[156.31,-623.19,227.5],[0,0.993117,-0.117128,0],[0,-1,-1,0],[0,9E9,9E9,9E9,9E9,9E9]],Work,z1,custom_tool1\WObj:=WObj0;
MoveL [[156.31,-623.19,127.5],[0,0.993117,-0.117128,0],[0,-1,-1,0],[0,9E9,9E9,9E9,9E9,9E9]],Work,z1,custom_tool1\WObj:=WObj0;
WaitTime 0.9;
SetDO Stavbar_Gripper_close, 0;
SetDO Stavbar_Gripper_open, 1;
WaitTime 1;
SetDO Stavbar_Gripper_open, 0;
MoveL [[156.31,-623.19,227.5],[0,0.993117,-0.117128,0],[0,-1,-1,0],[0,9E9,9E9,9E9,9E9,9E9]],Work,z1,custom_tool1\WObj:=WObj0;
MoveJ [[464.97,-166.41,291.3],[0,0.998758,0.049832,0],[0,-1,-1,0],[0,9E9,9E9,9E9,9E9,9E9]],Work,z1,custom_tool1\WObj:=WObj0;
MoveJ [[388.69,207.49,294.57],[0,0.98904,0.147646,0],[0,-1,-1,0],[0,9E9,9E9,9E9,9E9,9E9]],Work,z1,custom_tool1\WObj:=WObj0;
MoveJ [[25,420,145.8],[-0.174713,0.907209,0.375778,0.072368],[0,-1,-1,0],[0,9E9,9E9,9E9,9E9,9E9]],Work,z1,custom_tool1\WObj:=WObj0;
MoveL [[25,540,45.8],[-0.174713,0.907209,0.375778,0.072368],[0,-1,-1,0],[0,9E9,9E9,9E9,9E9,9E9]],Work,z1,custom_tool1\WObj:=WObj0;
IF TestDI(Stavbar_opt) THEN
WaitDI Stavbar_opt, 0;
ENDIF
WaitTime 0.9;
SetDO Stavbar_Gripper_open, 0;
SetDO Stavbar_Gripper_close, 1;
WaitTime 1;
MoveL [[25,420,145.8],[-0.174713,0.907209,0.375778,0.072368],[0,-1,-1,0],[0,9E9,9E9,9E9,9E9,9E9]],Work,z1,custom_tool1\WObj:=WObj0;
MoveJ [[388.69,207.49,294.57],[0,0.98904,0.147646,0],[0,-1,-1,0],[0,9E9,9E9,9E9,9E9,9E9]],Work,z1,custom_tool1\WObj:=WObj0;
MoveJ [[450.78,337.68,250.5],[0,0.725904,0.687796,0],[0,-1,-1,0],[0,9E9,9E9,9E9,9E9,9E9]],Work,z1,custom_tool1\WObj:=WObj0;
MoveL [[450.78,337.68,150.5],[0,0.725904,0.687796,0],[0,-1,-1,0],[0,9E9,9E9,9E9,9E9,9E9]],Work,z1,custom_tool1\WObj:=WObj0;
WaitTime 0.9;
SetDO Stavbar_Gripper_close, 0;
SetDO Stavbar_Gripper_open, 1;
WaitTime 1;
SetDO Stavbar_Gripper_open, 0;
MoveL [[450.78,337.68,250.5],[0,0.725904,0.687796,0],[0,-1,-1,0],[0,9E9,9E9,9E9,9E9,9E9]],Work,z1,custom_tool1\WObj:=WObj0;
MoveJ [[388.69,207.49,294.57],[0,0.98904,0.147646,0],[0,-1,-1,0],[0,9E9,9E9,9E9,9E9,9E9]],Work,z1,custom_tool1\WObj:=WObj0;
MoveJ [[25,420,145.8],[-0.174713,0.907209,0.375778,0.072368],[0,-1,-1,0],[0,9E9,9E9,9E9,9E9,9E9]],Work,z1,custom_tool1\WObj:=WObj0;
MoveL [[25,540,45.8],[-0.174713,0.907209,0.375778,0.072368],[0,-1,-1,0],[0,9E9,9E9,9E9,9E9,9E9]],Work,z1,custom_tool1\WObj:=WObj0;
IF TestDI(Stavbar_opt) THEN
WaitDI Stavbar_opt, 0;
ENDIF
WaitTime 0.9;
SetDO Stavbar_Gripper_open, 0;
