MODULE MainModule
VAR speeddata Work:= [100,20,5000,1000];
PERS tooldata custom_tool1 := [TRUE, [[-144.18,-154.4,34.77], [0.707107,0.5,-0.5,0]], [0.1,[0.10,0.00,0.00],[1,0,0,0],0,0,0]];
PROC Main()
ConfL \Off;
ConfJ \Off;
MoveJ [[25,420,145.8],[-0.174713,0.907209,0.375778,0.072368],[0,-1,-1,0],[0,9E9,9E9,9E9,9E9,9E9]],Work,z1,custom_tool1\WObj:=WObj0;
MoveL [[25,540,45.8],[-0.174713,0.907209,0.375778,0.072368],[0,-1,-1,0],[0,9E9,9E9,9E9,9E9,9E9]],Work,z1,custom_tool1\WObj:=WObj0;
IF TestDI(Stavbar_opt) THEN
WaitDI Stavbar_opt, 0;
ENDIF
WaitTime 0.9;
SetDO Stavbar_Gripper_open, 0;
SetDO Stavbar_Gripper_close, 1;
WaitTime 1;
MoveL [[25,420,145.8],[-0.174713,0.907209,0.375778,0.072368],[0,-1,-1,0],[0,9E9,9E9,9E9,9E9,9E9]],Work,z1,custom_tool1\WObj:=WObj0;
MoveJ [[495.53,253.62,251.91],[0,0.989211,0.146497,0],[0,-1,-1,0],[0,9E9,9E9,9E9,9E9,9E9]],Work,z1,custom_tool1\WObj:=WObj0;
MoveJ [[363.58,223.42,112.5],[0,0.627838,0.778344,0],[0,-1,-1,0],[0,9E9,9E9,9E9,9E9,9E9]],Work,z1,custom_tool1\WObj:=WObj0;
MoveL [[363.58,223.42,12.5],[0,0.627838,0.778344,0],[0,-1,-1,0],[0,9E9,9E9,9E9,9E9,9E9]],Work,z1,custom_tool1\WObj:=WObj0;
WaitTime 0.9;
SetDO Stavbar_Gripper_close, 0;
SetDO Stavbar_Gripper_open, 1;
WaitTime 1;
SetDO Stavbar_Gripper_open, 0;
MoveL [[363.58,223.42,112.5],[0,0.627838,0.778344,0],[0,-1,-1,0],[0,9E9,9E9,9E9,9E9,9E9]],Work,z1,custom_tool1\WObj:=WObj0;
MoveJ [[495.53,253.62,251.91],[0,0.989211,0.146497,0],[0,-1,-1,0],[0,9E9,9E9,9E9,9E9,9E9]],Work,z1,custom_tool1\WObj:=WObj0;
MoveJ [[25,420,145.8],[-0.174713,0.907209,0.375778,0.072368],[0,-1,-1,0],[0,9E9,9E9,9E9,9E9,9E9]],Work,z1,custom_tool1\WObj:=WObj0;
MoveL [[25,540,45.8],[-0.174713,0.907209,0.375778,0.072368],[0,-1,-1,0],[0,9E9,9E9,9E9,9E9,9E9]],Work,z1,custom_tool1\WObj:=WObj0;
IF TestDI(Stavbar_opt) THEN
WaitDI Stavbar_opt, 0;
ENDIF
WaitTime 0.9;
SetDO Stavbar_Gripper_open, 0;
SetDO Stavbar_Gripper_close, 1;
WaitTime 1;
MoveL [[25,420,145.8],[-0.174713,0.907209,0.375778,0.072368],[0,-1,-1,0],[0,9E9,9E9,9E9,9E9,9E9]],Work,z1,custom_tool1\WObj:=WObj0;
MoveJ [[495.53,253.62,251.91],[0,0.989211,0.146497,0],[0,-1,-1,0],[0,9E9,9E9,9E9,9E9,9E9]],Work,z1,custom_tool1\WObj:=WObj0;
MoveJ [[456.63,156.58,112.5],[0,0.669469,0.74284,0],[0,-1,-1,0],[0,9E9,9E9,9E9,9E9,9E9]],Work,z1,custom_tool1\WObj:=WObj0;
MoveL [[456.63,156.58,12.5],[0,0.669469,0.74284,0],[0,-1,-1,0],[0,9E9,9E9,9E9,9E9,9E9]],Work,z1,custom_tool1\WObj:=WObj0;
WaitTime 0.9;
SetDO Stavbar_Gripper_close, 0;
SetDO Stavbar_Gripper_open, 1;
WaitTime 1;
SetDO Stavbar_Gripper_open, 0;
MoveL [[456.63,156.58,112.5],[0,0.669469,0.74284,0],[0,-1,-1,0],[0,9E9,9E9,9E9,9E9,9E9]],Work,z1,custom_tool1\WObj:=WObj0;
MoveJ [[495.53,253.62,251.91],[0,0.989211,0.146497,0],[0,-1,-1,0],[0,9E9,9E9,9E9,9E9,9E9]],Work,z1,custom_tool1\WObj:=WObj0;
MoveJ [[25,420,145.8],[-0.174713,0.907209,0.375778,0.072368],[0,-1,-1,0],[0,9E9,9E9,9E9,9E9,9E9]],Work,z1,custom_tool1\WObj:=WObj0;
MoveL [[25,540,45.8],[-0.174713,0.907209,0.375778,0.072368],[0,-1,-1,0],[0,9E9,9E9,9E9,9E9,9E9]],Work,z1,custom_tool1\WObj:=WObj0;
IF TestDI(Stavbar_opt) THEN
WaitDI Stavbar_opt, 0;
ENDIF
WaitTime 0.9;
SetDO Stavbar_Gripper_open, 0;
SetDO Stavbar_Gripper_close, 1;
WaitTime 1;
MoveL [[25,420,145.8],[-0.174713,0.907209,0.375778,0.072368],[0,-1,-1,0],[0,9E9,9E9,9E9,9E9,9E9]],Work,z1,custom_tool1\WObj:=WObj0;
MoveJ [[495.53,253.62,251.91],[0,0.989211,0.146497,0],[0,-1,-1,0],[0,9E9,9E9,9E9,9E9,9E9]],Work,z1,custom_tool1\WObj:=WObj0;
MoveJ [[539.41,77.5,112.5],[0,0.732714,0.680537,0],[0,-1,-1,0],[0,9E9,9E9,9E9,9E9,9E9]],Work,z1,custom_tool1\WObj:=WObj0;
MoveL [[539.41,77.5,12.5],[0,0.732714,0.680537,0],[0,-1,-1,0],[0,9E9,9E9,9E9,9E9,9E9]],Work,z1,custom_tool1\WObj:=WObj0;
WaitTime 0.9;
SetDO Stavbar_Gripper_close, 0;
SetDO Stavbar_Gripper_open, 1;
WaitTime 1;
SetDO Stavbar_Gripper_open, 0;
MoveL [[539.41,77.5,112.5],[0,0.732714,0.680537,0],[0,-1,-1,0],[0,9E9,9E9,9E9,9E9,9E9]],Work,z1,custom_tool1\WObj:=WObj0;
MoveJ [[495.53,253.62,251.91],[0,0.989211,0.146497,0],[0,-1,-1,0],[0,9E9,9E9,9E9,9E9,9E9]],Work,z1,custom_tool1\WObj:=WObj0;
MoveJ [[25,420,145.8],[-0.174713,0.907209,0.375778,0.072368],[0,-1,-1,0],[0,9E9,9E9,9E9,9E9,9E9]],Work,z1,custom_tool1\WObj:=WObj0;
MoveL [[25,540,45.8],[-0.174713,0.907209,0.375778,0.072368],[0,-1,-1,0],[0,9E9,9E9,9E9,9E9,9E9]],Work,z1,custom_tool1\WObj:=WObj0;
IF TestDI(Stavbar_opt) THEN
WaitDI Stavbar_opt, 0;
ENDIF
WaitTime 0.9;
SetDO Stavbar_Gripper_open, 0;
SetDO Stavbar_Gripper_close, 1;
WaitTime 1;
MoveL [[25,420,145.8],[-0.174713,0.907209,0.375778,0.072368],[0,-1,-1,0],[0,9E9,9E9,9E9,9E9,9E9]],Work,z1,custom_tool1\WObj:=WObj0;
MoveJ [[495.53,253.62,251.91],[0,0.989211,0.146497,0],[0,-1,-1,0],[0,9E9,9E9,9E9,9E9,9E9]],Work,z1,custom_tool1\WObj:=WObj0;
MoveJ [[464.97,-166.41,252.77],[0,0.989211,0.146497,0],[0,-1,-1,0],[0,9E9,9E9,9E9,9E9,9E9]],Work,z1,custom_tool1\WObj:=WObj0;
MoveJ [[601.11,-18.56,112.5],[0,0.829048,0.559177,0],[0,-1,-1,0],[0,9E9,9E9,9E9,9E9,9E9]],Work,z1,custom_tool1\WObj:=WObj0;
MoveL [[601.11,-18.56,12.5],[0,0.829048,0.559177,0],[0,-1,-1,0],[0,9E9,9E9,9E9,9E9,9E9]],Work,z1,custom_tool1\WObj:=WObj0;
WaitTime 0.9;
SetDO Stavbar_Gripper_close, 0;
SetDO Stavbar_Gripper_open, 1;
WaitTime 1;
SetDO Stavbar_Gripper_open, 0;
MoveL [[601.11,-18.56,112.5],[0,0.829048,0.559177,0],[0,-1,-1,0],[0,9E9,9E9,9E9,9E9,9E9]],Work,z1,custom_tool1\WObj:=WObj0;
MoveJ [[464.97,-166.41,252.77],[0,0.989211,0.146497,0],[0,-1,-1,0],[0,9E9,9E9,9E9,9E9,9E9]],Work,z1,custom_tool1\WObj:=WObj0;
MoveJ [[495.53,253.62,251.91],[0,0.989211,0.146497,0],[0,-1,-1,0],[0,9E9,9E9,9E9,9E9,9E9]],Work,z1,custom_tool1\WObj:=WObj0;
MoveJ [[25,420,145.8],[-0.174713,0.907209,0.375778,0.072368],[0,-1,-1,0],[0,9E9,9E9,9E9,9E9,9E9]],Work,z1,custom_tool1\WObj:=WObj0;
MoveL [[25,540,45.8],[-0.174713,0.907209,0.375778,0.072368],[0,-1,-1,0],[0,9E9,9E9,9E9,9E9,9E9]],Work,z1,custom_tool1\WObj:=WObj0;
IF TestDI(Stavbar_opt) THEN
WaitDI Stavbar_opt, 0;
ENDIF
WaitTime 0.9;
SetDO Stavbar_Gripper_open, 0;
SetDO Stavbar_Gripper_close, 1;
WaitTime 1;
MoveL [[25,420,145.8],[-0.174713,0.907209,0.375778,0.072368],[0,-1,-1,0],[0,9E9,9E9,9E9,9E9,9E9]],Work,z1,custom_tool1\WObj:=WObj0;
MoveJ [[495.53,253.62,251.91],[0,0.989211,0.146497,0],[0,-1,-1,0],[0,9E9,9E9,9E9,9E9,9E9]],Work,z1,custom_tool1\WObj:=WObj0;
MoveJ [[464.97,-166.41,252.77],[0,0.989211,0.146497,0],[0,-1,-1,0],[0,9E9,9E9,9E9,9E9,9E9]],Work,z1,custom_tool1\WObj:=WObj0;
MoveJ [[620.79,-130.39,112.5],[0,0.936615,0.350359,0],[0,-1,-1,0],[0,9E9,9E9,9E9,9E9,9E9]],Work,z1,custom_tool1\WObj:=WObj0;
MoveL [[620.79,-130.39,12.5],[0,0.936615,0.350359,0],[0,-1,-1,0],[0,9E9,9E9,9E9,9E9,9E9]],Work,z1,custom_tool1\WObj:=WObj0;
WaitTime 0.9;
SetDO Stavbar_Gripper_close, 0;
SetDO Stavbar_Gripper_open, 1;
WaitTime 1;
SetDO Stavbar_Gripper_open, 0;
MoveL [[620.79,-130.39,112.5],[0,0.936615,0.350359,0],[0,-1,-1,0],[0,9E9,9E9,9E9,9E9,9E9]],Work,z1,custom_tool1\WObj:=WObj0;
MoveJ [[464.97,-166.41,252.77],[0,0.989211,0.146497,0],[0,-1,-1,0],[0,9E9,9E9,9E9,9E9,9E9]],Work,z1,custom_tool1\WObj:=WObj0;
MoveJ [[495.53,253.62,251.91],[0,0.989211,0.146497,0],[0,-1,-1,0],[0,9E9,9E9,9E9,9E9,9E9]],Work,z1,custom_tool1\WObj:=WObj0;
MoveJ [[25,420,145.8],[-0.174713,0.907209,0.375778,0.072368],[0,-1,-1,0],[0,9E9,9E9,9E9,9E9,9E9]],Work,z1,custom_tool1\WObj:=WObj0;
MoveL [[25,540,45.8],[-0.174713,0.907209,0.375778,0.072368],[0,-1,-1,0],[0,9E9,9E9,9E9,9E9,9E9]],Work,z1,custom_tool1\WObj:=WObj0;
IF TestDI(Stavbar_opt) THEN
WaitDI Stavbar_opt, 0;
ENDIF
WaitTime 0.9;
SetDO Stavbar_Gripper_open, 0;
SetDO Stavbar_Gripper_close, 1;
WaitTime 1;
MoveL [[25,420,145.8],[-0.174713,0.907209,0.375778,0.072368],[0,-1,-1,0],[0,9E9,9E9,9E9,9E9,9E9]],Work,z1,custom_tool1\WObj:=WObj0;
MoveJ [[495.53,253.62,251.91],[0,0.989211,0.146497,0],[0,-1,-1,0],[0,9E9,9E9,9E9,9E9,9E9]],Work,z1,custom_tool1\WObj:=WObj0;
MoveJ [[464.97,-166.41,252.77],[0,0.989211,0.146497,0],[0,-1,-1,0],[0,9E9,9E9,9E9,9E9,9E9]],Work,z1,custom_tool1\WObj:=WObj0;
MoveJ [[587.74,-239.26,112.5],[0,0.989211,0.146497,0],[0,-1,-1,0],[0,9E9,9E9,9E9,9E9,9E9]],Work,z1,custom_tool1\WObj:=WObj0;
MoveL [[587.74,-239.26,12.5],[0,0.989211,0.146497,0],[0,-1,-1,0],[0,9E9,9E9,9E9,9E9,9E9]],Work,z1,custom_tool1\WObj:=WObj0;
WaitTime 0.9;
SetDO Stavbar_Gripper_close, 0;
SetDO Stavbar_Gripper_open, 1;
WaitTime 1;
SetDO Stavbar_Gripper_open, 0;
MoveL [[587.74,-239.26,112.5],[0,0.989211,0.146497,0],[0,-1,-1,0],[0,9E9,9E9,9E9,9E9,9E9]],Work,z1,custom_tool1\WObj:=WObj0;
MoveJ [[464.97,-166.41,252.77],[0,0.989211,0.146497,0],[0,-1,-1,0],[0,9E9,9E9,9E9,9E9,9E9]],Work,z1,custom_tool1\WObj:=WObj0;
MoveJ [[495.53,253.62,251.91],[0,0.989211,0.146497,0],[0,-1,-1,0],[0,9E9,9E9,9E9,9E9,9E9]],Work,z1,custom_tool1\WObj:=WObj0;
MoveJ [[25,420,145.8],[-0.174713,0.907209,0.375778,0.072368],[0,-1,-1,0],[0,9E9,9E9,9E9,9E9,9E9]],Work,z1,custom_tool1\WObj:=WObj0;
MoveL [[25,540,45.8],[-0.174713,0.907209,0.375778,0.072368],[0,-1,-1,0],[0,9E9,9E9,9E9,9E9,9E9]],Work,z1,custom_tool1\WObj:=WObj0;
IF TestDI(Stavbar_opt) THEN
WaitDI Stavbar_opt, 0;
ENDIF
WaitTime 0.9;
SetDO Stavbar_Gripper_open, 0;
SetDO Stavbar_Gripper_close, 1;
WaitTime 1;
MoveL [[25,420,145.8],[-0.174713,0.907209,0.375778,0.072368],[0,-1,-1,0],[0,9E9,9E9,9E9,9E9,9E9]],Work,z1,custom_tool1\WObj:=WObj0;
MoveJ [[495.53,253.62,251.91],[0,0.989211,0.146497,0],[0,-1,-1,0],[0,9E9,9E9,9E9,9E9,9E9]],Work,z1,custom_tool1\WObj:=WObj0;
MoveJ [[464.97,-166.41,252.77],[0,0.989211,0.146497,0],[0,-1,-1,0],[0,9E9,9E9,9E9,9E9,9E9]],Work,z1,custom_tool1\WObj:=WObj0;
MoveJ [[520.46,-331.69,112.5],[0,0.999778,0.021083,0],[0,-1,-1,0],[0,9E9,9E9,9E9,9E9,9E9]],Work,z1,custom_tool1\WObj:=WObj0;
MoveL [[520.46,-331.69,12.5],[0,0.999778,0.021083,0],[0,-1,-1,0],[0,9E9,9E9,9E9,9E9,9E9]],Work,z1,custom_tool1\WObj:=WObj0;
WaitTime 0.9;
SetDO Stavbar_Gripper_close, 0;
SetDO Stavbar_Gripper_open, 1;
WaitTime 1;
SetDO Stavbar_Gripper_open, 0;
MoveL [[520.46,-331.69,112.5],[0,0.999778,0.021083,0],[0,-1,-1,0],[0,9E9,9E9,9E9,9E9,9E9]],Work,z1,custom_tool1\WObj:=WObj0;
MoveJ [[464.97,-166.41,252.77],[0,0.989211,0.146497,0],[0,-1,-1,0],[0,9E9,9E9,9E9,9E9,9E9]],Work,z1,custom_tool1\WObj:=WObj0;
MoveJ [[495.53,253.62,251.91],[0,0.989211,0.146497,0],[0,-1,-1,0],[0,9E9,9E9,9E9,9E9,9E9]],Work,z1,custom_tool1\WObj:=WObj0;
MoveJ [[25,420,145.8],[-0.174713,0.907209,0.375778,0.072368],[0,-1,-1,0],[0,9E9,9E9,9E9,9E9,9E9]],Work,z1,custom_tool1\WObj:=WObj0;
MoveL [[25,540,45.8],[-0.174713,0.907209,0.375778,0.072368],[0,-1,-1,0],[0,9E9,9E9,9E9,9E9,9E9]],Work,z1,custom_tool1\WObj:=WObj0;
IF TestDI(Stavbar_opt) THEN
WaitDI Stavbar_opt, 0;
ENDIF
WaitTime 0.9;
SetDO Stavbar_Gripper_open, 0;
SetDO Stavbar_Gripper_close, 1;
WaitTime 1;
MoveL [[25,420,145.8],[-0.174713,0.907209,0.375778,0.072368],[0,-1,-1,0],[0,9E9,9E9,9E9,9E9,9E9]],Work,z1,custom_tool1\WObj:=WObj0;
MoveJ [[495.53,253.62,251.91],[0,0.989211,0.146497,0],[0,-1,-1,0],[0,9E9,9E9,9E9,9E9,9E9]],Work,z1,custom_tool1\WObj:=WObj0;
MoveJ [[464.97,-166.41,252.77],[0,0.989211,0.146497,0],[0,-1,-1,0],[0,9E9,9E9,9E9,9E9,9E9]],Work,z1,custom_tool1\WObj:=WObj0;
MoveJ [[436.51,-409.6,112.5],[0,0.99863,-0.05233,0],[0,-1,-1,0],[0,9E9,9E9,9E9,9E9,9E9]],Work,z1,custom_tool1\WObj:=WObj0;
MoveL [[436.51,-409.6,12.5],[0,0.99863,-0.05233,0],[0,-1,-1,0],[0,9E9,9E9,9E9,9E9,9E9]],Work,z1,custom_tool1\WObj:=WObj0;
WaitTime 0.9;
SetDO Stavbar_Gripper_close, 0;
SetDO Stavbar_Gripper_open, 1;
WaitTime 1;
SetDO Stavbar_Gripper_open, 0;
MoveL [[436.51,-409.6,112.5],[0,0.99863,-0.05233,0],[0,-1,-1,0],[0,9E9,9E9,9E9,9E9,9E9]],Work,z1,custom_tool1\WObj:=WObj0;
MoveJ [[464.97,-166.41,252.77],[0,0.989211,0.146497,0],[0,-1,-1,0],[0,9E9,9E9,9E9,9E9,9E9]],Work,z1,custom_tool1\WObj:=WObj0;
MoveJ [[495.53,253.62,251.91],[0,0.989211,0.146497,0],[0,-1,-1,0],[0,9E9,9E9,9E9,9E9,9E9]],Work,z1,custom_tool1\WObj:=WObj0;
MoveJ [[25,420,145.8],[-0.174713,0.907209,0.375778,0.072368],[0,-1,-1,0],[0,9E9,9E9,9E9,9E9,9E9]],Work,z1,custom_tool1\WObj:=WObj0;
MoveL [[25,540,45.8],[-0.174713,0.907209,0.375778,0.072368],[0,-1,-1,0],[0,9E9,9E9,9E9,9E9,9E9]],Work,z1,custom_tool1\WObj:=WObj0;
IF TestDI(Stavbar_opt) THEN
WaitDI Stavbar_opt, 0;
ENDIF
WaitTime 0.9;
SetDO Stavbar_Gripper_open, 0;
SetDO Stavbar_Gripper_close, 1;
WaitTime 1;
MoveL [[25,420,145.8],[-0.174713,0.907209,0.375778,0.072368],[0,-1,-1,0],[0,9E9,9E9,9E9,9E9,9E9]],Work,z1,custom_tool1\WObj:=WObj0;
MoveJ [[495.53,253.62,251.91],[0,0.989211,0.146497,0],[0,-1,-1,0],[0,9E9,9E9,9E9,9E9,9E9]],Work,z1,custom_tool1\WObj:=WObj0;
MoveJ [[464.97,-166.41,252.77],[0,0.989211,0.146497,0],[0,-1,-1,0],[0,9E9,9E9,9E9,9E9,9E9]],Work,z1,custom_tool1\WObj:=WObj0;
MoveJ [[343.97,-477.17,112.5],[0,0.995083,-0.099041,0],[0,-1,-1,0],[0,9E9,9E9,9E9,9E9,9E9]],Work,z1,custom_tool1\WObj:=WObj0;
MoveL [[343.97,-477.17,12.5],[0,0.995083,-0.099041,0],[0,-1,-1,0],[0,9E9,9E9,9E9,9E9,9E9]],Work,z1,custom_tool1\WObj:=WObj0;
WaitTime 0.9;
SetDO Stavbar_Gripper_close, 0;
SetDO Stavbar_Gripper_open, 1;
WaitTime 1;
SetDO Stavbar_Gripper_open, 0;
MoveL [[343.97,-477.17,112.5],[0,0.995083,-0.099041,0],[0,-1,-1,0],[0,9E9,9E9,9E9,9E9,9E9]],Work,z1,custom_tool1\WObj:=WObj0;
MoveJ [[464.97,-166.41,252.77],[0,0.989211,0.146497,0],[0,-1,-1,0],[0,9E9,9E9,9E9,9E9,9E9]],Work,z1,custom_tool1\WObj:=WObj0;
MoveJ [[495.53,253.62,251.91],[0,0.989211,0.146497,0],[0,-1,-1,0],[0,9E9,9E9,9E9,9E9,9E9]],Work,z1,custom_tool1\WObj:=WObj0;
MoveJ [[25,420,145.8],[-0.174713,0.907209,0.375778,0.072368],[0,-1,-1,0],[0,9E9,9E9,9E9,9E9,9E9]],Work,z1,custom_tool1\WObj:=WObj0;
MoveJ [[-63,420,145.8],[-0.174713,0.907209,0.375778,0.072368],[0,-1,-1,0],[0,9E9,9E9,9E9,9E9,9E9]],Work,z1,custom_tool1\WObj:=WObj0;
MoveL [[-63,540,45.8],[-0.174713,0.907209,0.375778,0.072368],[0,-1,-1,0],[0,9E9,9E9,9E9,9E9,9E9]],Work,z1,custom_tool1\WObj:=WObj0;
IF TestDI(Stavbar_opt) THEN
WaitDI Stavbar_opt, 0;
ENDIF
WaitTime 0.9;
SetDO Stavbar_Gripper_open, 0;
SetDO Stavbar_Gripper_close, 1;
WaitTime 1;
MoveL [[-63,420,145.8],[-0.174713,0.907209,0.375778,0.072368],[0,-1,-1,0],[0,9E9,9E9,9E9,9E9,9E9]],Work,z1,custom_tool1\WObj:=WObj0;
MoveJ [[25,420,145.8],[-0.174713,0.907209,0.375778,0.072368],[0,-1,-1,0],[0,9E9,9E9,9E9,9E9,9E9]],Work,z1,custom_tool1\WObj:=WObj0;
MoveJ [[495.53,253.62,251.91],[0,0.989211,0.146497,0],[0,-1,-1,0],[0,9E9,9E9,9E9,9E9,9E9]],Work,z1,custom_tool1\WObj:=WObj0;
MoveJ [[464.97,-166.41,252.77],[0,0.989211,0.146497,0],[0,-1,-1,0],[0,9E9,9E9,9E9,9E9,9E9]],Work,z1,custom_tool1\WObj:=WObj0;
MoveJ [[282.06,-516.43,112.5],[0,0.99319,-0.116507,0],[0,-1,-1,0],[0,9E9,9E9,9E9,9E9,9E9]],Work,z1,custom_tool1\WObj:=WObj0;
MoveL [[282.06,-516.43,12.5],[0,0.99319,-0.116507,0],[0,-1,-1,0],[0,9E9,9E9,9E9,9E9,9E9]],Work,z1,custom_tool1\WObj:=WObj0;
WaitTime 0.9;
SetDO Stavbar_Gripper_close, 0;
SetDO Stavbar_Gripper_open, 1;
WaitTime 1;
SetDO Stavbar_Gripper_open, 0;
MoveL [[282.06,-516.43,112.5],[0,0.99319,-0.116507,0],[0,-1,-1,0],[0,9E9,9E9,9E9,9E9,9E9]],Work,z1,custom_tool1\WObj:=WObj0;
MoveJ [[464.97,-166.41,252.77],[0,0.989211,0.146497,0],[0,-1,-1,0],[0,9E9,9E9,9E9,9E9,9E9]],Work,z1,custom_tool1\WObj:=WObj0;
MoveJ [[495.53,253.62,251.91],[0,0.989211,0.146497,0],[0,-1,-1,0],[0,9E9,9E9,9E9,9E9,9E9]],Work,z1,custom_tool1\WObj:=WObj0;
MoveJ [[25,420,145.8],[-0.174713,0.907209,0.375778,0.072368],[0,-1,-1,0],[0,9E9,9E9,9E9,9E9,9E9]],Work,z1,custom_tool1\WObj:=WObj0;
MoveJ [[-63,420,145.8],[-0.174713,0.907209,0.375778,0.072368],[0,-1,-1,0],[0,9E9,9E9,9E9,9E9,9E9]],Work,z1,custom_tool1\WObj:=WObj0;
MoveL [[-63,540,45.8],[-0.174713,0.907209,0.375778,0.072368],[0,-1,-1,0],[0,9E9,9E9,9E9,9E9,9E9]],Work,z1,custom_tool1\WObj:=WObj0;
IF TestDI(Stavbar_opt) THEN
WaitDI Stavbar_opt, 0;
ENDIF
WaitTime 0.9;
SetDO Stavbar_Gripper_open, 0;
SetDO Stavbar_Gripper_close, 1;
WaitTime 1;
MoveL [[-63,420,145.8],[-0.174713,0.907209,0.375778,0.072368],[0,-1,-1,0],[0,9E9,9E9,9E9,9E9,9E9]],Work,z1,custom_tool1\WObj:=WObj0;
MoveJ [[25,420,145.8],[-0.174713,0.907209,0.375778,0.072368],[0,-1,-1,0],[0,9E9,9E9,9E9,9E9,9E9]],Work,z1,custom_tool1\WObj:=WObj0;
MoveJ [[495.53,253.62,251.91],[0,0.989211,0.146497,0],[0,-1,-1,0],[0,9E9,9E9,9E9,9E9,9E9]],Work,z1,custom_tool1\WObj:=WObj0;
MoveJ [[350.13,232.09,135.5],[0,0.627838,0.778344,0],[0,-1,-1,0],[0,9E9,9E9,9E9,9E9,9E9]],Work,z1,custom_tool1\WObj:=WObj0;
MoveL [[350.13,232.09,35.5],[0,0.627838,0.778344,0],[0,-1,-1,0],[0,9E9,9E9,9E9,9E9,9E9]],Work,z1,custom_tool1\WObj:=WObj0;
WaitTime 0.9;
SetDO Stavbar_Gripper_close, 0;
SetDO Stavbar_Gripper_open, 1;
WaitTime 1;
SetDO Stavbar_Gripper_open, 0;
MoveL [[350.13,232.09,135.5],[0,0.627838,0.778344,0],[0,-1,-1,0],[0,9E9,9E9,9E9,9E9,9E9]],Work,z1,custom_tool1\WObj:=WObj0;
MoveJ [[495.53,253.62,251.91],[0,0.989211,0.146497,0],[0,-1,-1,0],[0,9E9,9E9,9E9,9E9,9E9]],Work,z1,custom_tool1\WObj:=WObj0;
MoveJ [[25,420,145.8],[-0.174713,0.907209,0.375778,0.072368],[0,-1,-1,0],[0,9E9,9E9,9E9,9E9,9E9]],Work,z1,custom_tool1\WObj:=WObj0;
MoveL [[25,540,45.8],[-0.174713,0.907209,0.375778,0.072368],[0,-1,-1,0],[0,9E9,9E9,9E9,9E9,9E9]],Work,z1,custom_tool1\WObj:=WObj0;
IF TestDI(Stavbar_opt) THEN
WaitDI Stavbar_opt, 0;
ENDIF
WaitTime 0.9;
SetDO Stavbar_Gripper_open, 0;
SetDO Stavbar_Gripper_close, 1;
WaitTime 1;
MoveL [[25,420,145.8],[-0.174713,0.907209,0.375778,0.072368],[0,-1,-1,0],[0,9E9,9E9,9E9,9E9,9E9]],Work,z1,custom_tool1\WObj:=WObj0;
MoveJ [[495.53,253.62,251.91],[0,0.989211,0.146497,0],[0,-1,-1,0],[0,9E9,9E9,9E9,9E9,9E9]],Work,z1,custom_tool1\WObj:=WObj0;
MoveJ [[411.02,191.27,135.5],[0,0.646644,0.762792,0],[0,-1,-1,0],[0,9E9,9E9,9E9,9E9,9E9]],Work,z1,custom_tool1\WObj:=WObj0;
MoveL [[411.02,191.27,35.5],[0,0.646644,0.762792,0],[0,-1,-1,0],[0,9E9,9E9,9E9,9E9,9E9]],Work,z1,custom_tool1\WObj:=WObj0;
WaitTime 0.9;
SetDO Stavbar_Gripper_close, 0;
SetDO Stavbar_Gripper_open, 1;
WaitTime 1;
SetDO Stavbar_Gripper_open, 0;
MoveL [[411.02,191.27,135.5],[0,0.646644,0.762792,0],[0,-1,-1,0],[0,9E9,9E9,9E9,9E9,9E9]],Work,z1,custom_tool1\WObj:=WObj0;
MoveJ [[495.53,253.62,251.91],[0,0.989211,0.146497,0],[0,-1,-1,0],[0,9E9,9E9,9E9,9E9,9E9]],Work,z1,custom_tool1\WObj:=WObj0;
MoveJ [[25,420,145.8],[-0.174713,0.907209,0.375778,0.072368],[0,-1,-1,0],[0,9E9,9E9,9E9,9E9,9E9]],Work,z1,custom_tool1\WObj:=WObj0;
MoveL [[25,540,45.8],[-0.174713,0.907209,0.375778,0.072368],[0,-1,-1,0],[0,9E9,9E9,9E9,9E9,9E9]],Work,z1,custom_tool1\WObj:=WObj0;
IF TestDI(Stavbar_opt) THEN
WaitDI Stavbar_opt, 0;
ENDIF
WaitTime 0.9;
SetDO Stavbar_Gripper_open, 0;
SetDO Stavbar_Gripper_close, 1;
WaitTime 1;
MoveL [[25,420,145.8],[-0.174713,0.907209,0.375778,0.072368],[0,-1,-1,0],[0,9E9,9E9,9E9,9E9,9E9]],Work,z1,custom_tool1\WObj:=WObj0;
MoveJ [[495.53,253.62,251.91],[0,0.989211,0.146497,0],[0,-1,-1,0],[0,9E9,9E9,9E9,9E9,9E9]],Work,z1,custom_tool1\WObj:=WObj0;
MoveJ [[499.77,118.86,135.5],[0,0.69761,0.716478,0],[0,-1,-1,0],[0,9E9,9E9,9E9,9E9,9E9]],Work,z1,custom_tool1\WObj:=WObj0;
MoveL [[499.77,118.86,35.5],[0,0.69761,0.716478,0],[0,-1,-1,0],[0,9E9,9E9,9E9,9E9,9E9]],Work,z1,custom_tool1\WObj:=WObj0;
WaitTime 0.9;
SetDO Stavbar_Gripper_close, 0;
SetDO Stavbar_Gripper_open, 1;
WaitTime 1;
SetDO Stavbar_Gripper_open, 0;
MoveL [[499.77,118.86,135.5],[0,0.69761,0.716478,0],[0,-1,-1,0],[0,9E9,9E9,9E9,9E9,9E9]],Work,z1,custom_tool1\WObj:=WObj0;
MoveJ [[495.53,253.62,251.91],[0,0.989211,0.146497,0],[0,-1,-1,0],[0,9E9,9E9,9E9,9E9,9E9]],Work,z1,custom_tool1\WObj:=WObj0;
MoveJ [[25,420,145.8],[-0.174713,0.907209,0.375778,0.072368],[0,-1,-1,0],[0,9E9,9E9,9E9,9E9,9E9]],Work,z1,custom_tool1\WObj:=WObj0;
MoveL [[25,540,45.8],[-0.174713,0.907209,0.375778,0.072368],[0,-1,-1,0],[0,9E9,9E9,9E9,9E9,9E9]],Work,z1,custom_tool1\WObj:=WObj0;
IF TestDI(Stavbar_opt) THEN
WaitDI Stavbar_opt, 0;
ENDIF
WaitTime 0.9;
SetDO Stavbar_Gripper_open, 0;
SetDO Stavbar_Gripper_close, 1;
WaitTime 1;
MoveL [[25,420,145.8],[-0.174713,0.907209,0.375778,0.072368],[0,-1,-1,0],[0,9E9,9E9,9E9,9E9,9E9]],Work,z1,custom_tool1\WObj:=WObj0;
MoveJ [[495.53,253.62,251.91],[0,0.989211,0.146497,0],[0,-1,-1,0],[0,9E9,9E9,9E9,9E9,9E9]],Work,z1,custom_tool1\WObj:=WObj0;
MoveJ [[573.98,31.84,135.5],[0,0.776445,0.630186,0],[0,-1,-1,0],[0,9E9,9E9,9E9,9E9,9E9]],Work,z1,custom_tool1\WObj:=WObj0;
MoveL [[573.98,31.84,35.5],[0,0.776445,0.630186,0],[0,-1,-1,0],[0,9E9,9E9,9E9,9E9,9E9]],Work,z1,custom_tool1\WObj:=WObj0;
WaitTime 0.9;
SetDO Stavbar_Gripper_close, 0;
SetDO Stavbar_Gripper_open, 1;
WaitTime 1;
SetDO Stavbar_Gripper_open, 0;
MoveL [[573.98,31.84,135.5],[0,0.776445,0.630186,0],[0,-1,-1,0],[0,9E9,9E9,9E9,9E9,9E9]],Work,z1,custom_tool1\WObj:=WObj0;
MoveJ [[495.53,253.62,251.91],[0,0.989211,0.146497,0],[0,-1,-1,0],[0,9E9,9E9,9E9,9E9,9E9]],Work,z1,custom_tool1\WObj:=WObj0;
MoveJ [[25,420,145.8],[-0.174713,0.907209,0.375778,0.072368],[0,-1,-1,0],[0,9E9,9E9,9E9,9E9,9E9]],Work,z1,custom_tool1\WObj:=WObj0;
MoveL [[25,540,45.8],[-0.174713,0.907209,0.375778,0.072368],[0,-1,-1,0],[0,9E9,9E9,9E9,9E9,9E9]],Work,z1,custom_tool1\WObj:=WObj0;
IF TestDI(Stavbar_opt) THEN
WaitDI Stavbar_opt, 0;
ENDIF
WaitTime 0.9;
SetDO Stavbar_Gripper_open, 0;
SetDO Stavbar_Gripper_close, 1;
WaitTime 1;
MoveL [[25,420,145.8],[-0.174713,0.907209,0.375778,0.072368],[0,-1,-1,0],[0,9E9,9E9,9E9,9E9,9E9]],Work,z1,custom_tool1\WObj:=WObj0;
MoveJ [[495.53,253.62,251.91],[0,0.989211,0.146497,0],[0,-1,-1,0],[0,9E9,9E9,9E9,9E9,9E9]],Work,z1,custom_tool1\WObj:=WObj0;
MoveJ [[464.97,-166.41,252.77],[0,0.989211,0.146497,0],[0,-1,-1,0],[0,9E9,9E9,9E9,9E9,9E9]],Work,z1,custom_tool1\WObj:=WObj0;
MoveJ [[617.65,-73.31,135.5],[0,0.886075,0.463541,0],[0,-1,-1,0],[0,9E9,9E9,9E9,9E9,9E9]],Work,z1,custom_tool1\WObj:=WObj0;
MoveL [[617.65,-73.31,35.5],[0,0.886075,0.463541,0],[0,-1,-1,0],[0,9E9,9E9,9E9,9E9,9E9]],Work,z1,custom_tool1\WObj:=WObj0;
WaitTime 0.9;
SetDO Stavbar_Gripper_close, 0;
SetDO Stavbar_Gripper_open, 1;
WaitTime 1;
SetDO Stavbar_Gripper_open, 0;
MoveL [[617.65,-73.31,135.5],[0,0.886075,0.463541,0],[0,-1,-1,0],[0,9E9,9E9,9E9,9E9,9E9]],Work,z1,custom_tool1\WObj:=WObj0;
MoveJ [[464.97,-166.41,252.77],[0,0.989211,0.146497,0],[0,-1,-1,0],[0,9E9,9E9,9E9,9E9,9E9]],Work,z1,custom_tool1\WObj:=WObj0;
MoveJ [[495.53,253.62,251.91],[0,0.989211,0.146497,0],[0,-1,-1,0],[0,9E9,9E9,9E9,9E9,9E9]],Work,z1,custom_tool1\WObj:=WObj0;
MoveJ [[25,420,145.8],[-0.174713,0.907209,0.375778,0.072368],[0,-1,-1,0],[0,9E9,9E9,9E9,9E9,9E9]],Work,z1,custom_tool1\WObj:=WObj0;
MoveL [[25,540,45.8],[-0.174713,0.907209,0.375778,0.072368],[0,-1,-1,0],[0,9E9,9E9,9E9,9E9,9E9]],Work,z1,custom_tool1\WObj:=WObj0;
IF TestDI(Stavbar_opt) THEN
WaitDI Stavbar_opt, 0;
ENDIF
WaitTime 0.9;
SetDO Stavbar_Gripper_open, 0;
SetDO Stavbar_Gripper_close, 1;
WaitTime 1;
MoveL [[25,420,145.8],[-0.174713,0.907209,0.375778,0.072368],[0,-1,-1,0],[0,9E9,9E9,9E9,9E9,9E9]],Work,z1,custom_tool1\WObj:=WObj0;
MoveJ [[495.53,253.62,251.91],[0,0.989211,0.146497,0],[0,-1,-1,0],[0,9E9,9E9,9E9,9E9,9E9]],Work,z1,custom_tool1\WObj:=WObj0;
MoveJ [[464.97,-166.41,252.77],[0,0.989211,0.146497,0],[0,-1,-1,0],[0,9E9,9E9,9E9,9E9,9E9]],Work,z1,custom_tool1\WObj:=WObj0;
MoveJ [[610.07,-186.56,135.5],[0,0.970944,0.239305,0],[0,-1,-1,0],[0,9E9,9E9,9E9,9E9,9E9]],Work,z1,custom_tool1\WObj:=WObj0;
MoveL [[610.07,-186.56,35.5],[0,0.970944,0.239305,0],[0,-1,-1,0],[0,9E9,9E9,9E9,9E9,9E9]],Work,z1,custom_tool1\WObj:=WObj0;
WaitTime 0.9;
SetDO Stavbar_Gripper_close, 0;
SetDO Stavbar_Gripper_open, 1;
WaitTime 1;
SetDO Stavbar_Gripper_open, 0;
MoveL [[610.07,-186.56,135.5],[0,0.970944,0.239305,0],[0,-1,-1,0],[0,9E9,9E9,9E9,9E9,9E9]],Work,z1,custom_tool1\WObj:=WObj0;
MoveJ [[464.97,-166.41,252.77],[0,0.989211,0.146497,0],[0,-1,-1,0],[0,9E9,9E9,9E9,9E9,9E9]],Work,z1,custom_tool1\WObj:=WObj0;
MoveJ [[495.53,253.62,251.91],[0,0.989211,0.146497,0],[0,-1,-1,0],[0,9E9,9E9,9E9,9E9,9E9]],Work,z1,custom_tool1\WObj:=WObj0;
MoveJ [[25,420,145.8],[-0.174713,0.907209,0.375778,0.072368],[0,-1,-1,0],[0,9E9,9E9,9E9,9E9,9E9]],Work,z1,custom_tool1\WObj:=WObj0;
MoveL [[25,540,45.8],[-0.174713,0.907209,0.375778,0.072368],[0,-1,-1,0],[0,9E9,9E9,9E9,9E9,9E9]],Work,z1,custom_tool1\WObj:=WObj0;
IF TestDI(Stavbar_opt) THEN
WaitDI Stavbar_opt, 0;
ENDIF
WaitTime 0.9;
SetDO Stavbar_Gripper_open, 0;
SetDO Stavbar_Gripper_close, 1;
WaitTime 1;
MoveL [[25,420,145.8],[-0.174713,0.907209,0.375778,0.072368],[0,-1,-1,0],[0,9E9,9E9,9E9,9E9,9E9]],Work,z1,custom_tool1\WObj:=WObj0;
MoveJ [[495.53,253.62,251.91],[0,0.989211,0.146497,0],[0,-1,-1,0],[0,9E9,9E9,9E9,9E9,9E9]],Work,z1,custom_tool1\WObj:=WObj0;
MoveJ [[464.97,-166.41,252.77],[0,0.989211,0.146497,0],[0,-1,-1,0],[0,9E9,9E9,9E9,9E9,9E9]],Work,z1,custom_tool1\WObj:=WObj0;
MoveJ [[557,-287.57,135.5],[0,0.99718,0.075048,0],[0,-1,-1,0],[0,9E9,9E9,9E9,9E9,9E9]],Work,z1,custom_tool1\WObj:=WObj0;
MoveL [[557,-287.57,35.5],[0,0.99718,0.075048,0],[0,-1,-1,0],[0,9E9,9E9,9E9,9E9,9E9]],Work,z1,custom_tool1\WObj:=WObj0;
WaitTime 0.9;
SetDO Stavbar_Gripper_close, 0;
SetDO Stavbar_Gripper_open, 1;
WaitTime 1;
SetDO Stavbar_Gripper_open, 0;
MoveL [[557,-287.57,135.5],[0,0.99718,0.075048,0],[0,-1,-1,0],[0,9E9,9E9,9E9,9E9,9E9]],Work,z1,custom_tool1\WObj:=WObj0;
MoveJ [[464.97,-166.41,252.77],[0,0.989211,0.146497,0],[0,-1,-1,0],[0,9E9,9E9,9E9,9E9,9E9]],Work,z1,custom_tool1\WObj:=WObj0;
MoveJ [[495.53,253.62,251.91],[0,0.989211,0.146497,0],[0,-1,-1,0],[0,9E9,9E9,9E9,9E9,9E9]],Work,z1,custom_tool1\WObj:=WObj0;
MoveJ [[25,420,145.8],[-0.174713,0.907209,0.375778,0.072368],[0,-1,-1,0],[0,9E9,9E9,9E9,9E9,9E9]],Work,z1,custom_tool1\WObj:=WObj0;
MoveL [[25,540,45.8],[-0.174713,0.907209,0.375778,0.072368],[0,-1,-1,0],[0,9E9,9E9,9E9,9E9,9E9]],Work,z1,custom_tool1\WObj:=WObj0;
IF TestDI(Stavbar_opt) THEN
WaitDI Stavbar_opt, 0;
ENDIF
WaitTime 0.9;
SetDO Stavbar_Gripper_open, 0;
SetDO Stavbar_Gripper_close, 1;
WaitTime 1;
MoveL [[25,420,145.8],[-0.174713,0.907209,0.375778,0.072368],[0,-1,-1,0],[0,9E9,9E9,9E9,9E9,9E9]],Work,z1,custom_tool1\WObj:=WObj0;
MoveJ [[495.53,253.62,251.91],[0,0.989211,0.146497,0],[0,-1,-1,0],[0,9E9,9E9,9E9,9E9,9E9]],Work,z1,custom_tool1\WObj:=WObj0;
MoveJ [[464.97,-166.41,252.77],[0,0.989211,0.146497,0],[0,-1,-1,0],[0,9E9,9E9,9E9,9E9,9E9]],Work,z1,custom_tool1\WObj:=WObj0;
MoveJ [[479.91,-372.17,135.5],[0,0.999797,-0.020143,0],[0,-1,-1,0],[0,9E9,9E9,9E9,9E9,9E9]],Work,z1,custom_tool1\WObj:=WObj0;
MoveL [[479.91,-372.17,35.5],[0,0.999797,-0.020143,0],[0,-1,-1,0],[0,9E9,9E9,9E9,9E9,9E9]],Work,z1,custom_tool1\WObj:=WObj0;
WaitTime 0.9;
SetDO Stavbar_Gripper_close, 0;
SetDO Stavbar_Gripper_open, 1;
WaitTime 1;
SetDO Stavbar_Gripper_open, 0;
MoveL [[479.91,-372.17,135.5],[0,0.999797,-0.020143,0],[0,-1,-1,0],[0,9E9,9E9,9E9,9E9,9E9]],Work,z1,custom_tool1\WObj:=WObj0;
MoveJ [[464.97,-166.41,252.77],[0,0.989211,0.146497,0],[0,-1,-1,0],[0,9E9,9E9,9E9,9E9,9E9]],Work,z1,custom_tool1\WObj:=WObj0;
MoveJ [[495.53,253.62,251.91],[0,0.989211,0.146497,0],[0,-1,-1,0],[0,9E9,9E9,9E9,9E9,9E9]],Work,z1,custom_tool1\WObj:=WObj0;
MoveJ [[25,420,145.8],[-0.174713,0.907209,0.375778,0.072368],[0,-1,-1,0],[0,9E9,9E9,9E9,9E9,9E9]],Work,z1,custom_tool1\WObj:=WObj0;
MoveL [[25,540,45.8],[-0.174713,0.907209,0.375778,0.072368],[0,-1,-1,0],[0,9E9,9E9,9E9,9E9,9E9]],Work,z1,custom_tool1\WObj:=WObj0;
IF TestDI(Stavbar_opt) THEN
WaitDI Stavbar_opt, 0;
ENDIF
WaitTime 0.9;
SetDO Stavbar_Gripper_open, 0;
SetDO Stavbar_Gripper_close, 1;
WaitTime 1;
MoveL [[25,420,145.8],[-0.174713,0.907209,0.375778,0.072368],[0,-1,-1,0],[0,9E9,9E9,9E9,9E9,9E9]],Work,z1,custom_tool1\WObj:=WObj0;
MoveJ [[495.53,253.62,251.91],[0,0.989211,0.146497,0],[0,-1,-1,0],[0,9E9,9E9,9E9,9E9,9E9]],Work,z1,custom_tool1\WObj:=WObj0;
MoveJ [[464.97,-166.41,252.77],[0,0.989211,0.146497,0],[0,-1,-1,0],[0,9E9,9E9,9E9,9E9,9E9]],Work,z1,custom_tool1\WObj:=WObj0;
MoveJ [[391.03,-444.46,135.5],[0,0.99695,-0.078047,0],[0,-1,-1,0],[0,9E9,9E9,9E9,9E9,9E9]],Work,z1,custom_tool1\WObj:=WObj0;
MoveL [[391.03,-444.46,35.5],[0,0.99695,-0.078047,0],[0,-1,-1,0],[0,9E9,9E9,9E9,9E9,9E9]],Work,z1,custom_tool1\WObj:=WObj0;
WaitTime 0.9;
SetDO Stavbar_Gripper_close, 0;
SetDO Stavbar_Gripper_open, 1;
WaitTime 1;
SetDO Stavbar_Gripper_open, 0;
MoveL [[391.03,-444.46,135.5],[0,0.99695,-0.078047,0],[0,-1,-1,0],[0,9E9,9E9,9E9,9E9,9E9]],Work,z1,custom_tool1\WObj:=WObj0;
MoveJ [[464.97,-166.41,252.77],[0,0.989211,0.146497,0],[0,-1,-1,0],[0,9E9,9E9,9E9,9E9,9E9]],Work,z1,custom_tool1\WObj:=WObj0;
MoveJ [[495.53,253.62,251.91],[0,0.989211,0.146497,0],[0,-1,-1,0],[0,9E9,9E9,9E9,9E9,9E9]],Work,z1,custom_tool1\WObj:=WObj0;
MoveJ [[25,420,145.8],[-0.174713,0.907209,0.375778,0.072368],[0,-1,-1,0],[0,9E9,9E9,9E9,9E9,9E9]],Work,z1,custom_tool1\WObj:=WObj0;
MoveL [[25,540,45.8],[-0.174713,0.907209,0.375778,0.072368],[0,-1,-1,0],[0,9E9,9E9,9E9,9E9,9E9]],Work,z1,custom_tool1\WObj:=WObj0;
IF TestDI(Stavbar_opt) THEN
WaitDI Stavbar_opt, 0;
ENDIF
WaitTime 0.9;
SetDO Stavbar_Gripper_open, 0;
SetDO Stavbar_Gripper_close, 1;
WaitTime 1;
MoveL [[25,420,145.8],[-0.174713,0.907209,0.375778,0.072368],[0,-1,-1,0],[0,9E9,9E9,9E9,9E9,9E9]],Work,z1,custom_tool1\WObj:=WObj0;
MoveJ [[495.53,253.62,251.91],[0,0.989211,0.146497,0],[0,-1,-1,0],[0,9E9,9E9,9E9,9E9,9E9]],Work,z1,custom_tool1\WObj:=WObj0;
MoveJ [[464.97,-166.41,252.77],[0,0.989211,0.146497,0],[0,-1,-1,0],[0,9E9,9E9,9E9,9E9,9E9]],Work,z1,custom_tool1\WObj:=WObj0;
MoveJ [[295.69,-508.04,135.5],[0,0.99319,-0.116507,0],[0,-1,-1,0],[0,9E9,9E9,9E9,9E9,9E9]],Work,z1,custom_tool1\WObj:=WObj0;
MoveL [[295.69,-508.04,35.5],[0,0.99319,-0.116507,0],[0,-1,-1,0],[0,9E9,9E9,9E9,9E9,9E9]],Work,z1,custom_tool1\WObj:=WObj0;
WaitTime 0.9;
SetDO Stavbar_Gripper_close, 0;
SetDO Stavbar_Gripper_open, 1;
WaitTime 1;
SetDO Stavbar_Gripper_open, 0;
MoveL [[295.69,-508.04,135.5],[0,0.99319,-0.116507,0],[0,-1,-1,0],[0,9E9,9E9,9E9,9E9,9E9]],Work,z1,custom_tool1\WObj:=WObj0;
MoveJ [[464.97,-166.41,252.77],[0,0.989211,0.146497,0],[0,-1,-1,0],[0,9E9,9E9,9E9,9E9,9E9]],Work,z1,custom_tool1\WObj:=WObj0;
MoveJ [[495.53,253.62,251.91],[0,0.989211,0.146497,0],[0,-1,-1,0],[0,9E9,9E9,9E9,9E9,9E9]],Work,z1,custom_tool1\WObj:=WObj0;
MoveJ [[25,420,145.8],[-0.174713,0.907209,0.375778,0.072368],[0,-1,-1,0],[0,9E9,9E9,9E9,9E9,9E9]],Work,z1,custom_tool1\WObj:=WObj0;
MoveL [[25,540,45.8],[-0.174713,0.907209,0.375778,0.072368],[0,-1,-1,0],[0,9E9,9E9,9E9,9E9,9E9]],Work,z1,custom_tool1\WObj:=WObj0;
IF TestDI(Stavbar_opt) THEN
WaitDI Stavbar_opt, 0;
ENDIF
WaitTime 0.9;
SetDO Stavbar_Gripper_open, 0;
SetDO Stavbar_Gripper_close, 1;
WaitTime 1;
MoveL [[25,420,145.8],[-0.174713,0.907209,0.375778,0.072368],[0,-1,-1,0],[0,9E9,9E9,9E9,9E9,9E9]],Work,z1,custom_tool1\WObj:=WObj0;
MoveJ [[495.53,253.62,251.91],[0,0.989211,0.146497,0],[0,-1,-1,0],[0,9E9,9E9,9E9,9E9,9E9]],Work,z1,custom_tool1\WObj:=WObj0;
MoveJ [[363.58,223.42,158.5],[0,0.627838,0.778344,0],[0,-1,-1,0],[0,9E9,9E9,9E9,9E9,9E9]],Work,z1,custom_tool1\WObj:=WObj0;
MoveL [[363.58,223.42,58.5],[0,0.627838,0.778344,0],[0,-1,-1,0],[0,9E9,9E9,9E9,9E9,9E9]],Work,z1,custom_tool1\WObj:=WObj0;
WaitTime 0.9;
SetDO Stavbar_Gripper_close, 0;
SetDO Stavbar_Gripper_open, 1;
WaitTime 1;
SetDO Stavbar_Gripper_open, 0;
MoveL [[363.58,223.42,158.5],[0,0.627838,0.778344,0],[0,-1,-1,0],[0,9E9,9E9,9E9,9E9,9E9]],Work,z1,custom_tool1\WObj:=WObj0;
MoveJ [[495.53,253.62,251.91],[0,0.989211,0.146497,0],[0,-1,-1,0],[0,9E9,9E9,9E9,9E9,9E9]],Work,z1,custom_tool1\WObj:=WObj0;
MoveJ [[25,420,145.8],[-0.174713,0.907209,0.375778,0.072368],[0,-1,-1,0],[0,9E9,9E9,9E9,9E9,9E9]],Work,z1,custom_tool1\WObj:=WObj0;
MoveL [[25,540,45.8],[-0.174713,0.907209,0.375778,0.072368],[0,-1,-1,0],[0,9E9,9E9,9E9,9E9,9E9]],Work,z1,custom_tool1\WObj:=WObj0;
IF TestDI(Stavbar_opt) THEN
WaitDI Stavbar_opt, 0;
ENDIF
WaitTime 0.9;
SetDO Stavbar_Gripper_open, 0;
SetDO Stavbar_Gripper_close, 1;
WaitTime 1;
MoveL [[25,420,145.8],[-0.174713,0.907209,0.375778,0.072368],[0,-1,-1,0],[0,9E9,9E9,9E9,9E9,9E9]],Work,z1,custom_tool1\WObj:=WObj0;
MoveJ [[495.53,253.62,251.91],[0,0.989211,0.146497,0],[0,-1,-1,0],[0,9E9,9E9,9E9,9E9,9E9]],Work,z1,custom_tool1\WObj:=WObj0;
MoveJ [[456.63,156.58,158.5],[0,0.669469,0.74284,0],[0,-1,-1,0],[0,9E9,9E9,9E9,9E9,9E9]],Work,z1,custom_tool1\WObj:=WObj0;
MoveL [[456.63,156.58,58.5],[0,0.669469,0.74284,0],[0,-1,-1,0],[0,9E9,9E9,9E9,9E9,9E9]],Work,z1,custom_tool1\WObj:=WObj0;
WaitTime 0.9;
SetDO Stavbar_Gripper_close, 0;
SetDO Stavbar_Gripper_open, 1;
WaitTime 1;
SetDO Stavbar_Gripper_open, 0;
MoveL [[456.63,156.58,158.5],[0,0.669469,0.74284,0],[0,-1,-1,0],[0,9E9,9E9,9E9,9E9,9E9]],Work,z1,custom_tool1\WObj:=WObj0;
MoveJ [[495.53,253.62,251.91],[0,0.989211,0.146497,0],[0,-1,-1,0],[0,9E9,9E9,9E9,9E9,9E9]],Work,z1,custom_tool1\WObj:=WObj0;
MoveJ [[25,420,145.8],[-0.174713,0.907209,0.375778,0.072368],[0,-1,-1,0],[0,9E9,9E9,9E9,9E9,9E9]],Work,z1,custom_tool1\WObj:=WObj0;
MoveL [[25,540,45.8],[-0.174713,0.907209,0.375778,0.072368],[0,-1,-1,0],[0,9E9,9E9,9E9,9E9,9E9]],Work,z1,custom_tool1\WObj:=WObj0;
IF TestDI(Stavbar_opt) THEN
WaitDI Stavbar_opt, 0;
ENDIF
WaitTime 0.9;
SetDO Stavbar_Gripper_open, 0;
SetDO Stavbar_Gripper_close, 1;
WaitTime 1;
MoveL [[25,420,145.8],[-0.174713,0.907209,0.375778,0.072368],[0,-1,-1,0],[0,9E9,9E9,9E9,9E9,9E9]],Work,z1,custom_tool1\WObj:=WObj0;
MoveJ [[495.53,253.62,251.91],[0,0.989211,0.146497,0],[0,-1,-1,0],[0,9E9,9E9,9E9,9E9,9E9]],Work,z1,custom_tool1\WObj:=WObj0;
MoveJ [[539.41,77.5,158.5],[0,0.732714,0.680537,0],[0,-1,-1,0],[0,9E9,9E9,9E9,9E9,9E9]],Work,z1,custom_tool1\WObj:=WObj0;
MoveL [[539.41,77.5,58.5],[0,0.732714,0.680537,0],[0,-1,-1,0],[0,9E9,9E9,9E9,9E9,9E9]],Work,z1,custom_tool1\WObj:=WObj0;
WaitTime 0.9;
SetDO Stavbar_Gripper_close, 0;
SetDO Stavbar_Gripper_open, 1;
WaitTime 1;
SetDO Stavbar_Gripper_open, 0;
MoveL [[539.41,77.5,158.5],[0,0.732714,0.680537,0],[0,-1,-1,0],[0,9E9,9E9,9E9,9E9,9E9]],Work,z1,custom_tool1\WObj:=WObj0;
MoveJ [[495.53,253.62,251.91],[0,0.989211,0.146497,0],[0,-1,-1,0],[0,9E9,9E9,9E9,9E9,9E9]],Work,z1,custom_tool1\WObj:=WObj0;
MoveJ [[25,420,145.8],[-0.174713,0.907209,0.375778,0.072368],[0,-1,-1,0],[0,9E9,9E9,9E9,9E9,9E9]],Work,z1,custom_tool1\WObj:=WObj0;
MoveL [[25,540,45.8],[-0.174713,0.907209,0.375778,0.072368],[0,-1,-1,0],[0,9E9,9E9,9E9,9E9,9E9]],Work,z1,custom_tool1\WObj:=WObj0;
IF TestDI(Stavbar_opt) THEN
WaitDI Stavbar_opt, 0;
ENDIF
WaitTime 0.9;
SetDO Stavbar_Gripper_open, 0;
SetDO Stavbar_Gripper_close, 1;
WaitTime 1;
MoveL [[25,420,145.8],[-0.174713,0.907209,0.375778,0.072368],[0,-1,-1,0],[0,9E9,9E9,9E9,9E9,9E9]],Work,z1,custom_tool1\WObj:=WObj0;
MoveJ [[495.53,253.62,251.91],[0,0.989211,0.146497,0],[0,-1,-1,0],[0,9E9,9E9,9E9,9E9,9E9]],Work,z1,custom_tool1\WObj:=WObj0;
MoveJ [[464.97,-166.41,252.77],[0,0.989211,0.146497,0],[0,-1,-1,0],[0,9E9,9E9,9E9,9E9,9E9]],Work,z1,custom_tool1\WObj:=WObj0;
MoveJ [[601.11,-18.56,158.5],[0,0.829048,0.559177,0],[0,-1,-1,0],[0,9E9,9E9,9E9,9E9,9E9]],Work,z1,custom_tool1\WObj:=WObj0;
MoveL [[601.11,-18.56,58.5],[0,0.829048,0.559177,0],[0,-1,-1,0],[0,9E9,9E9,9E9,9E9,9E9]],Work,z1,custom_tool1\WObj:=WObj0;
WaitTime 0.9;
SetDO Stavbar_Gripper_close, 0;
SetDO Stavbar_Gripper_open, 1;
WaitTime 1;
SetDO Stavbar_Gripper_open, 0;
MoveL [[601.11,-18.56,158.5],[0,0.829048,0.559177,0],[0,-1,-1,0],[0,9E9,9E9,9E9,9E9,9E9]],Work,z1,custom_tool1\WObj:=WObj0;
MoveJ [[464.97,-166.41,252.77],[0,0.989211,0.146497,0],[0,-1,-1,0],[0,9E9,9E9,9E9,9E9,9E9]],Work,z1,custom_tool1\WObj:=WObj0;
MoveJ [[495.53,253.62,251.91],[0,0.989211,0.146497,0],[0,-1,-1,0],[0,9E9,9E9,9E9,9E9,9E9]],Work,z1,custom_tool1\WObj:=WObj0;
MoveJ [[25,420,145.8],[-0.174713,0.907209,0.375778,0.072368],[0,-1,-1,0],[0,9E9,9E9,9E9,9E9,9E9]],Work,z1,custom_tool1\WObj:=WObj0;
MoveL [[25,540,45.8],[-0.174713,0.907209,0.375778,0.072368],[0,-1,-1,0],[0,9E9,9E9,9E9,9E9,9E9]],Work,z1,custom_tool1\WObj:=WObj0;
IF TestDI(Stavbar_opt) THEN
WaitDI Stavbar_opt, 0;
ENDIF
WaitTime 0.9;
SetDO Stavbar_Gripper_open, 0;
SetDO Stavbar_Gripper_close, 1;
WaitTime 1;
MoveL [[25,420,145.8],[-0.174713,0.907209,0.375778,0.072368],[0,-1,-1,0],[0,9E9,9E9,9E9,9E9,9E9]],Work,z1,custom_tool1\WObj:=WObj0;
MoveJ [[495.53,253.62,251.91],[0,0.989211,0.146497,0],[0,-1,-1,0],[0,9E9,9E9,9E9,9E9,9E9]],Work,z1,custom_tool1\WObj:=WObj0;
MoveJ [[464.97,-166.41,252.77],[0,0.989211,0.146497,0],[0,-1,-1,0],[0,9E9,9E9,9E9,9E9,9E9]],Work,z1,custom_tool1\WObj:=WObj0;
MoveJ [[620.79,-130.39,158.5],[0,0.936615,0.350359,0],[0,-1,-1,0],[0,9E9,9E9,9E9,9E9,9E9]],Work,z1,custom_tool1\WObj:=WObj0;
MoveL [[620.79,-130.39,58.5],[0,0.936615,0.350359,0],[0,-1,-1,0],[0,9E9,9E9,9E9,9E9,9E9]],Work,z1,custom_tool1\WObj:=WObj0;
WaitTime 0.9;
SetDO Stavbar_Gripper_close, 0;
SetDO Stavbar_Gripper_open, 1;
WaitTime 1;
SetDO Stavbar_Gripper_open, 0;
MoveL [[620.79,-130.39,158.5],[0,0.936615,0.350359,0],[0,-1,-1,0],[0,9E9,9E9,9E9,9E9,9E9]],Work,z1,custom_tool1\WObj:=WObj0;
MoveJ [[464.97,-166.41,252.77],[0,0.989211,0.146497,0],[0,-1,-1,0],[0,9E9,9E9,9E9,9E9,9E9]],Work,z1,custom_tool1\WObj:=WObj0;
MoveJ [[495.53,253.62,251.91],[0,0.989211,0.146497,0],[0,-1,-1,0],[0,9E9,9E9,9E9,9E9,9E9]],Work,z1,custom_tool1\WObj:=WObj0;
MoveJ [[25,420,145.8],[-0.174713,0.907209,0.375778,0.072368],[0,-1,-1,0],[0,9E9,9E9,9E9,9E9,9E9]],Work,z1,custom_tool1\WObj:=WObj0;
MoveL [[25,540,45.8],[-0.174713,0.907209,0.375778,0.072368],[0,-1,-1,0],[0,9E9,9E9,9E9,9E9,9E9]],Work,z1,custom_tool1\WObj:=WObj0;
IF TestDI(Stavbar_opt) THEN
WaitDI Stavbar_opt, 0;
ENDIF
WaitTime 0.9;
SetDO Stavbar_Gripper_open, 0;
SetDO Stavbar_Gripper_close, 1;
WaitTime 1;
MoveL [[25,420,145.8],[-0.174713,0.907209,0.375778,0.072368],[0,-1,-1,0],[0,9E9,9E9,9E9,9E9,9E9]],Work,z1,custom_tool1\WObj:=WObj0;
MoveJ [[495.53,253.62,251.91],[0,0.989211,0.146497,0],[0,-1,-1,0],[0,9E9,9E9,9E9,9E9,9E9]],Work,z1,custom_tool1\WObj:=WObj0;
MoveJ [[464.97,-166.41,252.77],[0,0.989211,0.146497,0],[0,-1,-1,0],[0,9E9,9E9,9E9,9E9,9E9]],Work,z1,custom_tool1\WObj:=WObj0;
MoveJ [[587.74,-239.26,158.5],[0,0.989211,0.146497,0],[0,-1,-1,0],[0,9E9,9E9,9E9,9E9,9E9]],Work,z1,custom_tool1\WObj:=WObj0;
MoveL [[587.74,-239.26,58.5],[0,0.989211,0.146497,0],[0,-1,-1,0],[0,9E9,9E9,9E9,9E9,9E9]],Work,z1,custom_tool1\WObj:=WObj0;
WaitTime 0.9;
SetDO Stavbar_Gripper_close, 0;
SetDO Stavbar_Gripper_open, 1;
WaitTime 1;
SetDO Stavbar_Gripper_open, 0;
MoveL [[587.74,-239.26,158.5],[0,0.989211,0.146497,0],[0,-1,-1,0],[0,9E9,9E9,9E9,9E9,9E9]],Work,z1,custom_tool1\WObj:=WObj0;
MoveJ [[464.97,-166.41,252.77],[0,0.989211,0.146497,0],[0,-1,-1,0],[0,9E9,9E9,9E9,9E9,9E9]],Work,z1,custom_tool1\WObj:=WObj0;
MoveJ [[495.53,253.62,251.91],[0,0.989211,0.146497,0],[0,-1,-1,0],[0,9E9,9E9,9E9,9E9,9E9]],Work,z1,custom_tool1\WObj:=WObj0;
MoveJ [[25,420,145.8],[-0.174713,0.907209,0.375778,0.072368],[0,-1,-1,0],[0,9E9,9E9,9E9,9E9,9E9]],Work,z1,custom_tool1\WObj:=WObj0;
MoveL [[25,540,45.8],[-0.174713,0.907209,0.375778,0.072368],[0,-1,-1,0],[0,9E9,9E9,9E9,9E9,9E9]],Work,z1,custom_tool1\WObj:=WObj0;
IF TestDI(Stavbar_opt) THEN
WaitDI Stavbar_opt, 0;
ENDIF
WaitTime 0.9;
SetDO Stavbar_Gripper_open, 0;
SetDO Stavbar_Gripper_close, 1;
WaitTime 1;
MoveL [[25,420,145.8],[-0.174713,0.907209,0.375778,0.072368],[0,-1,-1,0],[0,9E9,9E9,9E9,9E9,9E9]],Work,z1,custom_tool1\WObj:=WObj0;
MoveJ [[495.53,253.62,251.91],[0,0.989211,0.146497,0],[0,-1,-1,0],[0,9E9,9E9,9E9,9E9,9E9]],Work,z1,custom_tool1\WObj:=WObj0;
MoveJ [[464.97,-166.41,252.77],[0,0.989211,0.146497,0],[0,-1,-1,0],[0,9E9,9E9,9E9,9E9,9E9]],Work,z1,custom_tool1\WObj:=WObj0;
MoveJ [[520.46,-331.69,158.5],[0,0.999778,0.021083,0],[0,-1,-1,0],[0,9E9,9E9,9E9,9E9,9E9]],Work,z1,custom_tool1\WObj:=WObj0;
MoveL [[520.46,-331.69,58.5],[0,0.999778,0.021083,0],[0,-1,-1,0],[0,9E9,9E9,9E9,9E9,9E9]],Work,z1,custom_tool1\WObj:=WObj0;
WaitTime 0.9;
SetDO Stavbar_Gripper_close, 0;
SetDO Stavbar_Gripper_open, 1;
WaitTime 1;
SetDO Stavbar_Gripper_open, 0;
MoveL [[520.46,-331.69,158.5],[0,0.999778,0.021083,0],[0,-1,-1,0],[0,9E9,9E9,9E9,9E9,9E9]],Work,z1,custom_tool1\WObj:=WObj0;
MoveJ [[464.97,-166.41,252.77],[0,0.989211,0.146497,0],[0,-1,-1,0],[0,9E9,9E9,9E9,9E9,9E9]],Work,z1,custom_tool1\WObj:=WObj0;
MoveJ [[495.53,253.62,251.91],[0,0.989211,0.146497,0],[0,-1,-1,0],[0,9E9,9E9,9E9,9E9,9E9]],Work,z1,custom_tool1\WObj:=WObj0;
MoveJ [[25,420,145.8],[-0.174713,0.907209,0.375778,0.072368],[0,-1,-1,0],[0,9E9,9E9,9E9,9E9,9E9]],Work,z1,custom_tool1\WObj:=WObj0;
MoveL [[25,540,45.8],[-0.174713,0.907209,0.375778,0.072368],[0,-1,-1,0],[0,9E9,9E9,9E9,9E9,9E9]],Work,z1,custom_tool1\WObj:=WObj0;
IF TestDI(Stavbar_opt) THEN
WaitDI Stavbar_opt, 0;
ENDIF
WaitTime 0.9;
SetDO Stavbar_Gripper_open, 0;
SetDO Stavbar_Gripper_close, 1;
WaitTime 1;
MoveL [[25,420,145.8],[-0.174713,0.907209,0.375778,0.072368],[0,-1,-1,0],[0,9E9,9E9,9E9,9E9,9E9]],Work,z1,custom_tool1\WObj:=WObj0;
MoveJ [[495.53,253.62,251.91],[0,0.989211,0.146497,0],[0,-1,-1,0],[0,9E9,9E9,9E9,9E9,9E9]],Work,z1,custom_tool1\WObj:=WObj0;
MoveJ [[464.97,-166.41,252.77],[0,0.989211,0.146497,0],[0,-1,-1,0],[0,9E9,9E9,9E9,9E9,9E9]],Work,z1,custom_tool1\WObj:=WObj0;
MoveJ [[436.51,-409.6,158.5],[0,0.99863,-0.05233,0],[0,-1,-1,0],[0,9E9,9E9,9E9,9E9,9E9]],Work,z1,custom_tool1\WObj:=WObj0;
MoveL [[436.51,-409.6,58.5],[0,0.99863,-0.05233,0],[0,-1,-1,0],[0,9E9,9E9,9E9,9E9,9E9]],Work,z1,custom_tool1\WObj:=WObj0;
WaitTime 0.9;
SetDO Stavbar_Gripper_close, 0;
SetDO Stavbar_Gripper_open, 1;
WaitTime 1;
SetDO Stavbar_Gripper_open, 0;
MoveL [[436.51,-409.6,158.5],[0,0.99863,-0.05233,0],[0,-1,-1,0],[0,9E9,9E9,9E9,9E9,9E9]],Work,z1,custom_tool1\WObj:=WObj0;
MoveJ [[464.97,-166.41,252.77],[0,0.989211,0.146497,0],[0,-1,-1,0],[0,9E9,9E9,9E9,9E9,9E9]],Work,z1,custom_tool1\WObj:=WObj0;
MoveJ [[495.53,253.62,251.91],[0,0.989211,0.146497,0],[0,-1,-1,0],[0,9E9,9E9,9E9,9E9,9E9]],Work,z1,custom_tool1\WObj:=WObj0;
MoveJ [[25,420,145.8],[-0.174713,0.907209,0.375778,0.072368],[0,-1,-1,0],[0,9E9,9E9,9E9,9E9,9E9]],Work,z1,custom_tool1\WObj:=WObj0;
MoveL [[25,540,45.8],[-0.174713,0.907209,0.375778,0.072368],[0,-1,-1,0],[0,9E9,9E9,9E9,9E9,9E9]],Work,z1,custom_tool1\WObj:=WObj0;
IF TestDI(Stavbar_opt) THEN
WaitDI Stavbar_opt, 0;
ENDIF
WaitTime 0.9;
SetDO Stavbar_Gripper_open, 0;
SetDO Stavbar_Gripper_close, 1;
WaitTime 1;
MoveL [[25,420,145.8],[-0.174713,0.907209,0.375778,0.072368],[0,-1,-1,0],[0,9E9,9E9,9E9,9E9,9E9]],Work,z1,custom_tool1\WObj:=WObj0;
MoveJ [[495.53,253.62,251.91],[0,0.989211,0.146497,0],[0,-1,-1,0],[0,9E9,9E9,9E9,9E9,9E9]],Work,z1,custom_tool1\WObj:=WObj0;
MoveJ [[464.97,-166.41,252.77],[0,0.989211,0.146497,0],[0,-1,-1,0],[0,9E9,9E9,9E9,9E9,9E9]],Work,z1,custom_tool1\WObj:=WObj0;
MoveJ [[343.97,-477.17,158.5],[0,0.995083,-0.099041,0],[0,-1,-1,0],[0,9E9,9E9,9E9,9E9,9E9]],Work,z1,custom_tool1\WObj:=WObj0;
MoveL [[343.97,-477.17,58.5],[0,0.995083,-0.099041,0],[0,-1,-1,0],[0,9E9,9E9,9E9,9E9,9E9]],Work,z1,custom_tool1\WObj:=WObj0;
WaitTime 0.9;
SetDO Stavbar_Gripper_close, 0;
SetDO Stavbar_Gripper_open, 1;
WaitTime 1;
SetDO Stavbar_Gripper_open, 0;
MoveL [[343.97,-477.17,158.5],[0,0.995083,-0.099041,0],[0,-1,-1,0],[0,9E9,9E9,9E9,9E9,9E9]],Work,z1,custom_tool1\WObj:=WObj0;
MoveJ [[464.97,-166.41,252.77],[0,0.989211,0.146497,0],[0,-1,-1,0],[0,9E9,9E9,9E9,9E9,9E9]],Work,z1,custom_tool1\WObj:=WObj0;
MoveJ [[495.53,253.62,251.91],[0,0.989211,0.146497,0],[0,-1,-1,0],[0,9E9,9E9,9E9,9E9,9E9]],Work,z1,custom_tool1\WObj:=WObj0;
MoveJ [[25,420,145.8],[-0.174713,0.907209,0.375778,0.072368],[0,-1,-1,0],[0,9E9,9E9,9E9,9E9,9E9]],Work,z1,custom_tool1\WObj:=WObj0;
MoveJ [[-63,420,145.8],[-0.174713,0.907209,0.375778,0.072368],[0,-1,-1,0],[0,9E9,9E9,9E9,9E9,9E9]],Work,z1,custom_tool1\WObj:=WObj0;
MoveL [[-63,540,45.8],[-0.174713,0.907209,0.375778,0.072368],[0,-1,-1,0],[0,9E9,9E9,9E9,9E9,9E9]],Work,z1,custom_tool1\WObj:=WObj0;
IF TestDI(Stavbar_opt) THEN
WaitDI Stavbar_opt, 0;
ENDIF
WaitTime 0.9;
SetDO Stavbar_Gripper_open, 0;
SetDO Stavbar_Gripper_close, 1;
WaitTime 1;
MoveL [[-63,420,145.8],[-0.174713,0.907209,0.375778,0.072368],[0,-1,-1,0],[0,9E9,9E9,9E9,9E9,9E9]],Work,z1,custom_tool1\WObj:=WObj0;
MoveJ [[25,420,145.8],[-0.174713,0.907209,0.375778,0.072368],[0,-1,-1,0],[0,9E9,9E9,9E9,9E9,9E9]],Work,z1,custom_tool1\WObj:=WObj0;
MoveJ [[495.53,253.62,251.91],[0,0.989211,0.146497,0],[0,-1,-1,0],[0,9E9,9E9,9E9,9E9,9E9]],Work,z1,custom_tool1\WObj:=WObj0;
MoveJ [[464.97,-166.41,252.77],[0,0.989211,0.146497,0],[0,-1,-1,0],[0,9E9,9E9,9E9,9E9,9E9]],Work,z1,custom_tool1\WObj:=WObj0;
MoveJ [[282.06,-516.43,158.5],[0,0.99319,-0.116507,0],[0,-1,-1,0],[0,9E9,9E9,9E9,9E9,9E9]],Work,z1,custom_tool1\WObj:=WObj0;
MoveL [[282.06,-516.43,58.5],[0,0.99319,-0.116507,0],[0,-1,-1,0],[0,9E9,9E9,9E9,9E9,9E9]],Work,z1,custom_tool1\WObj:=WObj0;
WaitTime 0.9;
SetDO Stavbar_Gripper_close, 0;
SetDO Stavbar_Gripper_open, 1;
WaitTime 1;
SetDO Stavbar_Gripper_open, 0;
MoveL [[282.06,-516.43,158.5],[0,0.99319,-0.116507,0],[0,-1,-1,0],[0,9E9,9E9,9E9,9E9,9E9]],Work,z1,custom_tool1\WObj:=WObj0;
MoveJ [[464.97,-166.41,252.77],[0,0.989211,0.146497,0],[0,-1,-1,0],[0,9E9,9E9,9E9,9E9,9E9]],Work,z1,custom_tool1\WObj:=WObj0;
MoveJ [[495.53,253.62,251.91],[0,0.989211,0.146497,0],[0,-1,-1,0],[0,9E9,9E9,9E9,9E9,9E9]],Work,z1,custom_tool1\WObj:=WObj0;
MoveJ [[25,420,145.8],[-0.174713,0.907209,0.375778,0.072368],[0,-1,-1,0],[0,9E9,9E9,9E9,9E9,9E9]],Work,z1,custom_tool1\WObj:=WObj0;
MoveJ [[-63,420,145.8],[-0.174713,0.907209,0.375778,0.072368],[0,-1,-1,0],[0,9E9,9E9,9E9,9E9,9E9]],Work,z1,custom_tool1\WObj:=WObj0;
MoveL [[-63,540,45.8],[-0.174713,0.907209,0.375778,0.072368],[0,-1,-1,0],[0,9E9,9E9,9E9,9E9,9E9]],Work,z1,custom_tool1\WObj:=WObj0;
IF TestDI(Stavbar_opt) THEN
WaitDI Stavbar_opt, 0;
ENDIF
WaitTime 0.9;
SetDO Stavbar_Gripper_open, 0;
SetDO Stavbar_Gripper_close, 1;
WaitTime 1;
MoveL [[-63,420,145.8],[-0.174713,0.907209,0.375778,0.072368],[0,-1,-1,0],[0,9E9,9E9,9E9,9E9,9E9]],Work,z1,custom_tool1\WObj:=WObj0;
MoveJ [[25,420,145.8],[-0.174713,0.907209,0.375778,0.072368],[0,-1,-1,0],[0,9E9,9E9,9E9,9E9,9E9]],Work,z1,custom_tool1\WObj:=WObj0;
MoveJ [[495.53,253.62,251.91],[0,0.989211,0.146497,0],[0,-1,-1,0],[0,9E9,9E9,9E9,9E9,9E9]],Work,z1,custom_tool1\WObj:=WObj0;
MoveJ [[350.13,232.09,181.5],[0,0.627838,0.778344,0],[0,-1,-1,0],[0,9E9,9E9,9E9,9E9,9E9]],Work,z1,custom_tool1\WObj:=WObj0;
MoveL [[350.13,232.09,81.5],[0,0.627838,0.778344,0],[0,-1,-1,0],[0,9E9,9E9,9E9,9E9,9E9]],Work,z1,custom_tool1\WObj:=WObj0;
WaitTime 0.9;
SetDO Stavbar_Gripper_close, 0;
SetDO Stavbar_Gripper_open, 1;
WaitTime 1;
SetDO Stavbar_Gripper_open, 0;
MoveL [[350.13,232.09,181.5],[0,0.627838,0.778344,0],[0,-1,-1,0],[0,9E9,9E9,9E9,9E9,9E9]],Work,z1,custom_tool1\WObj:=WObj0;
MoveJ [[495.53,253.62,251.91],[0,0.989211,0.146497,0],[0,-1,-1,0],[0,9E9,9E9,9E9,9E9,9E9]],Work,z1,custom_tool1\WObj:=WObj0;
MoveJ [[25,420,145.8],[-0.174713,0.907209,0.375778,0.072368],[0,-1,-1,0],[0,9E9,9E9,9E9,9E9,9E9]],Work,z1,custom_tool1\WObj:=WObj0;
MoveL [[25,540,45.8],[-0.174713,0.907209,0.375778,0.072368],[0,-1,-1,0],[0,9E9,9E9,9E9,9E9,9E9]],Work,z1,custom_tool1\WObj:=WObj0;
IF TestDI(Stavbar_opt) THEN
WaitDI Stavbar_opt, 0;
ENDIF
WaitTime 0.9;
SetDO Stavbar_Gripper_open, 0;
SetDO Stavbar_Gripper_close, 1;
WaitTime 1;
MoveL [[25,420,145.8],[-0.174713,0.907209,0.375778,0.072368],[0,-1,-1,0],[0,9E9,9E9,9E9,9E9,9E9]],Work,z1,custom_tool1\WObj:=WObj0;
MoveJ [[495.53,253.62,251.91],[0,0.989211,0.146497,0],[0,-1,-1,0],[0,9E9,9E9,9E9,9E9,9E9]],Work,z1,custom_tool1\WObj:=WObj0;
MoveJ [[411.02,191.27,181.5],[0,0.646644,0.762792,0],[0,-1,-1,0],[0,9E9,9E9,9E9,9E9,9E9]],Work,z1,custom_tool1\WObj:=WObj0;
MoveL [[411.02,191.27,81.5],[0,0.646644,0.762792,0],[0,-1,-1,0],[0,9E9,9E9,9E9,9E9,9E9]],Work,z1,custom_tool1\WObj:=WObj0;
WaitTime 0.9;
SetDO Stavbar_Gripper_close, 0;
SetDO Stavbar_Gripper_open, 1;
WaitTime 1;
SetDO Stavbar_Gripper_open, 0;
MoveL [[411.02,191.27,181.5],[0,0.646644,0.762792,0],[0,-1,-1,0],[0,9E9,9E9,9E9,9E9,9E9]],Work,z1,custom_tool1\WObj:=WObj0;
MoveJ [[495.53,253.62,251.91],[0,0.989211,0.146497,0],[0,-1,-1,0],[0,9E9,9E9,9E9,9E9,9E9]],Work,z1,custom_tool1\WObj:=WObj0;
MoveJ [[25,420,145.8],[-0.174713,0.907209,0.375778,0.072368],[0,-1,-1,0],[0,9E9,9E9,9E9,9E9,9E9]],Work,z1,custom_tool1\WObj:=WObj0;
MoveL [[25,540,45.8],[-0.174713,0.907209,0.375778,0.072368],[0,-1,-1,0],[0,9E9,9E9,9E9,9E9,9E9]],Work,z1,custom_tool1\WObj:=WObj0;
IF TestDI(Stavbar_opt) THEN
WaitDI Stavbar_opt, 0;
ENDIF
WaitTime 0.9;
SetDO Stavbar_Gripper_open, 0;
SetDO Stavbar_Gripper_close, 1;
WaitTime 1;
MoveL [[25,420,145.8],[-0.174713,0.907209,0.375778,0.072368],[0,-1,-1,0],[0,9E9,9E9,9E9,9E9,9E9]],Work,z1,custom_tool1\WObj:=WObj0;
MoveJ [[495.53,253.62,251.91],[0,0.989211,0.146497,0],[0,-1,-1,0],[0,9E9,9E9,9E9,9E9,9E9]],Work,z1,custom_tool1\WObj:=WObj0;
MoveJ [[499.77,118.86,181.5],[0,0.69761,0.716478,0],[0,-1,-1,0],[0,9E9,9E9,9E9,9E9,9E9]],Work,z1,custom_tool1\WObj:=WObj0;
MoveL [[499.77,118.86,81.5],[0,0.69761,0.716478,0],[0,-1,-1,0],[0,9E9,9E9,9E9,9E9,9E9]],Work,z1,custom_tool1\WObj:=WObj0;
WaitTime 0.9;
SetDO Stavbar_Gripper_close, 0;
SetDO Stavbar_Gripper_open, 1;
WaitTime 1;
SetDO Stavbar_Gripper_open, 0;
MoveL [[499.77,118.86,181.5],[0,0.69761,0.716478,0],[0,-1,-1,0],[0,9E9,9E9,9E9,9E9,9E9]],Work,z1,custom_tool1\WObj:=WObj0;
MoveJ [[495.53,253.62,251.91],[0,0.989211,0.146497,0],[0,-1,-1,0],[0,9E9,9E9,9E9,9E9,9E9]],Work,z1,custom_tool1\WObj:=WObj0;
MoveJ [[25,420,145.8],[-0.174713,0.907209,0.375778,0.072368],[0,-1,-1,0],[0,9E9,9E9,9E9,9E9,9E9]],Work,z1,custom_tool1\WObj:=WObj0;
MoveL [[25,540,45.8],[-0.174713,0.907209,0.375778,0.072368],[0,-1,-1,0],[0,9E9,9E9,9E9,9E9,9E9]],Work,z1,custom_tool1\WObj:=WObj0;
IF TestDI(Stavbar_opt) THEN
WaitDI Stavbar_opt, 0;
ENDIF
WaitTime 0.9;
SetDO Stavbar_Gripper_open, 0;
SetDO Stavbar_Gripper_close, 1;
WaitTime 1;
MoveL [[25,420,145.8],[-0.174713,0.907209,0.375778,0.072368],[0,-1,-1,0],[0,9E9,9E9,9E9,9E9,9E9]],Work,z1,custom_tool1\WObj:=WObj0;
MoveJ [[495.53,253.62,251.91],[0,0.989211,0.146497,0],[0,-1,-1,0],[0,9E9,9E9,9E9,9E9,9E9]],Work,z1,custom_tool1\WObj:=WObj0;
MoveJ [[573.98,31.84,181.5],[0,0.776445,0.630186,0],[0,-1,-1,0],[0,9E9,9E9,9E9,9E9,9E9]],Work,z1,custom_tool1\WObj:=WObj0;
MoveL [[573.98,31.84,81.5],[0,0.776445,0.630186,0],[0,-1,-1,0],[0,9E9,9E9,9E9,9E9,9E9]],Work,z1,custom_tool1\WObj:=WObj0;
WaitTime 0.9;
SetDO Stavbar_Gripper_close, 0;
SetDO Stavbar_Gripper_open, 1;
WaitTime 1;
SetDO Stavbar_Gripper_open, 0;
MoveL [[573.98,31.84,181.5],[0,0.776445,0.630186,0],[0,-1,-1,0],[0,9E9,9E9,9E9,9E9,9E9]],Work,z1,custom_tool1\WObj:=WObj0;
MoveJ [[495.53,253.62,251.91],[0,0.989211,0.146497,0],[0,-1,-1,0],[0,9E9,9E9,9E9,9E9,9E9]],Work,z1,custom_tool1\WObj:=WObj0;
MoveJ [[25,420,145.8],[-0.174713,0.907209,0.375778,0.072368],[0,-1,-1,0],[0,9E9,9E9,9E9,9E9,9E9]],Work,z1,custom_tool1\WObj:=WObj0;
MoveL [[25,540,45.8],[-0.174713,0.907209,0.375778,0.072368],[0,-1,-1,0],[0,9E9,9E9,9E9,9E9,9E9]],Work,z1,custom_tool1\WObj:=WObj0;
IF TestDI(Stavbar_opt) THEN
WaitDI Stavbar_opt, 0;
ENDIF
WaitTime 0.9;
SetDO Stavbar_Gripper_open, 0;
SetDO Stavbar_Gripper_close, 1;
WaitTime 1;
MoveL [[25,420,145.8],[-0.174713,0.907209,0.375778,0.072368],[0,-1,-1,0],[0,9E9,9E9,9E9,9E9,9E9]],Work,z1,custom_tool1\WObj:=WObj0;
MoveJ [[495.53,253.62,251.91],[0,0.989211,0.146497,0],[0,-1,-1,0],[0,9E9,9E9,9E9,9E9,9E9]],Work,z1,custom_tool1\WObj:=WObj0;
MoveJ [[464.97,-166.41,252.77],[0,0.989211,0.146497,0],[0,-1,-1,0],[0,9E9,9E9,9E9,9E9,9E9]],Work,z1,custom_tool1\WObj:=WObj0;
MoveJ [[617.65,-73.31,181.5],[0,0.886075,0.463541,0],[0,-1,-1,0],[0,9E9,9E9,9E9,9E9,9E9]],Work,z1,custom_tool1\WObj:=WObj0;
MoveL [[617.65,-73.31,81.5],[0,0.886075,0.463541,0],[0,-1,-1,0],[0,9E9,9E9,9E9,9E9,9E9]],Work,z1,custom_tool1\WObj:=WObj0;
WaitTime 0.9;
SetDO Stavbar_Gripper_close, 0;
SetDO Stavbar_Gripper_open, 1;
WaitTime 1;
SetDO Stavbar_Gripper_open, 0;
MoveL [[617.65,-73.31,181.5],[0,0.886075,0.463541,0],[0,-1,-1,0],[0,9E9,9E9,9E9,9E9,9E9]],Work,z1,custom_tool1\WObj:=WObj0;
MoveJ [[464.97,-166.41,252.77],[0,0.989211,0.146497,0],[0,-1,-1,0],[0,9E9,9E9,9E9,9E9,9E9]],Work,z1,custom_tool1\WObj:=WObj0;
MoveJ [[495.53,253.62,251.91],[0,0.989211,0.146497,0],[0,-1,-1,0],[0,9E9,9E9,9E9,9E9,9E9]],Work,z1,custom_tool1\WObj:=WObj0;
MoveJ [[25,420,145.8],[-0.174713,0.907209,0.375778,0.072368],[0,-1,-1,0],[0,9E9,9E9,9E9,9E9,9E9]],Work,z1,custom_tool1\WObj:=WObj0;
MoveL [[25,540,45.8],[-0.174713,0.907209,0.375778,0.072368],[0,-1,-1,0],[0,9E9,9E9,9E9,9E9,9E9]],Work,z1,custom_tool1\WObj:=WObj0;
IF TestDI(Stavbar_opt) THEN
WaitDI Stavbar_opt, 0;
ENDIF
WaitTime 0.9;
SetDO Stavbar_Gripper_open, 0;
SetDO Stavbar_Gripper_close, 1;
WaitTime 1;
MoveL [[25,420,145.8],[-0.174713,0.907209,0.375778,0.072368],[0,-1,-1,0],[0,9E9,9E9,9E9,9E9,9E9]],Work,z1,custom_tool1\WObj:=WObj0;
MoveJ [[495.53,253.62,251.91],[0,0.989211,0.146497,0],[0,-1,-1,0],[0,9E9,9E9,9E9,9E9,9E9]],Work,z1,custom_tool1\WObj:=WObj0;
MoveJ [[464.97,-166.41,252.77],[0,0.989211,0.146497,0],[0,-1,-1,0],[0,9E9,9E9,9E9,9E9,9E9]],Work,z1,custom_tool1\WObj:=WObj0;
MoveJ [[610.07,-186.56,181.5],[0,0.970944,0.239305,0],[0,-1,-1,0],[0,9E9,9E9,9E9,9E9,9E9]],Work,z1,custom_tool1\WObj:=WObj0;
MoveL [[610.07,-186.56,81.5],[0,0.970944,0.239305,0],[0,-1,-1,0],[0,9E9,9E9,9E9,9E9,9E9]],Work,z1,custom_tool1\WObj:=WObj0;
WaitTime 0.9;
SetDO Stavbar_Gripper_close, 0;
SetDO Stavbar_Gripper_open, 1;
WaitTime 1;
SetDO Stavbar_Gripper_open, 0;
MoveL [[610.07,-186.56,181.5],[0,0.970944,0.239305,0],[0,-1,-1,0],[0,9E9,9E9,9E9,9E9,9E9]],Work,z1,custom_tool1\WObj:=WObj0;
MoveJ [[464.97,-166.41,252.77],[0,0.989211,0.146497,0],[0,-1,-1,0],[0,9E9,9E9,9E9,9E9,9E9]],Work,z1,custom_tool1\WObj:=WObj0;
MoveJ [[495.53,253.62,251.91],[0,0.989211,0.146497,0],[0,-1,-1,0],[0,9E9,9E9,9E9,9E9,9E9]],Work,z1,custom_tool1\WObj:=WObj0;
MoveJ [[25,420,145.8],[-0.174713,0.907209,0.375778,0.072368],[0,-1,-1,0],[0,9E9,9E9,9E9,9E9,9E9]],Work,z1,custom_tool1\WObj:=WObj0;
MoveL [[25,540,45.8],[-0.174713,0.907209,0.375778,0.072368],[0,-1,-1,0],[0,9E9,9E9,9E9,9E9,9E9]],Work,z1,custom_tool1\WObj:=WObj0;
IF TestDI(Stavbar_opt) THEN
WaitDI Stavbar_opt, 0;
ENDIF
WaitTime 0.9;
SetDO Stavbar_Gripper_open, 0;
SetDO Stavbar_Gripper_close, 1;
WaitTime 1;
MoveL [[25,420,145.8],[-0.174713,0.907209,0.375778,0.072368],[0,-1,-1,0],[0,9E9,9E9,9E9,9E9,9E9]],Work,z1,custom_tool1\WObj:=WObj0;
MoveJ [[495.53,253.62,251.91],[0,0.989211,0.146497,0],[0,-1,-1,0],[0,9E9,9E9,9E9,9E9,9E9]],Work,z1,custom_tool1\WObj:=WObj0;
MoveJ [[464.97,-166.41,252.77],[0,0.989211,0.146497,0],[0,-1,-1,0],[0,9E9,9E9,9E9,9E9,9E9]],Work,z1,custom_tool1\WObj:=WObj0;
MoveJ [[557,-287.57,181.5],[0,0.99718,0.075048,0],[0,-1,-1,0],[0,9E9,9E9,9E9,9E9,9E9]],Work,z1,custom_tool1\WObj:=WObj0;
MoveL [[557,-287.57,81.5],[0,0.99718,0.075048,0],[0,-1,-1,0],[0,9E9,9E9,9E9,9E9,9E9]],Work,z1,custom_tool1\WObj:=WObj0;
WaitTime 0.9;
SetDO Stavbar_Gripper_close, 0;
SetDO Stavbar_Gripper_open, 1;
WaitTime 1;
SetDO Stavbar_Gripper_open, 0;
MoveL [[557,-287.57,181.5],[0,0.99718,0.075048,0],[0,-1,-1,0],[0,9E9,9E9,9E9,9E9,9E9]],Work,z1,custom_tool1\WObj:=WObj0;
MoveJ [[464.97,-166.41,252.77],[0,0.989211,0.146497,0],[0,-1,-1,0],[0,9E9,9E9,9E9,9E9,9E9]],Work,z1,custom_tool1\WObj:=WObj0;
MoveJ [[495.53,253.62,251.91],[0,0.989211,0.146497,0],[0,-1,-1,0],[0,9E9,9E9,9E9,9E9,9E9]],Work,z1,custom_tool1\WObj:=WObj0;
MoveJ [[25,420,145.8],[-0.174713,0.907209,0.375778,0.072368],[0,-1,-1,0],[0,9E9,9E9,9E9,9E9,9E9]],Work,z1,custom_tool1\WObj:=WObj0;
MoveL [[25,540,45.8],[-0.174713,0.907209,0.375778,0.072368],[0,-1,-1,0],[0,9E9,9E9,9E9,9E9,9E9]],Work,z1,custom_tool1\WObj:=WObj0;
IF TestDI(Stavbar_opt) THEN
WaitDI Stavbar_opt, 0;
ENDIF
WaitTime 0.9;
SetDO Stavbar_Gripper_open, 0;
SetDO Stavbar_Gripper_close, 1;
WaitTime 1;
MoveL [[25,420,145.8],[-0.174713,0.907209,0.375778,0.072368],[0,-1,-1,0],[0,9E9,9E9,9E9,9E9,9E9]],Work,z1,custom_tool1\WObj:=WObj0;
MoveJ [[495.53,253.62,251.91],[0,0.989211,0.146497,0],[0,-1,-1,0],[0,9E9,9E9,9E9,9E9,9E9]],Work,z1,custom_tool1\WObj:=WObj0;
MoveJ [[464.97,-166.41,252.77],[0,0.989211,0.146497,0],[0,-1,-1,0],[0,9E9,9E9,9E9,9E9,9E9]],Work,z1,custom_tool1\WObj:=WObj0;
MoveJ [[479.91,-372.17,181.5],[0,0.999797,-0.020143,0],[0,-1,-1,0],[0,9E9,9E9,9E9,9E9,9E9]],Work,z1,custom_tool1\WObj:=WObj0;
MoveL [[479.91,-372.17,81.5],[0,0.999797,-0.020143,0],[0,-1,-1,0],[0,9E9,9E9,9E9,9E9,9E9]],Work,z1,custom_tool1\WObj:=WObj0;
WaitTime 0.9;
SetDO Stavbar_Gripper_close, 0;
SetDO Stavbar_Gripper_open, 1;
WaitTime 1;
SetDO Stavbar_Gripper_open, 0;
MoveL [[479.91,-372.17,181.5],[0,0.999797,-0.020143,0],[0,-1,-1,0],[0,9E9,9E9,9E9,9E9,9E9]],Work,z1,custom_tool1\WObj:=WObj0;
MoveJ [[464.97,-166.41,252.77],[0,0.989211,0.146497,0],[0,-1,-1,0],[0,9E9,9E9,9E9,9E9,9E9]],Work,z1,custom_tool1\WObj:=WObj0;
MoveJ [[495.53,253.62,251.91],[0,0.989211,0.146497,0],[0,-1,-1,0],[0,9E9,9E9,9E9,9E9,9E9]],Work,z1,custom_tool1\WObj:=WObj0;
MoveJ [[25,420,145.8],[-0.174713,0.907209,0.375778,0.072368],[0,-1,-1,0],[0,9E9,9E9,9E9,9E9,9E9]],Work,z1,custom_tool1\WObj:=WObj0;
MoveL [[25,540,45.8],[-0.174713,0.907209,0.375778,0.072368],[0,-1,-1,0],[0,9E9,9E9,9E9,9E9,9E9]],Work,z1,custom_tool1\WObj:=WObj0;
IF TestDI(Stavbar_opt) THEN
WaitDI Stavbar_opt, 0;
ENDIF
WaitTime 0.9;
SetDO Stavbar_Gripper_open, 0;
SetDO Stavbar_Gripper_close, 1;
WaitTime 1;
MoveL [[25,420,145.8],[-0.174713,0.907209,0.375778,0.072368],[0,-1,-1,0],[0,9E9,9E9,9E9,9E9,9E9]],Work,z1,custom_tool1\WObj:=WObj0;
MoveJ [[495.53,253.62,251.91],[0,0.989211,0.146497,0],[0,-1,-1,0],[0,9E9,9E9,9E9,9E9,9E9]],Work,z1,custom_tool1\WObj:=WObj0;
MoveJ [[464.97,-166.41,252.77],[0,0.989211,0.146497,0],[0,-1,-1,0],[0,9E9,9E9,9E9,9E9,9E9]],Work,z1,custom_tool1\WObj:=WObj0;
MoveJ [[391.03,-444.46,181.5],[0,0.99695,-0.078047,0],[0,-1,-1,0],[0,9E9,9E9,9E9,9E9,9E9]],Work,z1,custom_tool1\WObj:=WObj0;
MoveL [[391.03,-444.46,81.5],[0,0.99695,-0.078047,0],[0,-1,-1,0],[0,9E9,9E9,9E9,9E9,9E9]],Work,z1,custom_tool1\WObj:=WObj0;
WaitTime 0.9;
SetDO Stavbar_Gripper_close, 0;
SetDO Stavbar_Gripper_open, 1;
WaitTime 1;
SetDO Stavbar_Gripper_open, 0;
MoveL [[391.03,-444.46,181.5],[0,0.99695,-0.078047,0],[0,-1,-1,0],[0,9E9,9E9,9E9,9E9,9E9]],Work,z1,custom_tool1\WObj:=WObj0;
MoveJ [[464.97,-166.41,252.77],[0,0.989211,0.146497,0],[0,-1,-1,0],[0,9E9,9E9,9E9,9E9,9E9]],Work,z1,custom_tool1\WObj:=WObj0;
MoveJ [[495.53,253.62,251.91],[0,0.989211,0.146497,0],[0,-1,-1,0],[0,9E9,9E9,9E9,9E9,9E9]],Work,z1,custom_tool1\WObj:=WObj0;
MoveJ [[25,420,145.8],[-0.174713,0.907209,0.375778,0.072368],[0,-1,-1,0],[0,9E9,9E9,9E9,9E9,9E9]],Work,z1,custom_tool1\WObj:=WObj0;
MoveL [[25,540,45.8],[-0.174713,0.907209,0.375778,0.072368],[0,-1,-1,0],[0,9E9,9E9,9E9,9E9,9E9]],Work,z1,custom_tool1\WObj:=WObj0;
IF TestDI(Stavbar_opt) THEN
WaitDI Stavbar_opt, 0;
ENDIF
WaitTime 0.9;
SetDO Stavbar_Gripper_open, 0;
SetDO Stavbar_Gripper_close, 1;
WaitTime 1;
MoveL [[25,420,145.8],[-0.174713,0.907209,0.375778,0.072368],[0,-1,-1,0],[0,9E9,9E9,9E9,9E9,9E9]],Work,z1,custom_tool1\WObj:=WObj0;
MoveJ [[495.53,253.62,251.91],[0,0.989211,0.146497,0],[0,-1,-1,0],[0,9E9,9E9,9E9,9E9,9E9]],Work,z1,custom_tool1\WObj:=WObj0;
MoveJ [[464.97,-166.41,252.77],[0,0.989211,0.146497,0],[0,-1,-1,0],[0,9E9,9E9,9E9,9E9,9E9]],Work,z1,custom_tool1\WObj:=WObj0;
MoveJ [[295.69,-508.04,181.5],[0,0.99319,-0.116507,0],[0,-1,-1,0],[0,9E9,9E9,9E9,9E9,9E9]],Work,z1,custom_tool1\WObj:=WObj0;
MoveL [[295.69,-508.04,81.5],[0,0.99319,-0.116507,0],[0,-1,-1,0],[0,9E9,9E9,9E9,9E9,9E9]],Work,z1,custom_tool1\WObj:=WObj0;
WaitTime 0.9;
SetDO Stavbar_Gripper_close, 0;
SetDO Stavbar_Gripper_open, 1;
WaitTime 1;
SetDO Stavbar_Gripper_open, 0;
MoveL [[295.69,-508.04,181.5],[0,0.99319,-0.116507,0],[0,-1,-1,0],[0,9E9,9E9,9E9,9E9,9E9]],Work,z1,custom_tool1\WObj:=WObj0;
MoveJ [[464.97,-166.41,252.77],[0,0.989211,0.146497,0],[0,-1,-1,0],[0,9E9,9E9,9E9,9E9,9E9]],Work,z1,custom_tool1\WObj:=WObj0;
MoveJ [[495.53,253.62,251.91],[0,0.989211,0.146497,0],[0,-1,-1,0],[0,9E9,9E9,9E9,9E9,9E9]],Work,z1,custom_tool1\WObj:=WObj0;
MoveJ [[25,420,145.8],[-0.174713,0.907209,0.375778,0.072368],[0,-1,-1,0],[0,9E9,9E9,9E9,9E9,9E9]],Work,z1,custom_tool1\WObj:=WObj0;
MoveL [[25,540,45.8],[-0.174713,0.907209,0.375778,0.072368],[0,-1,-1,0],[0,9E9,9E9,9E9,9E9,9E9]],Work,z1,custom_tool1\WObj:=WObj0;
IF TestDI(Stavbar_opt) THEN
WaitDI Stavbar_opt, 0;
ENDIF
WaitTime 0.9;
SetDO Stavbar_Gripper_open, 0;
SetDO Stavbar_Gripper_close, 1;
WaitTime 1;
MoveL [[25,420,145.8],[-0.174713,0.907209,0.375778,0.072368],[0,-1,-1,0],[0,9E9,9E9,9E9,9E9,9E9]],Work,z1,custom_tool1\WObj:=WObj0;
MoveJ [[495.53,253.62,251.91],[0,0.989211,0.146497,0],[0,-1,-1,0],[0,9E9,9E9,9E9,9E9,9E9]],Work,z1,custom_tool1\WObj:=WObj0;
MoveJ [[363.58,223.42,204.5],[0,0.627838,0.778344,0],[0,-1,-1,0],[0,9E9,9E9,9E9,9E9,9E9]],Work,z1,custom_tool1\WObj:=WObj0;
MoveL [[363.58,223.42,104.5],[0,0.627838,0.778344,0],[0,-1,-1,0],[0,9E9,9E9,9E9,9E9,9E9]],Work,z1,custom_tool1\WObj:=WObj0;
WaitTime 0.9;
SetDO Stavbar_Gripper_close, 0;
SetDO Stavbar_Gripper_open, 1;
WaitTime 1;
SetDO Stavbar_Gripper_open, 0;
MoveL [[363.58,223.42,204.5],[0,0.627838,0.778344,0],[0,-1,-1,0],[0,9E9,9E9,9E9,9E9,9E9]],Work,z1,custom_tool1\WObj:=WObj0;
MoveJ [[495.53,253.62,251.91],[0,0.989211,0.146497,0],[0,-1,-1,0],[0,9E9,9E9,9E9,9E9,9E9]],Work,z1,custom_tool1\WObj:=WObj0;
MoveJ [[25,420,145.8],[-0.174713,0.907209,0.375778,0.072368],[0,-1,-1,0],[0,9E9,9E9,9E9,9E9,9E9]],Work,z1,custom_tool1\WObj:=WObj0;
MoveL [[25,540,45.8],[-0.174713,0.907209,0.375778,0.072368],[0,-1,-1,0],[0,9E9,9E9,9E9,9E9,9E9]],Work,z1,custom_tool1\WObj:=WObj0;
IF TestDI(Stavbar_opt) THEN
WaitDI Stavbar_opt, 0;
ENDIF
WaitTime 0.9;
SetDO Stavbar_Gripper_open, 0;
SetDO Stavbar_Gripper_close, 1;
WaitTime 1;
MoveL [[25,420,145.8],[-0.174713,0.907209,0.375778,0.072368],[0,-1,-1,0],[0,9E9,9E9,9E9,9E9,9E9]],Work,z1,custom_tool1\WObj:=WObj0;
MoveJ [[495.53,253.62,251.91],[0,0.989211,0.146497,0],[0,-1,-1,0],[0,9E9,9E9,9E9,9E9,9E9]],Work,z1,custom_tool1\WObj:=WObj0;
MoveJ [[456.63,156.58,204.5],[0,0.669469,0.74284,0],[0,-1,-1,0],[0,9E9,9E9,9E9,9E9,9E9]],Work,z1,custom_tool1\WObj:=WObj0;
MoveL [[456.63,156.58,104.5],[0,0.669469,0.74284,0],[0,-1,-1,0],[0,9E9,9E9,9E9,9E9,9E9]],Work,z1,custom_tool1\WObj:=WObj0;
WaitTime 0.9;
SetDO Stavbar_Gripper_close, 0;
SetDO Stavbar_Gripper_open, 1;
WaitTime 1;
SetDO Stavbar_Gripper_open, 0;
MoveL [[456.63,156.58,204.5],[0,0.669469,0.74284,0],[0,-1,-1,0],[0,9E9,9E9,9E9,9E9,9E9]],Work,z1,custom_tool1\WObj:=WObj0;
MoveJ [[495.53,253.62,251.91],[0,0.989211,0.146497,0],[0,-1,-1,0],[0,9E9,9E9,9E9,9E9,9E9]],Work,z1,custom_tool1\WObj:=WObj0;
MoveJ [[25,420,145.8],[-0.174713,0.907209,0.375778,0.072368],[0,-1,-1,0],[0,9E9,9E9,9E9,9E9,9E9]],Work,z1,custom_tool1\WObj:=WObj0;
MoveL [[25,540,45.8],[-0.174713,0.907209,0.375778,0.072368],[0,-1,-1,0],[0,9E9,9E9,9E9,9E9,9E9]],Work,z1,custom_tool1\WObj:=WObj0;
IF TestDI(Stavbar_opt) THEN
WaitDI Stavbar_opt, 0;
ENDIF
WaitTime 0.9;
SetDO Stavbar_Gripper_open, 0;
SetDO Stavbar_Gripper_close, 1;
WaitTime 1;
MoveL [[25,420,145.8],[-0.174713,0.907209,0.375778,0.072368],[0,-1,-1,0],[0,9E9,9E9,9E9,9E9,9E9]],Work,z1,custom_tool1\WObj:=WObj0;
MoveJ [[495.53,253.62,251.91],[0,0.989211,0.146497,0],[0,-1,-1,0],[0,9E9,9E9,9E9,9E9,9E9]],Work,z1,custom_tool1\WObj:=WObj0;
MoveJ [[539.41,77.5,204.5],[0,0.732714,0.680537,0],[0,-1,-1,0],[0,9E9,9E9,9E9,9E9,9E9]],Work,z1,custom_tool1\WObj:=WObj0;
MoveL [[539.41,77.5,104.5],[0,0.732714,0.680537,0],[0,-1,-1,0],[0,9E9,9E9,9E9,9E9,9E9]],Work,z1,custom_tool1\WObj:=WObj0;
WaitTime 0.9;
SetDO Stavbar_Gripper_close, 0;
SetDO Stavbar_Gripper_open, 1;
WaitTime 1;
SetDO Stavbar_Gripper_open, 0;
MoveL [[539.41,77.5,204.5],[0,0.732714,0.680537,0],[0,-1,-1,0],[0,9E9,9E9,9E9,9E9,9E9]],Work,z1,custom_tool1\WObj:=WObj0;
MoveJ [[495.53,253.62,251.91],[0,0.989211,0.146497,0],[0,-1,-1,0],[0,9E9,9E9,9E9,9E9,9E9]],Work,z1,custom_tool1\WObj:=WObj0;
MoveJ [[25,420,145.8],[-0.174713,0.907209,0.375778,0.072368],[0,-1,-1,0],[0,9E9,9E9,9E9,9E9,9E9]],Work,z1,custom_tool1\WObj:=WObj0;
MoveL [[25,540,45.8],[-0.174713,0.907209,0.375778,0.072368],[0,-1,-1,0],[0,9E9,9E9,9E9,9E9,9E9]],Work,z1,custom_tool1\WObj:=WObj0;
IF TestDI(Stavbar_opt) THEN
WaitDI Stavbar_opt, 0;
ENDIF
WaitTime 0.9;
SetDO Stavbar_Gripper_open, 0;
SetDO Stavbar_Gripper_close, 1;
WaitTime 1;
MoveL [[25,420,145.8],[-0.174713,0.907209,0.375778,0.072368],[0,-1,-1,0],[0,9E9,9E9,9E9,9E9,9E9]],Work,z1,custom_tool1\WObj:=WObj0;
MoveJ [[495.53,253.62,251.91],[0,0.989211,0.146497,0],[0,-1,-1,0],[0,9E9,9E9,9E9,9E9,9E9]],Work,z1,custom_tool1\WObj:=WObj0;
MoveJ [[464.97,-166.41,252.77],[0,0.989211,0.146497,0],[0,-1,-1,0],[0,9E9,9E9,9E9,9E9,9E9]],Work,z1,custom_tool1\WObj:=WObj0;
MoveJ [[601.11,-18.56,204.5],[0,0.829048,0.559177,0],[0,-1,-1,0],[0,9E9,9E9,9E9,9E9,9E9]],Work,z1,custom_tool1\WObj:=WObj0;
MoveL [[601.11,-18.56,104.5],[0,0.829048,0.559177,0],[0,-1,-1,0],[0,9E9,9E9,9E9,9E9,9E9]],Work,z1,custom_tool1\WObj:=WObj0;
WaitTime 0.9;
SetDO Stavbar_Gripper_close, 0;
SetDO Stavbar_Gripper_open, 1;
WaitTime 1;
SetDO Stavbar_Gripper_open, 0;
MoveL [[601.11,-18.56,204.5],[0,0.829048,0.559177,0],[0,-1,-1,0],[0,9E9,9E9,9E9,9E9,9E9]],Work,z1,custom_tool1\WObj:=WObj0;
MoveJ [[464.97,-166.41,252.77],[0,0.989211,0.146497,0],[0,-1,-1,0],[0,9E9,9E9,9E9,9E9,9E9]],Work,z1,custom_tool1\WObj:=WObj0;
MoveJ [[495.53,253.62,251.91],[0,0.989211,0.146497,0],[0,-1,-1,0],[0,9E9,9E9,9E9,9E9,9E9]],Work,z1,custom_tool1\WObj:=WObj0;
MoveJ [[25,420,145.8],[-0.174713,0.907209,0.375778,0.072368],[0,-1,-1,0],[0,9E9,9E9,9E9,9E9,9E9]],Work,z1,custom_tool1\WObj:=WObj0;
MoveL [[25,540,45.8],[-0.174713,0.907209,0.375778,0.072368],[0,-1,-1,0],[0,9E9,9E9,9E9,9E9,9E9]],Work,z1,custom_tool1\WObj:=WObj0;
IF TestDI(Stavbar_opt) THEN
WaitDI Stavbar_opt, 0;
ENDIF
WaitTime 0.9;
SetDO Stavbar_Gripper_open, 0;
SetDO Stavbar_Gripper_close, 1;
WaitTime 1;
MoveL [[25,420,145.8],[-0.174713,0.907209,0.375778,0.072368],[0,-1,-1,0],[0,9E9,9E9,9E9,9E9,9E9]],Work,z1,custom_tool1\WObj:=WObj0;
MoveJ [[495.53,253.62,251.91],[0,0.989211,0.146497,0],[0,-1,-1,0],[0,9E9,9E9,9E9,9E9,9E9]],Work,z1,custom_tool1\WObj:=WObj0;
MoveJ [[464.97,-166.41,252.77],[0,0.989211,0.146497,0],[0,-1,-1,0],[0,9E9,9E9,9E9,9E9,9E9]],Work,z1,custom_tool1\WObj:=WObj0;
MoveJ [[620.79,-130.39,204.5],[0,0.936615,0.350359,0],[0,-1,-1,0],[0,9E9,9E9,9E9,9E9,9E9]],Work,z1,custom_tool1\WObj:=WObj0;
MoveL [[620.79,-130.39,104.5],[0,0.936615,0.350359,0],[0,-1,-1,0],[0,9E9,9E9,9E9,9E9,9E9]],Work,z1,custom_tool1\WObj:=WObj0;
WaitTime 0.9;
SetDO Stavbar_Gripper_close, 0;
SetDO Stavbar_Gripper_open, 1;
WaitTime 1;
SetDO Stavbar_Gripper_open, 0;
MoveL [[620.79,-130.39,204.5],[0,0.936615,0.350359,0],[0,-1,-1,0],[0,9E9,9E9,9E9,9E9,9E9]],Work,z1,custom_tool1\WObj:=WObj0;
MoveJ [[464.97,-166.41,252.77],[0,0.989211,0.146497,0],[0,-1,-1,0],[0,9E9,9E9,9E9,9E9,9E9]],Work,z1,custom_tool1\WObj:=WObj0;
MoveJ [[495.53,253.62,251.91],[0,0.989211,0.146497,0],[0,-1,-1,0],[0,9E9,9E9,9E9,9E9,9E9]],Work,z1,custom_tool1\WObj:=WObj0;
MoveJ [[25,420,145.8],[-0.174713,0.907209,0.375778,0.072368],[0,-1,-1,0],[0,9E9,9E9,9E9,9E9,9E9]],Work,z1,custom_tool1\WObj:=WObj0;
MoveL [[25,540,45.8],[-0.174713,0.907209,0.375778,0.072368],[0,-1,-1,0],[0,9E9,9E9,9E9,9E9,9E9]],Work,z1,custom_tool1\WObj:=WObj0;
IF TestDI(Stavbar_opt) THEN
WaitDI Stavbar_opt, 0;
ENDIF
WaitTime 0.9;
SetDO Stavbar_Gripper_open, 0;
SetDO Stavbar_Gripper_close, 1;
WaitTime 1;
MoveL [[25,420,145.8],[-0.174713,0.907209,0.375778,0.072368],[0,-1,-1,0],[0,9E9,9E9,9E9,9E9,9E9]],Work,z1,custom_tool1\WObj:=WObj0;
MoveJ [[495.53,253.62,251.91],[0,0.989211,0.146497,0],[0,-1,-1,0],[0,9E9,9E9,9E9,9E9,9E9]],Work,z1,custom_tool1\WObj:=WObj0;
MoveJ [[464.97,-166.41,252.77],[0,0.989211,0.146497,0],[0,-1,-1,0],[0,9E9,9E9,9E9,9E9,9E9]],Work,z1,custom_tool1\WObj:=WObj0;
MoveJ [[587.74,-239.26,204.5],[0,0.989211,0.146497,0],[0,-1,-1,0],[0,9E9,9E9,9E9,9E9,9E9]],Work,z1,custom_tool1\WObj:=WObj0;
MoveL [[587.74,-239.26,104.5],[0,0.989211,0.146497,0],[0,-1,-1,0],[0,9E9,9E9,9E9,9E9,9E9]],Work,z1,custom_tool1\WObj:=WObj0;
WaitTime 0.9;
SetDO Stavbar_Gripper_close, 0;
SetDO Stavbar_Gripper_open, 1;
WaitTime 1;
SetDO Stavbar_Gripper_open, 0;
MoveL [[587.74,-239.26,204.5],[0,0.989211,0.146497,0],[0,-1,-1,0],[0,9E9,9E9,9E9,9E9,9E9]],Work,z1,custom_tool1\WObj:=WObj0;
MoveJ [[464.97,-166.41,252.77],[0,0.989211,0.146497,0],[0,-1,-1,0],[0,9E9,9E9,9E9,9E9,9E9]],Work,z1,custom_tool1\WObj:=WObj0;
MoveJ [[495.53,253.62,251.91],[0,0.989211,0.146497,0],[0,-1,-1,0],[0,9E9,9E9,9E9,9E9,9E9]],Work,z1,custom_tool1\WObj:=WObj0;
MoveJ [[25,420,145.8],[-0.174713,0.907209,0.375778,0.072368],[0,-1,-1,0],[0,9E9,9E9,9E9,9E9,9E9]],Work,z1,custom_tool1\WObj:=WObj0;
MoveL [[25,540,45.8],[-0.174713,0.907209,0.375778,0.072368],[0,-1,-1,0],[0,9E9,9E9,9E9,9E9,9E9]],Work,z1,custom_tool1\WObj:=WObj0;
IF TestDI(Stavbar_opt) THEN
WaitDI Stavbar_opt, 0;
ENDIF
WaitTime 0.9;
SetDO Stavbar_Gripper_open, 0;
SetDO Stavbar_Gripper_close, 1;
WaitTime 1;
MoveL [[25,420,145.8],[-0.174713,0.907209,0.375778,0.072368],[0,-1,-1,0],[0,9E9,9E9,9E9,9E9,9E9]],Work,z1,custom_tool1\WObj:=WObj0;
MoveJ [[495.53,253.62,251.91],[0,0.989211,0.146497,0],[0,-1,-1,0],[0,9E9,9E9,9E9,9E9,9E9]],Work,z1,custom_tool1\WObj:=WObj0;
MoveJ [[464.97,-166.41,252.77],[0,0.989211,0.146497,0],[0,-1,-1,0],[0,9E9,9E9,9E9,9E9,9E9]],Work,z1,custom_tool1\WObj:=WObj0;
MoveJ [[520.46,-331.69,204.5],[0,0.999778,0.021083,0],[0,-1,-1,0],[0,9E9,9E9,9E9,9E9,9E9]],Work,z1,custom_tool1\WObj:=WObj0;
MoveL [[520.46,-331.69,104.5],[0,0.999778,0.021083,0],[0,-1,-1,0],[0,9E9,9E9,9E9,9E9,9E9]],Work,z1,custom_tool1\WObj:=WObj0;
WaitTime 0.9;
SetDO Stavbar_Gripper_close, 0;
SetDO Stavbar_Gripper_open, 1;
WaitTime 1;
SetDO Stavbar_Gripper_open, 0;
MoveL [[520.46,-331.69,204.5],[0,0.999778,0.021083,0],[0,-1,-1,0],[0,9E9,9E9,9E9,9E9,9E9]],Work,z1,custom_tool1\WObj:=WObj0;
MoveJ [[464.97,-166.41,252.77],[0,0.989211,0.146497,0],[0,-1,-1,0],[0,9E9,9E9,9E9,9E9,9E9]],Work,z1,custom_tool1\WObj:=WObj0;
MoveJ [[495.53,253.62,251.91],[0,0.989211,0.146497,0],[0,-1,-1,0],[0,9E9,9E9,9E9,9E9,9E9]],Work,z1,custom_tool1\WObj:=WObj0;
MoveJ [[25,420,145.8],[-0.174713,0.907209,0.375778,0.072368],[0,-1,-1,0],[0,9E9,9E9,9E9,9E9,9E9]],Work,z1,custom_tool1\WObj:=WObj0;
MoveL [[25,540,45.8],[-0.174713,0.907209,0.375778,0.072368],[0,-1,-1,0],[0,9E9,9E9,9E9,9E9,9E9]],Work,z1,custom_tool1\WObj:=WObj0;
IF TestDI(Stavbar_opt) THEN
WaitDI Stavbar_opt, 0;
ENDIF
WaitTime 0.9;
SetDO Stavbar_Gripper_open, 0;
SetDO Stavbar_Gripper_close, 1;
WaitTime 1;
MoveL [[25,420,145.8],[-0.174713,0.907209,0.375778,0.072368],[0,-1,-1,0],[0,9E9,9E9,9E9,9E9,9E9]],Work,z1,custom_tool1\WObj:=WObj0;
MoveJ [[495.53,253.62,251.91],[0,0.989211,0.146497,0],[0,-1,-1,0],[0,9E9,9E9,9E9,9E9,9E9]],Work,z1,custom_tool1\WObj:=WObj0;
MoveJ [[464.97,-166.41,252.77],[0,0.989211,0.146497,0],[0,-1,-1,0],[0,9E9,9E9,9E9,9E9,9E9]],Work,z1,custom_tool1\WObj:=WObj0;
MoveJ [[436.51,-409.6,204.5],[0,0.99863,-0.05233,0],[0,-1,-1,0],[0,9E9,9E9,9E9,9E9,9E9]],Work,z1,custom_tool1\WObj:=WObj0;
MoveL [[436.51,-409.6,104.5],[0,0.99863,-0.05233,0],[0,-1,-1,0],[0,9E9,9E9,9E9,9E9,9E9]],Work,z1,custom_tool1\WObj:=WObj0;
WaitTime 0.9;
SetDO Stavbar_Gripper_close, 0;
SetDO Stavbar_Gripper_open, 1;
WaitTime 1;
SetDO Stavbar_Gripper_open, 0;
MoveL [[436.51,-409.6,204.5],[0,0.99863,-0.05233,0],[0,-1,-1,0],[0,9E9,9E9,9E9,9E9,9E9]],Work,z1,custom_tool1\WObj:=WObj0;
MoveJ [[464.97,-166.41,252.77],[0,0.989211,0.146497,0],[0,-1,-1,0],[0,9E9,9E9,9E9,9E9,9E9]],Work,z1,custom_tool1\WObj:=WObj0;
MoveJ [[495.53,253.62,251.91],[0,0.989211,0.146497,0],[0,-1,-1,0],[0,9E9,9E9,9E9,9E9,9E9]],Work,z1,custom_tool1\WObj:=WObj0;
MoveJ [[25,420,145.8],[-0.174713,0.907209,0.375778,0.072368],[0,-1,-1,0],[0,9E9,9E9,9E9,9E9,9E9]],Work,z1,custom_tool1\WObj:=WObj0;
MoveL [[25,540,45.8],[-0.174713,0.907209,0.375778,0.072368],[0,-1,-1,0],[0,9E9,9E9,9E9,9E9,9E9]],Work,z1,custom_tool1\WObj:=WObj0;
IF TestDI(Stavbar_opt) THEN
WaitDI Stavbar_opt, 0;
ENDIF
WaitTime 0.9;
SetDO Stavbar_Gripper_open, 0;
SetDO Stavbar_Gripper_close, 1;
WaitTime 1;
MoveL [[25,420,145.8],[-0.174713,0.907209,0.375778,0.072368],[0,-1,-1,0],[0,9E9,9E9,9E9,9E9,9E9]],Work,z1,custom_tool1\WObj:=WObj0;
MoveJ [[495.53,253.62,251.91],[0,0.989211,0.146497,0],[0,-1,-1,0],[0,9E9,9E9,9E9,9E9,9E9]],Work,z1,custom_tool1\WObj:=WObj0;
MoveJ [[464.97,-166.41,252.77],[0,0.989211,0.146497,0],[0,-1,-1,0],[0,9E9,9E9,9E9,9E9,9E9]],Work,z1,custom_tool1\WObj:=WObj0;
MoveJ [[343.97,-477.17,204.5],[0,0.995083,-0.099041,0],[0,-1,-1,0],[0,9E9,9E9,9E9,9E9,9E9]],Work,z1,custom_tool1\WObj:=WObj0;
MoveL [[343.97,-477.17,104.5],[0,0.995083,-0.099041,0],[0,-1,-1,0],[0,9E9,9E9,9E9,9E9,9E9]],Work,z1,custom_tool1\WObj:=WObj0;
WaitTime 0.9;
SetDO Stavbar_Gripper_close, 0;
SetDO Stavbar_Gripper_open, 1;
WaitTime 1;
SetDO Stavbar_Gripper_open, 0;
MoveL [[343.97,-477.17,204.5],[0,0.995083,-0.099041,0],[0,-1,-1,0],[0,9E9,9E9,9E9,9E9,9E9]],Work,z1,custom_tool1\WObj:=WObj0;
MoveJ [[464.97,-166.41,252.77],[0,0.989211,0.146497,0],[0,-1,-1,0],[0,9E9,9E9,9E9,9E9,9E9]],Work,z1,custom_tool1\WObj:=WObj0;
MoveJ [[495.53,253.62,251.91],[0,0.989211,0.146497,0],[0,-1,-1,0],[0,9E9,9E9,9E9,9E9,9E9]],Work,z1,custom_tool1\WObj:=WObj0;
MoveJ [[25,420,145.8],[-0.174713,0.907209,0.375778,0.072368],[0,-1,-1,0],[0,9E9,9E9,9E9,9E9,9E9]],Work,z1,custom_tool1\WObj:=WObj0;
MoveJ [[-63,420,145.8],[-0.174713,0.907209,0.375778,0.072368],[0,-1,-1,0],[0,9E9,9E9,9E9,9E9,9E9]],Work,z1,custom_tool1\WObj:=WObj0;
MoveL [[-63,540,45.8],[-0.174713,0.907209,0.375778,0.072368],[0,-1,-1,0],[0,9E9,9E9,9E9,9E9,9E9]],Work,z1,custom_tool1\WObj:=WObj0;
IF TestDI(Stavbar_opt) THEN
WaitDI Stavbar_opt, 0;
ENDIF
WaitTime 0.9;
SetDO Stavbar_Gripper_open, 0;
SetDO Stavbar_Gripper_close, 1;
WaitTime 1;
MoveL [[-63,420,145.8],[-0.174713,0.907209,0.375778,0.072368],[0,-1,-1,0],[0,9E9,9E9,9E9,9E9,9E9]],Work,z1,custom_tool1\WObj:=WObj0;
MoveJ [[25,420,145.8],[-0.174713,0.907209,0.375778,0.072368],[0,-1,-1,0],[0,9E9,9E9,9E9,9E9,9E9]],Work,z1,custom_tool1\WObj:=WObj0;
MoveJ [[495.53,253.62,251.91],[0,0.989211,0.146497,0],[0,-1,-1,0],[0,9E9,9E9,9E9,9E9,9E9]],Work,z1,custom_tool1\WObj:=WObj0;
MoveJ [[464.97,-166.41,252.77],[0,0.989211,0.146497,0],[0,-1,-1,0],[0,9E9,9E9,9E9,9E9,9E9]],Work,z1,custom_tool1\WObj:=WObj0;
MoveJ [[282.06,-516.43,204.5],[0,0.99319,-0.116507,0],[0,-1,-1,0],[0,9E9,9E9,9E9,9E9,9E9]],Work,z1,custom_tool1\WObj:=WObj0;
MoveL [[282.06,-516.43,104.5],[0,0.99319,-0.116507,0],[0,-1,-1,0],[0,9E9,9E9,9E9,9E9,9E9]],Work,z1,custom_tool1\WObj:=WObj0;
WaitTime 0.9;
SetDO Stavbar_Gripper_close, 0;
SetDO Stavbar_Gripper_open, 1;
WaitTime 1;
SetDO Stavbar_Gripper_open, 0;
MoveL [[282.06,-516.43,204.5],[0,0.99319,-0.116507,0],[0,-1,-1,0],[0,9E9,9E9,9E9,9E9,9E9]],Work,z1,custom_tool1\WObj:=WObj0;
MoveJ [[464.97,-166.41,252.77],[0,0.989211,0.146497,0],[0,-1,-1,0],[0,9E9,9E9,9E9,9E9,9E9]],Work,z1,custom_tool1\WObj:=WObj0;
MoveJ [[495.53,253.62,251.91],[0,0.989211,0.146497,0],[0,-1,-1,0],[0,9E9,9E9,9E9,9E9,9E9]],Work,z1,custom_tool1\WObj:=WObj0;
MoveJ [[25,420,145.8],[-0.174713,0.907209,0.375778,0.072368],[0,-1,-1,0],[0,9E9,9E9,9E9,9E9,9E9]],Work,z1,custom_tool1\WObj:=WObj0;
MoveJ [[-63,420,145.8],[-0.174713,0.907209,0.375778,0.072368],[0,-1,-1,0],[0,9E9,9E9,9E9,9E9,9E9]],Work,z1,custom_tool1\WObj:=WObj0;
MoveL [[-63,540,45.8],[-0.174713,0.907209,0.375778,0.072368],[0,-1,-1,0],[0,9E9,9E9,9E9,9E9,9E9]],Work,z1,custom_tool1\WObj:=WObj0;
IF TestDI(Stavbar_opt) THEN
WaitDI Stavbar_opt, 0;
ENDIF
WaitTime 0.9;
SetDO Stavbar_Gripper_open, 0;
SetDO Stavbar_Gripper_close, 1;
WaitTime 1;
MoveL [[-63,420,145.8],[-0.174713,0.907209,0.375778,0.072368],[0,-1,-1,0],[0,9E9,9E9,9E9,9E9,9E9]],Work,z1,custom_tool1\WObj:=WObj0;
MoveJ [[25,420,145.8],[-0.174713,0.907209,0.375778,0.072368],[0,-1,-1,0],[0,9E9,9E9,9E9,9E9,9E9]],Work,z1,custom_tool1\WObj:=WObj0;
MoveJ [[495.53,253.62,251.91],[0,0.989211,0.146497,0],[0,-1,-1,0],[0,9E9,9E9,9E9,9E9,9E9]],Work,z1,custom_tool1\WObj:=WObj0;
MoveJ [[350.13,232.09,227.5],[0,0.627838,0.778344,0],[0,-1,-1,0],[0,9E9,9E9,9E9,9E9,9E9]],Work,z1,custom_tool1\WObj:=WObj0;
MoveL [[350.13,232.09,127.5],[0,0.627838,0.778344,0],[0,-1,-1,0],[0,9E9,9E9,9E9,9E9,9E9]],Work,z1,custom_tool1\WObj:=WObj0;
WaitTime 0.9;
SetDO Stavbar_Gripper_close, 0;
SetDO Stavbar_Gripper_open, 1;
WaitTime 1;
SetDO Stavbar_Gripper_open, 0;
MoveL [[350.13,232.09,227.5],[0,0.627838,0.778344,0],[0,-1,-1,0],[0,9E9,9E9,9E9,9E9,9E9]],Work,z1,custom_tool1\WObj:=WObj0;
MoveJ [[495.53,253.62,251.91],[0,0.989211,0.146497,0],[0,-1,-1,0],[0,9E9,9E9,9E9,9E9,9E9]],Work,z1,custom_tool1\WObj:=WObj0;
MoveJ [[25,420,145.8],[-0.174713,0.907209,0.375778,0.072368],[0,-1,-1,0],[0,9E9,9E9,9E9,9E9,9E9]],Work,z1,custom_tool1\WObj:=WObj0;
MoveL [[25,540,45.8],[-0.174713,0.907209,0.375778,0.072368],[0,-1,-1,0],[0,9E9,9E9,9E9,9E9,9E9]],Work,z1,custom_tool1\WObj:=WObj0;
IF TestDI(Stavbar_opt) THEN
WaitDI Stavbar_opt, 0;
ENDIF
WaitTime 0.9;
SetDO Stavbar_Gripper_open, 0;
SetDO Stavbar_Gripper_close, 1;
WaitTime 1;
MoveL [[25,420,145.8],[-0.174713,0.907209,0.375778,0.072368],[0,-1,-1,0],[0,9E9,9E9,9E9,9E9,9E9]],Work,z1,custom_tool1\WObj:=WObj0;
MoveJ [[495.53,253.62,251.91],[0,0.989211,0.146497,0],[0,-1,-1,0],[0,9E9,9E9,9E9,9E9,9E9]],Work,z1,custom_tool1\WObj:=WObj0;
MoveJ [[411.02,191.27,227.5],[0,0.646644,0.762792,0],[0,-1,-1,0],[0,9E9,9E9,9E9,9E9,9E9]],Work,z1,custom_tool1\WObj:=WObj0;
MoveL [[411.02,191.27,127.5],[0,0.646644,0.762792,0],[0,-1,-1,0],[0,9E9,9E9,9E9,9E9,9E9]],Work,z1,custom_tool1\WObj:=WObj0;
WaitTime 0.9;
SetDO Stavbar_Gripper_close, 0;
SetDO Stavbar_Gripper_open, 1;
WaitTime 1;
SetDO Stavbar_Gripper_open, 0;
MoveL [[411.02,191.27,227.5],[0,0.646644,0.762792,0],[0,-1,-1,0],[0,9E9,9E9,9E9,9E9,9E9]],Work,z1,custom_tool1\WObj:=WObj0;
MoveJ [[495.53,253.62,251.91],[0,0.989211,0.146497,0],[0,-1,-1,0],[0,9E9,9E9,9E9,9E9,9E9]],Work,z1,custom_tool1\WObj:=WObj0;
MoveJ [[25,420,145.8],[-0.174713,0.907209,0.375778,0.072368],[0,-1,-1,0],[0,9E9,9E9,9E9,9E9,9E9]],Work,z1,custom_tool1\WObj:=WObj0;
MoveL [[25,540,45.8],[-0.174713,0.907209,0.375778,0.072368],[0,-1,-1,0],[0,9E9,9E9,9E9,9E9,9E9]],Work,z1,custom_tool1\WObj:=WObj0;
IF TestDI(Stavbar_opt) THEN
WaitDI Stavbar_opt, 0;
ENDIF
WaitTime 0.9;
SetDO Stavbar_Gripper_open, 0;
SetDO Stavbar_Gripper_close, 1;
WaitTime 1;
MoveL [[25,420,145.8],[-0.174713,0.907209,0.375778,0.072368],[0,-1,-1,0],[0,9E9,9E9,9E9,9E9,9E9]],Work,z1,custom_tool1\WObj:=WObj0;
MoveJ [[495.53,253.62,251.91],[0,0.989211,0.146497,0],[0,-1,-1,0],[0,9E9,9E9,9E9,9E9,9E9]],Work,z1,custom_tool1\WObj:=WObj0;
MoveJ [[499.77,118.86,227.5],[0,0.69761,0.716478,0],[0,-1,-1,0],[0,9E9,9E9,9E9,9E9,9E9]],Work,z1,custom_tool1\WObj:=WObj0;
MoveL [[499.77,118.86,127.5],[0,0.69761,0.716478,0],[0,-1,-1,0],[0,9E9,9E9,9E9,9E9,9E9]],Work,z1,custom_tool1\WObj:=WObj0;
WaitTime 0.9;
SetDO Stavbar_Gripper_close, 0;
SetDO Stavbar_Gripper_open, 1;
WaitTime 1;
SetDO Stavbar_Gripper_open, 0;
MoveL [[499.77,118.86,227.5],[0,0.69761,0.716478,0],[0,-1,-1,0],[0,9E9,9E9,9E9,9E9,9E9]],Work,z1,custom_tool1\WObj:=WObj0;
MoveJ [[495.53,253.62,251.91],[0,0.989211,0.146497,0],[0,-1,-1,0],[0,9E9,9E9,9E9,9E9,9E9]],Work,z1,custom_tool1\WObj:=WObj0;
MoveJ [[25,420,145.8],[-0.174713,0.907209,0.375778,0.072368],[0,-1,-1,0],[0,9E9,9E9,9E9,9E9,9E9]],Work,z1,custom_tool1\WObj:=WObj0;
MoveL [[25,540,45.8],[-0.174713,0.907209,0.375778,0.072368],[0,-1,-1,0],[0,9E9,9E9,9E9,9E9,9E9]],Work,z1,custom_tool1\WObj:=WObj0;
IF TestDI(Stavbar_opt) THEN
WaitDI Stavbar_opt, 0;
ENDIF
WaitTime 0.9;
SetDO Stavbar_Gripper_open, 0;
SetDO Stavbar_Gripper_close, 1;
WaitTime 1;
MoveL [[25,420,145.8],[-0.174713,0.907209,0.375778,0.072368],[0,-1,-1,0],[0,9E9,9E9,9E9,9E9,9E9]],Work,z1,custom_tool1\WObj:=WObj0;
MoveJ [[495.53,253.62,251.91],[0,0.989211,0.146497,0],[0,-1,-1,0],[0,9E9,9E9,9E9,9E9,9E9]],Work,z1,custom_tool1\WObj:=WObj0;
MoveJ [[573.98,31.84,227.5],[0,0.776445,0.630186,0],[0,-1,-1,0],[0,9E9,9E9,9E9,9E9,9E9]],Work,z1,custom_tool1\WObj:=WObj0;
MoveL [[573.98,31.84,127.5],[0,0.776445,0.630186,0],[0,-1,-1,0],[0,9E9,9E9,9E9,9E9,9E9]],Work,z1,custom_tool1\WObj:=WObj0;
WaitTime 0.9;
SetDO Stavbar_Gripper_close, 0;
SetDO Stavbar_Gripper_open, 1;
WaitTime 1;
SetDO Stavbar_Gripper_open, 0;
MoveL [[573.98,31.84,227.5],[0,0.776445,0.630186,0],[0,-1,-1,0],[0,9E9,9E9,9E9,9E9,9E9]],Work,z1,custom_tool1\WObj:=WObj0;
MoveJ [[495.53,253.62,251.91],[0,0.989211,0.146497,0],[0,-1,-1,0],[0,9E9,9E9,9E9,9E9,9E9]],Work,z1,custom_tool1\WObj:=WObj0;
MoveJ [[25,420,145.8],[-0.174713,0.907209,0.375778,0.072368],[0,-1,-1,0],[0,9E9,9E9,9E9,9E9,9E9]],Work,z1,custom_tool1\WObj:=WObj0;
MoveL [[25,540,45.8],[-0.174713,0.907209,0.375778,0.072368],[0,-1,-1,0],[0,9E9,9E9,9E9,9E9,9E9]],Work,z1,custom_tool1\WObj:=WObj0;
IF TestDI(Stavbar_opt) THEN
WaitDI Stavbar_opt, 0;
ENDIF
WaitTime 0.9;
SetDO Stavbar_Gripper_open, 0;
SetDO Stavbar_Gripper_close, 1;
WaitTime 1;
MoveL [[25,420,145.8],[-0.174713,0.907209,0.375778,0.072368],[0,-1,-1,0],[0,9E9,9E9,9E9,9E9,9E9]],Work,z1,custom_tool1\WObj:=WObj0;
MoveJ [[495.53,253.62,251.91],[0,0.989211,0.146497,0],[0,-1,-1,0],[0,9E9,9E9,9E9,9E9,9E9]],Work,z1,custom_tool1\WObj:=WObj0;
MoveJ [[464.97,-166.41,252.77],[0,0.989211,0.146497,0],[0,-1,-1,0],[0,9E9,9E9,9E9,9E9,9E9]],Work,z1,custom_tool1\WObj:=WObj0;
MoveJ [[617.65,-73.31,227.5],[0,0.886075,0.463541,0],[0,-1,-1,0],[0,9E9,9E9,9E9,9E9,9E9]],Work,z1,custom_tool1\WObj:=WObj0;
MoveL [[617.65,-73.31,127.5],[0,0.886075,0.463541,0],[0,-1,-1,0],[0,9E9,9E9,9E9,9E9,9E9]],Work,z1,custom_tool1\WObj:=WObj0;
WaitTime 0.9;
SetDO Stavbar_Gripper_close, 0;
SetDO Stavbar_Gripper_open, 1;
WaitTime 1;
SetDO Stavbar_Gripper_open, 0;
MoveL [[617.65,-73.31,227.5],[0,0.886075,0.463541,0],[0,-1,-1,0],[0,9E9,9E9,9E9,9E9,9E9]],Work,z1,custom_tool1\WObj:=WObj0;
MoveJ [[464.97,-166.41,252.77],[0,0.989211,0.146497,0],[0,-1,-1,0],[0,9E9,9E9,9E9,9E9,9E9]],Work,z1,custom_tool1\WObj:=WObj0;
MoveJ [[495.53,253.62,251.91],[0,0.989211,0.146497,0],[0,-1,-1,0],[0,9E9,9E9,9E9,9E9,9E9]],Work,z1,custom_tool1\WObj:=WObj0;
MoveJ [[25,420,145.8],[-0.174713,0.907209,0.375778,0.072368],[0,-1,-1,0],[0,9E9,9E9,9E9,9E9,9E9]],Work,z1,custom_tool1\WObj:=WObj0;
MoveL [[25,540,45.8],[-0.174713,0.907209,0.375778,0.072368],[0,-1,-1,0],[0,9E9,9E9,9E9,9E9,9E9]],Work,z1,custom_tool1\WObj:=WObj0;
IF TestDI(Stavbar_opt) THEN
WaitDI Stavbar_opt, 0;
ENDIF
WaitTime 0.9;
SetDO Stavbar_Gripper_open, 0;
SetDO Stavbar_Gripper_close, 1;
WaitTime 1;
MoveL [[25,420,145.8],[-0.174713,0.907209,0.375778,0.072368],[0,-1,-1,0],[0,9E9,9E9,9E9,9E9,9E9]],Work,z1,custom_tool1\WObj:=WObj0;
MoveJ [[495.53,253.62,251.91],[0,0.989211,0.146497,0],[0,-1,-1,0],[0,9E9,9E9,9E9,9E9,9E9]],Work,z1,custom_tool1\WObj:=WObj0;
MoveJ [[464.97,-166.41,252.77],[0,0.989211,0.146497,0],[0,-1,-1,0],[0,9E9,9E9,9E9,9E9,9E9]],Work,z1,custom_tool1\WObj:=WObj0;
MoveJ [[610.07,-186.56,227.5],[0,0.970944,0.239305,0],[0,-1,-1,0],[0,9E9,9E9,9E9,9E9,9E9]],Work,z1,custom_tool1\WObj:=WObj0;
MoveL [[610.07,-186.56,127.5],[0,0.970944,0.239305,0],[0,-1,-1,0],[0,9E9,9E9,9E9,9E9,9E9]],Work,z1,custom_tool1\WObj:=WObj0;
WaitTime 0.9;
SetDO Stavbar_Gripper_close, 0;
SetDO Stavbar_Gripper_open, 1;
WaitTime 1;
SetDO Stavbar_Gripper_open, 0;
MoveL [[610.07,-186.56,227.5],[0,0.970944,0.239305,0],[0,-1,-1,0],[0,9E9,9E9,9E9,9E9,9E9]],Work,z1,custom_tool1\WObj:=WObj0;
MoveJ [[464.97,-166.41,252.77],[0,0.989211,0.146497,0],[0,-1,-1,0],[0,9E9,9E9,9E9,9E9,9E9]],Work,z1,custom_tool1\WObj:=WObj0;
MoveJ [[495.53,253.62,251.91],[0,0.989211,0.146497,0],[0,-1,-1,0],[0,9E9,9E9,9E9,9E9,9E9]],Work,z1,custom_tool1\WObj:=WObj0;
MoveJ [[25,420,145.8],[-0.174713,0.907209,0.375778,0.072368],[0,-1,-1,0],[0,9E9,9E9,9E9,9E9,9E9]],Work,z1,custom_tool1\WObj:=WObj0;
MoveL [[25,540,45.8],[-0.174713,0.907209,0.375778,0.072368],[0,-1,-1,0],[0,9E9,9E9,9E9,9E9,9E9]],Work,z1,custom_tool1\WObj:=WObj0;
IF TestDI(Stavbar_opt) THEN
WaitDI Stavbar_opt, 0;
ENDIF
WaitTime 0.9;
SetDO Stavbar_Gripper_open, 0;
SetDO Stavbar_Gripper_close, 1;
WaitTime 1;
MoveL [[25,420,145.8],[-0.174713,0.907209,0.375778,0.072368],[0,-1,-1,0],[0,9E9,9E9,9E9,9E9,9E9]],Work,z1,custom_tool1\WObj:=WObj0;
MoveJ [[495.53,253.62,251.91],[0,0.989211,0.146497,0],[0,-1,-1,0],[0,9E9,9E9,9E9,9E9,9E9]],Work,z1,custom_tool1\WObj:=WObj0;
MoveJ [[464.97,-166.41,252.77],[0,0.989211,0.146497,0],[0,-1,-1,0],[0,9E9,9E9,9E9,9E9,9E9]],Work,z1,custom_tool1\WObj:=WObj0;
MoveJ [[557,-287.57,227.5],[0,0.99718,0.075048,0],[0,-1,-1,0],[0,9E9,9E9,9E9,9E9,9E9]],Work,z1,custom_tool1\WObj:=WObj0;
MoveL [[557,-287.57,127.5],[0,0.99718,0.075048,0],[0,-1,-1,0],[0,9E9,9E9,9E9,9E9,9E9]],Work,z1,custom_tool1\WObj:=WObj0;
WaitTime 0.9;
SetDO Stavbar_Gripper_close, 0;
SetDO Stavbar_Gripper_open, 1;
WaitTime 1;
SetDO Stavbar_Gripper_open, 0;
MoveL [[557,-287.57,227.5],[0,0.99718,0.075048,0],[0,-1,-1,0],[0,9E9,9E9,9E9,9E9,9E9]],Work,z1,custom_tool1\WObj:=WObj0;
MoveJ [[464.97,-166.41,252.77],[0,0.989211,0.146497,0],[0,-1,-1,0],[0,9E9,9E9,9E9,9E9,9E9]],Work,z1,custom_tool1\WObj:=WObj0;
MoveJ [[495.53,253.62,251.91],[0,0.989211,0.146497,0],[0,-1,-1,0],[0,9E9,9E9,9E9,9E9,9E9]],Work,z1,custom_tool1\WObj:=WObj0;
MoveJ [[25,420,145.8],[-0.174713,0.907209,0.375778,0.072368],[0,-1,-1,0],[0,9E9,9E9,9E9,9E9,9E9]],Work,z1,custom_tool1\WObj:=WObj0;
MoveL [[25,540,45.8],[-0.174713,0.907209,0.375778,0.072368],[0,-1,-1,0],[0,9E9,9E9,9E9,9E9,9E9]],Work,z1,custom_tool1\WObj:=WObj0;
IF TestDI(Stavbar_opt) THEN
WaitDI Stavbar_opt, 0;
ENDIF
WaitTime 0.9;
SetDO Stavbar_Gripper_open, 0;
SetDO Stavbar_Gripper_close, 1;
WaitTime 1;
MoveL [[25,420,145.8],[-0.174713,0.907209,0.375778,0.072368],[0,-1,-1,0],[0,9E9,9E9,9E9,9E9,9E9]],Work,z1,custom_tool1\WObj:=WObj0;
MoveJ [[495.53,253.62,251.91],[0,0.989211,0.146497,0],[0,-1,-1,0],[0,9E9,9E9,9E9,9E9,9E9]],Work,z1,custom_tool1\WObj:=WObj0;
MoveJ [[464.97,-166.41,252.77],[0,0.989211,0.146497,0],[0,-1,-1,0],[0,9E9,9E9,9E9,9E9,9E9]],Work,z1,custom_tool1\WObj:=WObj0;
MoveJ [[479.91,-372.17,227.5],[0,0.999797,-0.020143,0],[0,-1,-1,0],[0,9E9,9E9,9E9,9E9,9E9]],Work,z1,custom_tool1\WObj:=WObj0;
MoveL [[479.91,-372.17,127.5],[0,0.999797,-0.020143,0],[0,-1,-1,0],[0,9E9,9E9,9E9,9E9,9E9]],Work,z1,custom_tool1\WObj:=WObj0;
WaitTime 0.9;
SetDO Stavbar_Gripper_close, 0;
SetDO Stavbar_Gripper_open, 1;
WaitTime 1;
SetDO Stavbar_Gripper_open, 0;
MoveL [[479.91,-372.17,227.5],[0,0.999797,-0.020143,0],[0,-1,-1,0],[0,9E9,9E9,9E9,9E9,9E9]],Work,z1,custom_tool1\WObj:=WObj0;
MoveJ [[464.97,-166.41,252.77],[0,0.989211,0.146497,0],[0,-1,-1,0],[0,9E9,9E9,9E9,9E9,9E9]],Work,z1,custom_tool1\WObj:=WObj0;
MoveJ [[495.53,253.62,251.91],[0,0.989211,0.146497,0],[0,-1,-1,0],[0,9E9,9E9,9E9,9E9,9E9]],Work,z1,custom_tool1\WObj:=WObj0;
MoveJ [[25,420,145.8],[-0.174713,0.907209,0.375778,0.072368],[0,-1,-1,0],[0,9E9,9E9,9E9,9E9,9E9]],Work,z1,custom_tool1\WObj:=WObj0;
MoveL [[25,540,45.8],[-0.174713,0.907209,0.375778,0.072368],[0,-1,-1,0],[0,9E9,9E9,9E9,9E9,9E9]],Work,z1,custom_tool1\WObj:=WObj0;
IF TestDI(Stavbar_opt) THEN
WaitDI Stavbar_opt, 0;
ENDIF
WaitTime 0.9;
SetDO Stavbar_Gripper_open, 0;
SetDO Stavbar_Gripper_close, 1;
WaitTime 1;
MoveL [[25,420,145.8],[-0.174713,0.907209,0.375778,0.072368],[0,-1,-1,0],[0,9E9,9E9,9E9,9E9,9E9]],Work,z1,custom_tool1\WObj:=WObj0;
MoveJ [[495.53,253.62,251.91],[0,0.989211,0.146497,0],[0,-1,-1,0],[0,9E9,9E9,9E9,9E9,9E9]],Work,z1,custom_tool1\WObj:=WObj0;
MoveJ [[464.97,-166.41,252.77],[0,0.989211,0.146497,0],[0,-1,-1,0],[0,9E9,9E9,9E9,9E9,9E9]],Work,z1,custom_tool1\WObj:=WObj0;
MoveJ [[391.03,-444.46,227.5],[0,0.99695,-0.078047,0],[0,-1,-1,0],[0,9E9,9E9,9E9,9E9,9E9]],Work,z1,custom_tool1\WObj:=WObj0;
MoveL [[391.03,-444.46,127.5],[0,0.99695,-0.078047,0],[0,-1,-1,0],[0,9E9,9E9,9E9,9E9,9E9]],Work,z1,custom_tool1\WObj:=WObj0;
WaitTime 0.9;
SetDO Stavbar_Gripper_close, 0;
SetDO Stavbar_Gripper_open, 1;
WaitTime 1;
SetDO Stavbar_Gripper_open, 0;
MoveL [[391.03,-444.46,227.5],[0,0.99695,-0.078047,0],[0,-1,-1,0],[0,9E9,9E9,9E9,9E9,9E9]],Work,z1,custom_tool1\WObj:=WObj0;
MoveJ [[464.97,-166.41,252.77],[0,0.989211,0.146497,0],[0,-1,-1,0],[0,9E9,9E9,9E9,9E9,9E9]],Work,z1,custom_tool1\WObj:=WObj0;
MoveJ [[495.53,253.62,251.91],[0,0.989211,0.146497,0],[0,-1,-1,0],[0,9E9,9E9,9E9,9E9,9E9]],Work,z1,custom_tool1\WObj:=WObj0;
MoveJ [[25,420,145.8],[-0.174713,0.907209,0.375778,0.072368],[0,-1,-1,0],[0,9E9,9E9,9E9,9E9,9E9]],Work,z1,custom_tool1\WObj:=WObj0;
MoveL [[25,540,45.8],[-0.174713,0.907209,0.375778,0.072368],[0,-1,-1,0],[0,9E9,9E9,9E9,9E9,9E9]],Work,z1,custom_tool1\WObj:=WObj0;
IF TestDI(Stavbar_opt) THEN
WaitDI Stavbar_opt, 0;
ENDIF
WaitTime 0.9;
SetDO Stavbar_Gripper_open, 0;
SetDO Stavbar_Gripper_close, 1;
WaitTime 1;
MoveL [[25,420,145.8],[-0.174713,0.907209,0.375778,0.072368],[0,-1,-1,0],[0,9E9,9E9,9E9,9E9,9E9]],Work,z1,custom_tool1\WObj:=WObj0;
MoveJ [[495.53,253.62,251.91],[0,0.989211,0.146497,0],[0,-1,-1,0],[0,9E9,9E9,9E9,9E9,9E9]],Work,z1,custom_tool1\WObj:=WObj0;
MoveJ [[464.97,-166.41,252.77],[0,0.989211,0.146497,0],[0,-1,-1,0],[0,9E9,9E9,9E9,9E9,9E9]],Work,z1,custom_tool1\WObj:=WObj0;
MoveJ [[295.69,-508.04,227.5],[0,0.99319,-0.116507,0],[0,-1,-1,0],[0,9E9,9E9,9E9,9E9,9E9]],Work,z1,custom_tool1\WObj:=WObj0;
MoveL [[295.69,-508.04,127.5],[0,0.99319,-0.116507,0],[0,-1,-1,0],[0,9E9,9E9,9E9,9E9,9E9]],Work,z1,custom_tool1\WObj:=WObj0;
WaitTime 0.9;
SetDO Stavbar_Gripper_close, 0;
SetDO Stavbar_Gripper_open, 1;
WaitTime 1;
SetDO Stavbar_Gripper_open, 0;
MoveL [[295.69,-508.04,227.5],[0,0.99319,-0.116507,0],[0,-1,-1,0],[0,9E9,9E9,9E9,9E9,9E9]],Work,z1,custom_tool1\WObj:=WObj0;
MoveJ [[464.97,-166.41,252.77],[0,0.989211,0.146497,0],[0,-1,-1,0],[0,9E9,9E9,9E9,9E9,9E9]],Work,z1,custom_tool1\WObj:=WObj0;
MoveJ [[495.53,253.62,251.91],[0,0.989211,0.146497,0],[0,-1,-1,0],[0,9E9,9E9,9E9,9E9,9E9]],Work,z1,custom_tool1\WObj:=WObj0;
MoveJ [[25,420,145.8],[-0.174713,0.907209,0.375778,0.072368],[0,-1,-1,0],[0,9E9,9E9,9E9,9E9,9E9]],Work,z1,custom_tool1\WObj:=WObj0;
ENDPROC
ENDMODULE