            {0;0}
0. ! TACO Target Robot: T_ROB1
MODULE MainModule
VAR speeddata Work:= [100,20,5000,1000];
PERS tooldata custom_tool1 := [TRUE, [[-144.18,-154.4,34.77], [0.707107,0.5,-0.5,0]], [0.1,[0.10,0.00,0.00],[1,0,0,0],0,0,0]];
PROC Main()
ConfL \Off;
ConfJ \Off;
SetDO Stavbar_Gripper_close, 0;
SetDO Stavbar_Gripper_open, 1;
MoveJ [[25,450,138.8],[-0.174713,0.907209,0.375778,0.072368],[0,-1,-1,0],[0,9E9,9E9,9E9,9E9,9E9]],v150,z20,custom_tool1\WObj:=WObj0;
MoveL [[25,550,38.8],[-0.174713,0.907209,0.375778,0.072368],[0,-1,-1,0],[0,9E9,9E9,9E9,9E9,9E9]],v150,z20,custom_tool1\WObj:=WObj0;
IF TestDI(Stavbar_opt) THEN
WaitDI Stavbar_opt, 0;
ENDIF
WaitTime 1.5;
SetDO Stavbar_Gripper_open, 0;
SetDO Stavbar_Gripper_close, 1;
WaitTime 1;
MoveL [[25,450,138.8],[-0.174713,0.907209,0.375778,0.072368],[0,-1,-1,0],[0,9E9,9E9,9E9,9E9,9E9]],v150,z20,custom_tool1\WObj:=WObj0;
MoveJ [[424.57,176.97,315.36],[0.320717,-0.233457,0.914293,-0.081892],[0,-1,-1,0],[0,9E9,9E9,9E9,9E9,9E9]],v150,z20,custom_tool1\WObj:=WObj0;
MoveJ [[211.46,532.74,112.5],[0,0.648673,0.761067,0],[0,-1,-1,0],[0,9E9,9E9,9E9,9E9,9E9]],v150,z20,custom_tool1\WObj:=WObj0;
MoveL [[211.46,532.74,12.5],[0,0.648673,0.761067,0],[0,-1,-1,0],[0,9E9,9E9,9E9,9E9,9E9]],v150,z20,custom_tool1\WObj:=WObj0;
WaitTime 1.5;
SetDO Stavbar_Gripper_close, 0;
SetDO Stavbar_Gripper_open, 1;
WaitTime 1;
SetDO Stavbar_Gripper_open, 0;
MoveL [[211.46,532.74,112.5],[0,0.648673,0.761067,0],[0,-1,-1,0],[0,9E9,9E9,9E9,9E9,9E9]],v150,z20,custom_tool1\WObj:=WObj0;
MoveJ [[424.57,176.97,315.36],[0.320717,-0.233457,0.914293,-0.081892],[0,-1,-1,0],[0,9E9,9E9,9E9,9E9,9E9]],v150,z20,custom_tool1\WObj:=WObj0;
MoveJ [[25,450,138.8],[-0.174713,0.907209,0.375778,0.072368],[0,-1,-1,0],[0,9E9,9E9,9E9,9E9,9E9]],v150,z20,custom_tool1\WObj:=WObj0;
MoveL [[25,550,38.8],[-0.174713,0.907209,0.375778,0.072368],[0,-1,-1,0],[0,9E9,9E9,9E9,9E9,9E9]],v150,z20,custom_tool1\WObj:=WObj0;
IF TestDI(Stavbar_opt) THEN
WaitDI Stavbar_opt, 0;
ENDIF
WaitTime 1.5;
SetDO Stavbar_Gripper_open, 0;
SetDO Stavbar_Gripper_close, 1;
WaitTime 1;
MoveL [[25,450,138.8],[-0.174713,0.907209,0.375778,0.072368],[0,-1,-1,0],[0,9E9,9E9,9E9,9E9,9E9]],v150,z20,custom_tool1\WObj:=WObj0;
MoveJ [[424.57,176.97,315.36],[0.320717,-0.233457,0.914293,-0.081892],[0,-1,-1,0],[0,9E9,9E9,9E9,9E9,9E9]],v150,z20,custom_tool1\WObj:=WObj0;
MoveJ [[294.94,468.43,112.5],[0,0.67233,0.740252,0],[0,-1,-1,0],[0,9E9,9E9,9E9,9E9,9E9]],v150,z20,custom_tool1\WObj:=WObj0;
MoveL [[294.94,468.43,12.5],[0,0.67233,0.740252,0],[0,-1,-1,0],[0,9E9,9E9,9E9,9E9,9E9]],v150,z20,custom_tool1\WObj:=WObj0;
WaitTime 1.5;
SetDO Stavbar_Gripper_close, 0;
SetDO Stavbar_Gripper_open, 1;
WaitTime 1;
SetDO Stavbar_Gripper_open, 0;
MoveL [[294.94,468.43,112.5],[0,0.67233,0.740252,0],[0,-1,-1,0],[0,9E9,9E9,9E9,9E9,9E9]],v150,z20,custom_tool1\WObj:=WObj0;
MoveJ [[424.57,176.97,315.36],[0.320717,-0.233457,0.914293,-0.081892],[0,-1,-1,0],[0,9E9,9E9,9E9,9E9,9E9]],v150,z20,custom_tool1\WObj:=WObj0;
MoveJ [[25,450,138.8],[-0.174713,0.907209,0.375778,0.072368],[0,-1,-1,0],[0,9E9,9E9,9E9,9E9,9E9]],v150,z20,custom_tool1\WObj:=WObj0;
MoveL [[25,550,38.8],[-0.174713,0.907209,0.375778,0.072368],[0,-1,-1,0],[0,9E9,9E9,9E9,9E9,9E9]],v150,z20,custom_tool1\WObj:=WObj0;
IF TestDI(Stavbar_opt) THEN
WaitDI Stavbar_opt, 0;
ENDIF
WaitTime 1.5;
SetDO Stavbar_Gripper_open, 0;
SetDO Stavbar_Gripper_close, 1;
WaitTime 1;
MoveL [[25,450,138.8],[-0.174713,0.907209,0.375778,0.072368],[0,-1,-1,0],[0,9E9,9E9,9E9,9E9,9E9]],v150,z20,custom_tool1\WObj:=WObj0;
MoveJ [[424.57,176.97,315.36],[0.320717,-0.233457,0.914293,-0.081892],[0,-1,-1,0],[0,9E9,9E9,9E9,9E9,9E9]],v150,z20,custom_tool1\WObj:=WObj0;
MoveJ [[373.51,398.24,112.5],[0,0.702834,0.711354,0],[0,-1,-1,0],[0,9E9,9E9,9E9,9E9,9E9]],v150,z20,custom_tool1\WObj:=WObj0;
MoveL [[373.51,398.24,12.5],[0,0.702834,0.711354,0],[0,-1,-1,0],[0,9E9,9E9,9E9,9E9,9E9]],v150,z20,custom_tool1\WObj:=WObj0;
WaitTime 1.5;
SetDO Stavbar_Gripper_close, 0;
SetDO Stavbar_Gripper_open, 1;
WaitTime 1;
SetDO Stavbar_Gripper_open, 0;
MoveL [[373.51,398.24,112.5],[0,0.702834,0.711354,0],[0,-1,-1,0],[0,9E9,9E9,9E9,9E9,9E9]],v150,z20,custom_tool1\WObj:=WObj0;
MoveJ [[424.57,176.97,315.36],[0.320717,-0.233457,0.914293,-0.081892],[0,-1,-1,0],[0,9E9,9E9,9E9,9E9,9E9]],v150,z20,custom_tool1\WObj:=WObj0;
MoveJ [[25,450,138.8],[-0.174713,0.907209,0.375778,0.072368],[0,-1,-1,0],[0,9E9,9E9,9E9,9E9,9E9]],v150,z20,custom_tool1\WObj:=WObj0;
MoveL [[25,550,38.8],[-0.174713,0.907209,0.375778,0.072368],[0,-1,-1,0],[0,9E9,9E9,9E9,9E9,9E9]],v150,z20,custom_tool1\WObj:=WObj0;
IF TestDI(Stavbar_opt) THEN
WaitDI Stavbar_opt, 0;
ENDIF
WaitTime 1.5;
SetDO Stavbar_Gripper_open, 0;
SetDO Stavbar_Gripper_close, 1;
WaitTime 1;
MoveL [[25,450,138.8],[-0.174713,0.907209,0.375778,0.072368],[0,-1,-1,0],[0,9E9,9E9,9E9,9E9,9E9]],v150,z20,custom_tool1\WObj:=WObj0;
MoveJ [[424.57,176.97,315.36],[0.320717,-0.233457,0.914293,-0.081892],[0,-1,-1,0],[0,9E9,9E9,9E9,9E9,9E9]],v150,z20,custom_tool1\WObj:=WObj0;
MoveJ [[444.72,320.63,112.5],[0,0.743151,0.669124,0],[0,-1,-1,0],[0,9E9,9E9,9E9,9E9,9E9]],v150,z20,custom_tool1\WObj:=WObj0;
MoveL [[444.72,320.63,12.5],[0,0.743151,0.669124,0],[0,-1,-1,0],[0,9E9,9E9,9E9,9E9,9E9]],v150,z20,custom_tool1\WObj:=WObj0;
WaitTime 1.5;
SetDO Stavbar_Gripper_close, 0;
SetDO Stavbar_Gripper_open, 1;
WaitTime 1;
SetDO Stavbar_Gripper_open, 0;
MoveL [[444.72,320.63,112.5],[0,0.743151,0.669124,0],[0,-1,-1,0],[0,9E9,9E9,9E9,9E9,9E9]],v150,z20,custom_tool1\WObj:=WObj0;
MoveJ [[424.57,176.97,315.36],[0.320717,-0.233457,0.914293,-0.081892],[0,-1,-1,0],[0,9E9,9E9,9E9,9E9,9E9]],v150,z20,custom_tool1\WObj:=WObj0;
MoveJ [[25,450,138.8],[-0.174713,0.907209,0.375778,0.072368],[0,-1,-1,0],[0,9E9,9E9,9E9,9E9,9E9]],v150,z20,custom_tool1\WObj:=WObj0;
MoveL [[25,550,38.8],[-0.174713,0.907209,0.375778,0.072368],[0,-1,-1,0],[0,9E9,9E9,9E9,9E9,9E9]],v150,z20,custom_tool1\WObj:=WObj0;
IF TestDI(Stavbar_opt) THEN
WaitDI Stavbar_opt, 0;
ENDIF
WaitTime 1.5;
SetDO Stavbar_Gripper_open, 0;
SetDO Stavbar_Gripper_close, 1;
WaitTime 1;
MoveL [[25,450,138.8],[-0.174713,0.907209,0.375778,0.072368],[0,-1,-1,0],[0,9E9,9E9,9E9,9E9,9E9]],v150,z20,custom_tool1\WObj:=WObj0;
MoveJ [[424.57,176.97,315.36],[0.320717,-0.233457,0.914293,-0.081892],[0,-1,-1,0],[0,9E9,9E9,9E9,9E9,9E9]],v150,z20,custom_tool1\WObj:=WObj0;
MoveJ [[504.31,233.85,112.5],[0,0.796804,0.604237,0],[0,-1,-1,0],[0,9E9,9E9,9E9,9E9,9E9]],v150,z20,custom_tool1\WObj:=WObj0;
MoveL [[504.31,233.85,12.5],[0,0.796804,0.604237,0],[0,-1,-1,0],[0,9E9,9E9,9E9,9E9,9E9]],v150,z20,custom_tool1\WObj:=WObj0;
WaitTime 1.5;
SetDO Stavbar_Gripper_close, 0;
SetDO Stavbar_Gripper_open, 1;
WaitTime 1;
SetDO Stavbar_Gripper_open, 0;
MoveL [[504.31,233.85,112.5],[0,0.796804,0.604237,0],[0,-1,-1,0],[0,9E9,9E9,9E9,9E9,9E9]],v150,z20,custom_tool1\WObj:=WObj0;
MoveJ [[424.57,176.97,315.36],[0.320717,-0.233457,0.914293,-0.081892],[0,-1,-1,0],[0,9E9,9E9,9E9,9E9,9E9]],v150,z20,custom_tool1\WObj:=WObj0;
MoveJ [[25,450,138.8],[-0.174713,0.907209,0.375778,0.072368],[0,-1,-1,0],[0,9E9,9E9,9E9,9E9,9E9]],v150,z20,custom_tool1\WObj:=WObj0;
MoveL [[25,550,38.8],[-0.174713,0.907209,0.375778,0.072368],[0,-1,-1,0],[0,9E9,9E9,9E9,9E9,9E9]],v150,z20,custom_tool1\WObj:=WObj0;
IF TestDI(Stavbar_opt) THEN
WaitDI Stavbar_opt, 0;
ENDIF
WaitTime 1.5;
SetDO Stavbar_Gripper_open, 0;
SetDO Stavbar_Gripper_close, 1;
WaitTime 1;
MoveL [[25,450,138.8],[-0.174713,0.907209,0.375778,0.072368],[0,-1,-1,0],[0,9E9,9E9,9E9,9E9,9E9]],v150,z20,custom_tool1\WObj:=WObj0;
MoveJ [[424.57,176.97,315.36],[0.320717,-0.233457,0.914293,-0.081892],[0,-1,-1,0],[0,9E9,9E9,9E9,9E9,9E9]],v150,z20,custom_tool1\WObj:=WObj0;
MoveJ [[545.02,136.92,112.5],[0,0.864151,0.503233,0],[0,-1,-1,0],[0,9E9,9E9,9E9,9E9,9E9]],v150,z20,custom_tool1\WObj:=WObj0;
MoveL [[545.02,136.92,12.5],[0,0.864151,0.503233,0],[0,-1,-1,0],[0,9E9,9E9,9E9,9E9,9E9]],v150,z20,custom_tool1\WObj:=WObj0;
WaitTime 1.5;
SetDO Stavbar_Gripper_close, 0;
SetDO Stavbar_Gripper_open, 1;
WaitTime 1;
SetDO Stavbar_Gripper_open, 0;
MoveL [[545.02,136.92,112.5],[0,0.864151,0.503233,0],[0,-1,-1,0],[0,9E9,9E9,9E9,9E9,9E9]],v150,z20,custom_tool1\WObj:=WObj0;
MoveJ [[424.57,176.97,315.36],[0.320717,-0.233457,0.914293,-0.081892],[0,-1,-1,0],[0,9E9,9E9,9E9,9E9,9E9]],v150,z20,custom_tool1\WObj:=WObj0;
MoveJ [[25,450,138.8],[-0.174713,0.907209,0.375778,0.072368],[0,-1,-1,0],[0,9E9,9E9,9E9,9E9,9E9]],v150,z20,custom_tool1\WObj:=WObj0;
MoveL [[25,550,38.8],[-0.174713,0.907209,0.375778,0.072368],[0,-1,-1,0],[0,9E9,9E9,9E9,9E9,9E9]],v150,z20,custom_tool1\WObj:=WObj0;
IF TestDI(Stavbar_opt) THEN
WaitDI Stavbar_opt, 0;
ENDIF
WaitTime 1.5;
SetDO Stavbar_Gripper_open, 0;
SetDO Stavbar_Gripper_close, 1;
WaitTime 1;
MoveL [[25,450,138.8],[-0.174713,0.907209,0.375778,0.072368],[0,-1,-1,0],[0,9E9,9E9,9E9,9E9,9E9]],v150,z20,custom_tool1\WObj:=WObj0;
MoveJ [[424.57,176.97,315.36],[0.320717,-0.233457,0.914293,-0.081892],[0,-1,-1,0],[0,9E9,9E9,9E9,9E9,9E9]],v150,z20,custom_tool1\WObj:=WObj0;
MoveJ [[557.21,32.67,112.5],[0,0.932124,0.36214,0],[0,-1,-1,0],[0,9E9,9E9,9E9,9E9,9E9]],v150,z20,custom_tool1\WObj:=WObj0;
MoveL [[557.21,32.67,12.5],[0,0.932124,0.36214,0],[0,-1,-1,0],[0,9E9,9E9,9E9,9E9,9E9]],v150,z20,custom_tool1\WObj:=WObj0;
WaitTime 1.5;
SetDO Stavbar_Gripper_close, 0;
SetDO Stavbar_Gripper_open, 1;
WaitTime 1;
SetDO Stavbar_Gripper_open, 0;
MoveL [[557.21,32.67,112.5],[0,0.932124,0.36214,0],[0,-1,-1,0],[0,9E9,9E9,9E9,9E9,9E9]],v150,z20,custom_tool1\WObj:=WObj0;
MoveJ [[424.57,176.97,315.36],[0.320717,-0.233457,0.914293,-0.081892],[0,-1,-1,0],[0,9E9,9E9,9E9,9E9,9E9]],v150,z20,custom_tool1\WObj:=WObj0;
MoveJ [[25,450,138.8],[-0.174713,0.907209,0.375778,0.072368],[0,-1,-1,0],[0,9E9,9E9,9E9,9E9,9E9]],v150,z20,custom_tool1\WObj:=WObj0;
MoveL [[25,550,38.8],[-0.174713,0.907209,0.375778,0.072368],[0,-1,-1,0],[0,9E9,9E9,9E9,9E9,9E9]],v150,z20,custom_tool1\WObj:=WObj0;
IF TestDI(Stavbar_opt) THEN
WaitDI Stavbar_opt, 0;
ENDIF
WaitTime 1.5;
SetDO Stavbar_Gripper_open, 0;
SetDO Stavbar_Gripper_close, 1;
WaitTime 1;
MoveL [[25,450,138.8],[-0.174713,0.907209,0.375778,0.072368],[0,-1,-1,0],[0,9E9,9E9,9E9,9E9,9E9]],v150,z20,custom_tool1\WObj:=WObj0;
MoveJ [[424.57,176.97,315.36],[0.320717,-0.233457,0.914293,-0.081892],[0,-1,-1,0],[0,9E9,9E9,9E9,9E9,9E9]],v150,z20,custom_tool1\WObj:=WObj0;
MoveJ [[424.57,176.97,315.36],[0.320717,-0.233457,0.914293,-0.081892],[0,-1,-1,0],[0,9E9,9E9,9E9,9E9,9E9]],v150,z20,custom_tool1\WObj:=WObj0;
MoveJ [[535.87,-70.09,112.5],[0,0.97719,0.212369,0],[0,-1,-1,0],[0,9E9,9E9,9E9,9E9,9E9]],v150,z20,custom_tool1\WObj:=WObj0;
MoveL [[535.87,-70.09,12.5],[0,0.97719,0.212369,0],[0,-1,-1,0],[0,9E9,9E9,9E9,9E9,9E9]],v150,z20,custom_tool1\WObj:=WObj0;
WaitTime 1.5;
SetDO Stavbar_Gripper_close, 0;
SetDO Stavbar_Gripper_open, 1;
WaitTime 1;
SetDO Stavbar_Gripper_open, 0;
MoveL [[535.87,-70.09,112.5],[0,0.97719,0.212369,0],[0,-1,-1,0],[0,9E9,9E9,9E9,9E9,9E9]],v150,z20,custom_tool1\WObj:=WObj0;
MoveJ [[424.57,176.97,315.36],[0.320717,-0.233457,0.914293,-0.081892],[0,-1,-1,0],[0,9E9,9E9,9E9,9E9,9E9]],v150,z20,custom_tool1\WObj:=WObj0;
MoveJ [[424.57,176.97,315.36],[0.320717,-0.233457,0.914293,-0.081892],[0,-1,-1,0],[0,9E9,9E9,9E9,9E9,9E9]],v150,z20,custom_tool1\WObj:=WObj0;
MoveJ [[25,450,138.8],[-0.174713,0.907209,0.375778,0.072368],[0,-1,-1,0],[0,9E9,9E9,9E9,9E9,9E9]],v150,z20,custom_tool1\WObj:=WObj0;
MoveL [[25,550,38.8],[-0.174713,0.907209,0.375778,0.072368],[0,-1,-1,0],[0,9E9,9E9,9E9,9E9,9E9]],v150,z20,custom_tool1\WObj:=WObj0;
IF TestDI(Stavbar_opt) THEN
WaitDI Stavbar_opt, 0;
ENDIF
WaitTime 1.5;
SetDO Stavbar_Gripper_open, 0;
SetDO Stavbar_Gripper_close, 1;
WaitTime 1;
MoveL [[25,450,138.8],[-0.174713,0.907209,0.375778,0.072368],[0,-1,-1,0],[0,9E9,9E9,9E9,9E9,9E9]],v150,z20,custom_tool1\WObj:=WObj0;
MoveJ [[424.57,176.97,315.36],[0.320717,-0.233457,0.914293,-0.081892],[0,-1,-1,0],[0,9E9,9E9,9E9,9E9,9E9]],v150,z20,custom_tool1\WObj:=WObj0;
MoveJ [[424.57,176.97,315.36],[0.320717,-0.233457,0.914293,-0.081892],[0,-1,-1,0],[0,9E9,9E9,9E9,9E9,9E9]],v150,z20,custom_tool1\WObj:=WObj0;
MoveJ [[486.81,-163.08,112.5],[0,0.995688,0.092763,0],[0,-1,-1,0],[0,9E9,9E9,9E9,9E9,9E9]],v150,z20,custom_tool1\WObj:=WObj0;
MoveL [[486.81,-163.08,12.5],[0,0.995688,0.092763,0],[0,-1,-1,0],[0,9E9,9E9,9E9,9E9,9E9]],v150,z20,custom_tool1\WObj:=WObj0;
WaitTime 1.5;
SetDO Stavbar_Gripper_close, 0;
SetDO Stavbar_Gripper_open, 1;
WaitTime 1;
SetDO Stavbar_Gripper_open, 0;
MoveL [[486.81,-163.08,112.5],[0,0.995688,0.092763,0],[0,-1,-1,0],[0,9E9,9E9,9E9,9E9,9E9]],v150,z20,custom_tool1\WObj:=WObj0;
MoveJ [[424.57,176.97,315.36],[0.320717,-0.233457,0.914293,-0.081892],[0,-1,-1,0],[0,9E9,9E9,9E9,9E9,9E9]],v150,z20,custom_tool1\WObj:=WObj0;
MoveJ [[424.57,176.97,315.36],[0.320717,-0.233457,0.914293,-0.081892],[0,-1,-1,0],[0,9E9,9E9,9E9,9E9,9E9]],v150,z20,custom_tool1\WObj:=WObj0;
MoveJ [[25,450,138.8],[-0.174713,0.907209,0.375778,0.072368],[0,-1,-1,0],[0,9E9,9E9,9E9,9E9,9E9]],v150,z20,custom_tool1\WObj:=WObj0;
MoveL [[25,550,38.8],[-0.174713,0.907209,0.375778,0.072368],[0,-1,-1,0],[0,9E9,9E9,9E9,9E9,9E9]],v150,z20,custom_tool1\WObj:=WObj0;
IF TestDI(Stavbar_opt) THEN
WaitDI Stavbar_opt, 0;
ENDIF
WaitTime 1.5;
SetDO Stavbar_Gripper_open, 0;
SetDO Stavbar_Gripper_close, 1;
WaitTime 1;
MoveL [[25,450,138.8],[-0.174713,0.907209,0.375778,0.072368],[0,-1,-1,0],[0,9E9,9E9,9E9,9E9,9E9]],v150,z20,custom_tool1\WObj:=WObj0;
MoveJ [[424.57,176.97,315.36],[0.320717,-0.233457,0.914293,-0.081892],[0,-1,-1,0],[0,9E9,9E9,9E9,9E9,9E9]],v150,z20,custom_tool1\WObj:=WObj0;
MoveJ [[424.57,176.97,315.36],[0.320717,-0.233457,0.914293,-0.081892],[0,-1,-1,0],[0,9E9,9E9,9E9,9E9,9E9]],v150,z20,custom_tool1\WObj:=WObj0;
MoveJ [[419.9,-244.35,112.5],[0,0.99996,0.008965,0],[0,-1,-1,0],[0,9E9,9E9,9E9,9E9,9E9]],v150,z20,custom_tool1\WObj:=WObj0;
MoveL [[419.9,-244.35,12.5],[0,0.99996,0.008965,0],[0,-1,-1,0],[0,9E9,9E9,9E9,9E9,9E9]],v150,z20,custom_tool1\WObj:=WObj0;
WaitTime 1.5;
SetDO Stavbar_Gripper_close, 0;
SetDO Stavbar_Gripper_open, 1;
WaitTime 1;
SetDO Stavbar_Gripper_open, 0;
MoveL [[419.9,-244.35,112.5],[0,0.99996,0.008965,0],[0,-1,-1,0],[0,9E9,9E9,9E9,9E9,9E9]],v150,z20,custom_tool1\WObj:=WObj0;
MoveJ [[424.57,176.97,315.36],[0.320717,-0.233457,0.914293,-0.081892],[0,-1,-1,0],[0,9E9,9E9,9E9,9E9,9E9]],v150,z20,custom_tool1\WObj:=WObj0;
MoveJ [[424.57,176.97,315.36],[0.320717,-0.233457,0.914293,-0.081892],[0,-1,-1,0],[0,9E9,9E9,9E9,9E9,9E9]],v150,z20,custom_tool1\WObj:=WObj0;
MoveJ [[25,450,138.8],[-0.174713,0.907209,0.375778,0.072368],[0,-1,-1,0],[0,9E9,9E9,9E9,9E9,9E9]],v150,z20,custom_tool1\WObj:=WObj0;
MoveJ [[-63,450,138.8],[-0.174713,0.907209,0.375778,0.072368],[0,-1,-1,0],[0,9E9,9E9,9E9,9E9,9E9]],v150,z20,custom_tool1\WObj:=WObj0;
MoveL [[-63,550,38.8],[-0.174713,0.907209,0.375778,0.072368],[0,-1,-1,0],[0,9E9,9E9,9E9,9E9,9E9]],v150,z20,custom_tool1\WObj:=WObj0;
IF TestDI(Stavbar_opt) THEN
WaitDI Stavbar_opt, 0;
ENDIF
WaitTime 1.5;
SetDO Stavbar_Gripper_open, 0;
SetDO Stavbar_Gripper_close, 1;
WaitTime 1;
MoveL [[-63,450,138.8],[-0.174713,0.907209,0.375778,0.072368],[0,-1,-1,0],[0,9E9,9E9,9E9,9E9,9E9]],v150,z20,custom_tool1\WObj:=WObj0;
MoveJ [[25,450,138.8],[-0.174713,0.907209,0.375778,0.072368],[0,-1,-1,0],[0,9E9,9E9,9E9,9E9,9E9]],v150,z20,custom_tool1\WObj:=WObj0;
MoveJ [[424.57,176.97,315.36],[0.320717,-0.233457,0.914293,-0.081892],[0,-1,-1,0],[0,9E9,9E9,9E9,9E9,9E9]],v150,z20,custom_tool1\WObj:=WObj0;
MoveJ [[424.57,176.97,315.36],[0.320717,-0.233457,0.914293,-0.081892],[0,-1,-1,0],[0,9E9,9E9,9E9,9E9,9E9]],v150,z20,custom_tool1\WObj:=WObj0;
MoveJ [[370.29,-291.84,112.5],[0,0.999743,-0.022669,0],[0,-1,-1,0],[0,9E9,9E9,9E9,9E9,9E9]],v150,z20,custom_tool1\WObj:=WObj0;
MoveL [[370.29,-291.84,12.5],[0,0.999743,-0.022669,0],[0,-1,-1,0],[0,9E9,9E9,9E9,9E9,9E9]],v150,z20,custom_tool1\WObj:=WObj0;
WaitTime 1.5;
SetDO Stavbar_Gripper_close, 0;
SetDO Stavbar_Gripper_open, 1;
WaitTime 1;
SetDO Stavbar_Gripper_open, 0;
MoveL [[370.29,-291.84,112.5],[0,0.999743,-0.022669,0],[0,-1,-1,0],[0,9E9,9E9,9E9,9E9,9E9]],v150,z20,custom_tool1\WObj:=WObj0;
MoveJ [[424.57,176.97,315.36],[0.320717,-0.233457,0.914293,-0.081892],[0,-1,-1,0],[0,9E9,9E9,9E9,9E9,9E9]],v150,z20,custom_tool1\WObj:=WObj0;
MoveJ [[424.57,176.97,315.36],[0.320717,-0.233457,0.914293,-0.081892],[0,-1,-1,0],[0,9E9,9E9,9E9,9E9,9E9]],v150,z20,custom_tool1\WObj:=WObj0;
MoveJ [[25,450,138.8],[-0.174713,0.907209,0.375778,0.072368],[0,-1,-1,0],[0,9E9,9E9,9E9,9E9,9E9]],v150,z20,custom_tool1\WObj:=WObj0;
MoveJ [[-63,450,138.8],[-0.174713,0.907209,0.375778,0.072368],[0,-1,-1,0],[0,9E9,9E9,9E9,9E9,9E9]],v150,z20,custom_tool1\WObj:=WObj0;
MoveL [[-63,550,38.8],[-0.174713,0.907209,0.375778,0.072368],[0,-1,-1,0],[0,9E9,9E9,9E9,9E9,9E9]],v150,z20,custom_tool1\WObj:=WObj0;
IF TestDI(Stavbar_opt) THEN
WaitDI Stavbar_opt, 0;
ENDIF
WaitTime 1.5;
SetDO Stavbar_Gripper_open, 0;
SetDO Stavbar_Gripper_close, 1;
WaitTime 1;
MoveL [[-63,450,138.8],[-0.174713,0.907209,0.375778,0.072368],[0,-1,-1,0],[0,9E9,9E9,9E9,9E9,9E9]],v150,z20,custom_tool1\WObj:=WObj0;
MoveJ [[25,450,138.8],[-0.174713,0.907209,0.375778,0.072368],[0,-1,-1,0],[0,9E9,9E9,9E9,9E9,9E9]],v150,z20,custom_tool1\WObj:=WObj0;
MoveJ [[424.57,176.97,315.36],[0.320717,-0.233457,0.914293,-0.081892],[0,-1,-1,0],[0,9E9,9E9,9E9,9E9,9E9]],v150,z20,custom_tool1\WObj:=WObj0;
MoveJ [[198.5,542.12,135.5],[0,0.648673,0.761067,0],[0,-1,-1,0],[0,9E9,9E9,9E9,9E9,9E9]],v150,z20,custom_tool1\WObj:=WObj0;
MoveL [[198.5,542.12,35.5],[0,0.648673,0.761067,0],[0,-1,-1,0],[0,9E9,9E9,9E9,9E9,9E9]],v150,z20,custom_tool1\WObj:=WObj0;
WaitTime 1.5;
SetDO Stavbar_Gripper_close, 0;
SetDO Stavbar_Gripper_open, 1;
WaitTime 1;
SetDO Stavbar_Gripper_open, 0;
MoveL [[198.5,542.12,135.5],[0,0.648673,0.761067,0],[0,-1,-1,0],[0,9E9,9E9,9E9,9E9,9E9]],v150,z20,custom_tool1\WObj:=WObj0;
MoveJ [[424.57,176.97,315.36],[0.320717,-0.233457,0.914293,-0.081892],[0,-1,-1,0],[0,9E9,9E9,9E9,9E9,9E9]],v150,z20,custom_tool1\WObj:=WObj0;
MoveJ [[25,450,138.8],[-0.174713,0.907209,0.375778,0.072368],[0,-1,-1,0],[0,9E9,9E9,9E9,9E9,9E9]],v150,z20,custom_tool1\WObj:=WObj0;
MoveL [[25,550,38.8],[-0.174713,0.907209,0.375778,0.072368],[0,-1,-1,0],[0,9E9,9E9,9E9,9E9,9E9]],v150,z20,custom_tool1\WObj:=WObj0;
IF TestDI(Stavbar_opt) THEN
WaitDI Stavbar_opt, 0;
ENDIF
WaitTime 1.5;
SetDO Stavbar_Gripper_open, 0;
SetDO Stavbar_Gripper_close, 1;
WaitTime 1;
MoveL [[25,450,138.8],[-0.174713,0.907209,0.375778,0.072368],[0,-1,-1,0],[0,9E9,9E9,9E9,9E9,9E9]],v150,z20,custom_tool1\WObj:=WObj0;
MoveJ [[424.57,176.97,315.36],[0.320717,-0.233457,0.914293,-0.081892],[0,-1,-1,0],[0,9E9,9E9,9E9,9E9,9E9]],v150,z20,custom_tool1\WObj:=WObj0;
MoveJ [[253.7,501.24,135.5],[0,0.659792,0.751449,0],[0,-1,-1,0],[0,9E9,9E9,9E9,9E9,9E9]],v150,z20,custom_tool1\WObj:=WObj0;
MoveL [[253.7,501.24,35.5],[0,0.659792,0.751449,0],[0,-1,-1,0],[0,9E9,9E9,9E9,9E9,9E9]],v150,z20,custom_tool1\WObj:=WObj0;
WaitTime 1.5;
SetDO Stavbar_Gripper_close, 0;
SetDO Stavbar_Gripper_open, 1;
WaitTime 1;
SetDO Stavbar_Gripper_open, 0;
MoveL [[253.7,501.24,135.5],[0,0.659792,0.751449,0],[0,-1,-1,0],[0,9E9,9E9,9E9,9E9,9E9]],v150,z20,custom_tool1\WObj:=WObj0;
MoveJ [[424.57,176.97,315.36],[0.320717,-0.233457,0.914293,-0.081892],[0,-1,-1,0],[0,9E9,9E9,9E9,9E9,9E9]],v150,z20,custom_tool1\WObj:=WObj0;
MoveJ [[25,450,138.8],[-0.174713,0.907209,0.375778,0.072368],[0,-1,-1,0],[0,9E9,9E9,9E9,9E9,9E9]],v150,z20,custom_tool1\WObj:=WObj0;
MoveL [[25,550,38.8],[-0.174713,0.907209,0.375778,0.072368],[0,-1,-1,0],[0,9E9,9E9,9E9,9E9,9E9]],v150,z20,custom_tool1\WObj:=WObj0;
IF TestDI(Stavbar_opt) THEN
WaitDI Stavbar_opt, 0;
ENDIF
WaitTime 1.5;
SetDO Stavbar_Gripper_open, 0;
SetDO Stavbar_Gripper_close, 1;
WaitTime 1;
MoveL [[25,450,138.8],[-0.174713,0.907209,0.375778,0.072368],[0,-1,-1,0],[0,9E9,9E9,9E9,9E9,9E9]],v150,z20,custom_tool1\WObj:=WObj0;
MoveJ [[424.57,176.97,315.36],[0.320717,-0.233457,0.914293,-0.081892],[0,-1,-1,0],[0,9E9,9E9,9E9,9E9,9E9]],v150,z20,custom_tool1\WObj:=WObj0;
MoveJ [[334.96,434.16,135.5],[0,0.686564,0.727069,0],[0,-1,-1,0],[0,9E9,9E9,9E9,9E9,9E9]],v150,z20,custom_tool1\WObj:=WObj0;
MoveL [[334.96,434.16,35.5],[0,0.686564,0.727069,0],[0,-1,-1,0],[0,9E9,9E9,9E9,9E9,9E9]],v150,z20,custom_tool1\WObj:=WObj0;
WaitTime 1.5;
SetDO Stavbar_Gripper_close, 0;
SetDO Stavbar_Gripper_open, 1;
WaitTime 1;
SetDO Stavbar_Gripper_open, 0;
MoveL [[334.96,434.16,135.5],[0,0.686564,0.727069,0],[0,-1,-1,0],[0,9E9,9E9,9E9,9E9,9E9]],v150,z20,custom_tool1\WObj:=WObj0;
MoveJ [[424.57,176.97,315.36],[0.320717,-0.233457,0.914293,-0.081892],[0,-1,-1,0],[0,9E9,9E9,9E9,9E9,9E9]],v150,z20,custom_tool1\WObj:=WObj0;
MoveJ [[25,450,138.8],[-0.174713,0.907209,0.375778,0.072368],[0,-1,-1,0],[0,9E9,9E9,9E9,9E9,9E9]],v150,z20,custom_tool1\WObj:=WObj0;
MoveL [[25,550,38.8],[-0.174713,0.907209,0.375778,0.072368],[0,-1,-1,0],[0,9E9,9E9,9E9,9E9,9E9]],v150,z20,custom_tool1\WObj:=WObj0;
IF TestDI(Stavbar_opt) THEN
WaitDI Stavbar_opt, 0;
ENDIF
WaitTime 1.5;
SetDO Stavbar_Gripper_open, 0;
SetDO Stavbar_Gripper_close, 1;
WaitTime 1;
MoveL [[25,450,138.8],[-0.174713,0.907209,0.375778,0.072368],[0,-1,-1,0],[0,9E9,9E9,9E9,9E9,9E9]],v150,z20,custom_tool1\WObj:=WObj0;
MoveJ [[424.57,176.97,315.36],[0.320717,-0.233457,0.914293,-0.081892],[0,-1,-1,0],[0,9E9,9E9,9E9,9E9,9E9]],v150,z20,custom_tool1\WObj:=WObj0;
MoveJ [[410.24,360.47,135.5],[0,0.721543,0.69237,0],[0,-1,-1,0],[0,9E9,9E9,9E9,9E9,9E9]],v150,z20,custom_tool1\WObj:=WObj0;
MoveL [[410.24,360.47,35.5],[0,0.721543,0.69237,0],[0,-1,-1,0],[0,9E9,9E9,9E9,9E9,9E9]],v150,z20,custom_tool1\WObj:=WObj0;
WaitTime 1.5;
SetDO Stavbar_Gripper_close, 0;
SetDO Stavbar_Gripper_open, 1;
WaitTime 1;
SetDO Stavbar_Gripper_open, 0;
MoveL [[410.24,360.47,135.5],[0,0.721543,0.69237,0],[0,-1,-1,0],[0,9E9,9E9,9E9,9E9,9E9]],v150,z20,custom_tool1\WObj:=WObj0;
MoveJ [[424.57,176.97,315.36],[0.320717,-0.233457,0.914293,-0.081892],[0,-1,-1,0],[0,9E9,9E9,9E9,9E9,9E9]],v150,z20,custom_tool1\WObj:=WObj0;
MoveJ [[25,450,138.8],[-0.174713,0.907209,0.375778,0.072368],[0,-1,-1,0],[0,9E9,9E9,9E9,9E9,9E9]],v150,z20,custom_tool1\WObj:=WObj0;
MoveL [[25,550,38.8],[-0.174713,0.907209,0.375778,0.072368],[0,-1,-1,0],[0,9E9,9E9,9E9,9E9,9E9]],v150,z20,custom_tool1\WObj:=WObj0;
IF TestDI(Stavbar_opt) THEN
WaitDI Stavbar_opt, 0;
ENDIF
WaitTime 1.5;
SetDO Stavbar_Gripper_open, 0;
SetDO Stavbar_Gripper_close, 1;
WaitTime 1;
MoveL [[25,450,138.8],[-0.174713,0.907209,0.375778,0.072368],[0,-1,-1,0],[0,9E9,9E9,9E9,9E9,9E9]],v150,z20,custom_tool1\WObj:=WObj0;
MoveJ [[424.57,176.97,315.36],[0.320717,-0.233457,0.914293,-0.081892],[0,-1,-1,0],[0,9E9,9E9,9E9,9E9,9E9]],v150,z20,custom_tool1\WObj:=WObj0;
MoveJ [[476.34,278.49,135.5],[0,0.768124,0.640301,0],[0,-1,-1,0],[0,9E9,9E9,9E9,9E9,9E9]],v150,z20,custom_tool1\WObj:=WObj0;
MoveL [[476.34,278.49,35.5],[0,0.768124,0.640301,0],[0,-1,-1,0],[0,9E9,9E9,9E9,9E9,9E9]],v150,z20,custom_tool1\WObj:=WObj0;
WaitTime 1.5;
SetDO Stavbar_Gripper_close, 0;
SetDO Stavbar_Gripper_open, 1;
WaitTime 1;
SetDO Stavbar_Gripper_open, 0;
MoveL [[476.34,278.49,135.5],[0,0.768124,0.640301,0],[0,-1,-1,0],[0,9E9,9E9,9E9,9E9,9E9]],v150,z20,custom_tool1\WObj:=WObj0;
MoveJ [[424.57,176.97,315.36],[0.320717,-0.233457,0.914293,-0.081892],[0,-1,-1,0],[0,9E9,9E9,9E9,9E9,9E9]],v150,z20,custom_tool1\WObj:=WObj0;
MoveJ [[25,450,138.8],[-0.174713,0.907209,0.375778,0.072368],[0,-1,-1,0],[0,9E9,9E9,9E9,9E9,9E9]],v150,z20,custom_tool1\WObj:=WObj0;
MoveL [[25,550,38.8],[-0.174713,0.907209,0.375778,0.072368],[0,-1,-1,0],[0,9E9,9E9,9E9,9E9,9E9]],v150,z20,custom_tool1\WObj:=WObj0;
IF TestDI(Stavbar_opt) THEN
WaitDI Stavbar_opt, 0;
ENDIF
WaitTime 1.5;
SetDO Stavbar_Gripper_open, 0;
SetDO Stavbar_Gripper_close, 1;
WaitTime 1;
MoveL [[25,450,138.8],[-0.174713,0.907209,0.375778,0.072368],[0,-1,-1,0],[0,9E9,9E9,9E9,9E9,9E9]],v150,z20,custom_tool1\WObj:=WObj0;
MoveJ [[424.57,176.97,315.36],[0.320717,-0.233457,0.914293,-0.081892],[0,-1,-1,0],[0,9E9,9E9,9E9,9E9,9E9]],v150,z20,custom_tool1\WObj:=WObj0;
MoveJ [[527.61,186.62,135.5],[0,0.829125,0.559063,0],[0,-1,-1,0],[0,9E9,9E9,9E9,9E9,9E9]],v150,z20,custom_tool1\WObj:=WObj0;
MoveL [[527.61,186.62,35.5],[0,0.829125,0.559063,0],[0,-1,-1,0],[0,9E9,9E9,9E9,9E9,9E9]],v150,z20,custom_tool1\WObj:=WObj0;
WaitTime 1.5;
SetDO Stavbar_Gripper_close, 0;
SetDO Stavbar_Gripper_open, 1;
WaitTime 1;
SetDO Stavbar_Gripper_open, 0;
MoveL [[527.61,186.62,135.5],[0,0.829125,0.559063,0],[0,-1,-1,0],[0,9E9,9E9,9E9,9E9,9E9]],v150,z20,custom_tool1\WObj:=WObj0;
MoveJ [[424.57,176.97,315.36],[0.320717,-0.233457,0.914293,-0.081892],[0,-1,-1,0],[0,9E9,9E9,9E9,9E9,9E9]],v150,z20,custom_tool1\WObj:=WObj0;
MoveJ [[25,450,138.8],[-0.174713,0.907209,0.375778,0.072368],[0,-1,-1,0],[0,9E9,9E9,9E9,9E9,9E9]],v150,z20,custom_tool1\WObj:=WObj0;
MoveL [[25,550,38.8],[-0.174713,0.907209,0.375778,0.072368],[0,-1,-1,0],[0,9E9,9E9,9E9,9E9,9E9]],v150,z20,custom_tool1\WObj:=WObj0;
IF TestDI(Stavbar_opt) THEN
WaitDI Stavbar_opt, 0;
ENDIF
WaitTime 1.5;
SetDO Stavbar_Gripper_open, 0;
SetDO Stavbar_Gripper_close, 1;
WaitTime 1;
MoveL [[25,450,138.8],[-0.174713,0.907209,0.375778,0.072368],[0,-1,-1,0],[0,9E9,9E9,9E9,9E9,9E9]],v150,z20,custom_tool1\WObj:=WObj0;
MoveJ [[424.57,176.97,315.36],[0.320717,-0.233457,0.914293,-0.081892],[0,-1,-1,0],[0,9E9,9E9,9E9,9E9,9E9]],v150,z20,custom_tool1\WObj:=WObj0;
MoveJ [[555.23,85.27,135.5],[0,0.899619,0.436676,0],[0,-1,-1,0],[0,9E9,9E9,9E9,9E9,9E9]],v150,z20,custom_tool1\WObj:=WObj0;
MoveL [[555.23,85.27,35.5],[0,0.899619,0.436676,0],[0,-1,-1,0],[0,9E9,9E9,9E9,9E9,9E9]],v150,z20,custom_tool1\WObj:=WObj0;
WaitTime 1.5;
SetDO Stavbar_Gripper_close, 0;
SetDO Stavbar_Gripper_open, 1;
WaitTime 1;
SetDO Stavbar_Gripper_open, 0;
MoveL [[555.23,85.27,135.5],[0,0.899619,0.436676,0],[0,-1,-1,0],[0,9E9,9E9,9E9,9E9,9E9]],v150,z20,custom_tool1\WObj:=WObj0;
MoveJ [[424.57,176.97,315.36],[0.320717,-0.233457,0.914293,-0.081892],[0,-1,-1,0],[0,9E9,9E9,9E9,9E9,9E9]],v150,z20,custom_tool1\WObj:=WObj0;
MoveJ [[25,450,138.8],[-0.174713,0.907209,0.375778,0.072368],[0,-1,-1,0],[0,9E9,9E9,9E9,9E9,9E9]],v150,z20,custom_tool1\WObj:=WObj0;
MoveL [[25,550,38.8],[-0.174713,0.907209,0.375778,0.072368],[0,-1,-1,0],[0,9E9,9E9,9E9,9E9,9E9]],v150,z20,custom_tool1\WObj:=WObj0;
IF TestDI(Stavbar_opt) THEN
WaitDI Stavbar_opt, 0;
ENDIF
WaitTime 1.5;
SetDO Stavbar_Gripper_open, 0;
SetDO Stavbar_Gripper_close, 1;
WaitTime 1;
MoveL [[25,450,138.8],[-0.174713,0.907209,0.375778,0.072368],[0,-1,-1,0],[0,9E9,9E9,9E9,9E9,9E9]],v150,z20,custom_tool1\WObj:=WObj0;
MoveJ [[424.57,176.97,315.36],[0.320717,-0.233457,0.914293,-0.081892],[0,-1,-1,0],[0,9E9,9E9,9E9,9E9,9E9]],v150,z20,custom_tool1\WObj:=WObj0;
MoveJ [[424.57,176.97,315.36],[0.320717,-0.233457,0.914293,-0.081892],[0,-1,-1,0],[0,9E9,9E9,9E9,9E9,9E9]],v150,z20,custom_tool1\WObj:=WObj0;
MoveJ [[550.59,-19.55,135.5],[0,0.958448,0.285266,0],[0,-1,-1,0],[0,9E9,9E9,9E9,9E9,9E9]],v150,z20,custom_tool1\WObj:=WObj0;
MoveL [[550.59,-19.55,35.5],[0,0.958448,0.285266,0],[0,-1,-1,0],[0,9E9,9E9,9E9,9E9,9E9]],v150,z20,custom_tool1\WObj:=WObj0;
WaitTime 1.5;
SetDO Stavbar_Gripper_close, 0;
SetDO Stavbar_Gripper_open, 1;
WaitTime 1;
SetDO Stavbar_Gripper_open, 0;
MoveL [[550.59,-19.55,135.5],[0,0.958448,0.285266,0],[0,-1,-1,0],[0,9E9,9E9,9E9,9E9,9E9]],v150,z20,custom_tool1\WObj:=WObj0;
MoveJ [[424.57,176.97,315.36],[0.320717,-0.233457,0.914293,-0.081892],[0,-1,-1,0],[0,9E9,9E9,9E9,9E9,9E9]],v150,z20,custom_tool1\WObj:=WObj0;
MoveJ [[424.57,176.97,315.36],[0.320717,-0.233457,0.914293,-0.081892],[0,-1,-1,0],[0,9E9,9E9,9E9,9E9,9E9]],v150,z20,custom_tool1\WObj:=WObj0;
MoveJ [[25,450,138.8],[-0.174713,0.907209,0.375778,0.072368],[0,-1,-1,0],[0,9E9,9E9,9E9,9E9,9E9]],v150,z20,custom_tool1\WObj:=WObj0;
MoveL [[25,550,38.8],[-0.174713,0.907209,0.375778,0.072368],[0,-1,-1,0],[0,9E9,9E9,9E9,9E9,9E9]],v150,z20,custom_tool1\WObj:=WObj0;
IF TestDI(Stavbar_opt) THEN
WaitDI Stavbar_opt, 0;
ENDIF
WaitTime 1.5;
SetDO Stavbar_Gripper_open, 0;
SetDO Stavbar_Gripper_close, 1;
WaitTime 1;
MoveL [[25,450,138.8],[-0.174713,0.907209,0.375778,0.072368],[0,-1,-1,0],[0,9E9,9E9,9E9,9E9,9E9]],v150,z20,custom_tool1\WObj:=WObj0;
MoveJ [[424.57,176.97,315.36],[0.320717,-0.233457,0.914293,-0.081892],[0,-1,-1,0],[0,9E9,9E9,9E9,9E9,9E9]],v150,z20,custom_tool1\WObj:=WObj0;
MoveJ [[424.57,176.97,315.36],[0.320717,-0.233457,0.914293,-0.081892],[0,-1,-1,0],[0,9E9,9E9,9E9,9E9,9E9]],v150,z20,custom_tool1\WObj:=WObj0;
MoveJ [[514.16,-118.07,135.5],[0,0.989029,0.147725,0],[0,-1,-1,0],[0,9E9,9E9,9E9,9E9,9E9]],v150,z20,custom_tool1\WObj:=WObj0;
MoveL [[514.16,-118.07,35.5],[0,0.989029,0.147725,0],[0,-1,-1,0],[0,9E9,9E9,9E9,9E9,9E9]],v150,z20,custom_tool1\WObj:=WObj0;
WaitTime 1.5;
SetDO Stavbar_Gripper_close, 0;
SetDO Stavbar_Gripper_open, 1;
WaitTime 1;
SetDO Stavbar_Gripper_open, 0;
MoveL [[514.16,-118.07,135.5],[0,0.989029,0.147725,0],[0,-1,-1,0],[0,9E9,9E9,9E9,9E9,9E9]],v150,z20,custom_tool1\WObj:=WObj0;
MoveJ [[424.57,176.97,315.36],[0.320717,-0.233457,0.914293,-0.081892],[0,-1,-1,0],[0,9E9,9E9,9E9,9E9,9E9]],v150,z20,custom_tool1\WObj:=WObj0;
MoveJ [[424.57,176.97,315.36],[0.320717,-0.233457,0.914293,-0.081892],[0,-1,-1,0],[0,9E9,9E9,9E9,9E9,9E9]],v150,z20,custom_tool1\WObj:=WObj0;
MoveJ [[25,450,138.8],[-0.174713,0.907209,0.375778,0.072368],[0,-1,-1,0],[0,9E9,9E9,9E9,9E9,9E9]],v150,z20,custom_tool1\WObj:=WObj0;
MoveL [[25,550,38.8],[-0.174713,0.907209,0.375778,0.072368],[0,-1,-1,0],[0,9E9,9E9,9E9,9E9,9E9]],v150,z20,custom_tool1\WObj:=WObj0;
IF TestDI(Stavbar_opt) THEN
WaitDI Stavbar_opt, 0;
ENDIF
WaitTime 1.5;
SetDO Stavbar_Gripper_open, 0;
SetDO Stavbar_Gripper_close, 1;
WaitTime 1;
MoveL [[25,450,138.8],[-0.174713,0.907209,0.375778,0.072368],[0,-1,-1,0],[0,9E9,9E9,9E9,9E9,9E9]],v150,z20,custom_tool1\WObj:=WObj0;
MoveJ [[424.57,176.97,315.36],[0.320717,-0.233457,0.914293,-0.081892],[0,-1,-1,0],[0,9E9,9E9,9E9,9E9,9E9]],v150,z20,custom_tool1\WObj:=WObj0;
MoveJ [[424.57,176.97,315.36],[0.320717,-0.233457,0.914293,-0.081892],[0,-1,-1,0],[0,9E9,9E9,9E9,9E9,9E9]],v150,z20,custom_tool1\WObj:=WObj0;
MoveJ [[455.06,-205.11,135.5],[0,0.998897,0.046957,0],[0,-1,-1,0],[0,9E9,9E9,9E9,9E9,9E9]],v150,z20,custom_tool1\WObj:=WObj0;
MoveL [[455.06,-205.11,35.5],[0,0.998897,0.046957,0],[0,-1,-1,0],[0,9E9,9E9,9E9,9E9,9E9]],v150,z20,custom_tool1\WObj:=WObj0;
WaitTime 1.5;
SetDO Stavbar_Gripper_close, 0;
SetDO Stavbar_Gripper_open, 1;
WaitTime 1;
SetDO Stavbar_Gripper_open, 0;
MoveL [[455.06,-205.11,135.5],[0,0.998897,0.046957,0],[0,-1,-1,0],[0,9E9,9E9,9E9,9E9,9E9]],v150,z20,custom_tool1\WObj:=WObj0;
MoveJ [[424.57,176.97,315.36],[0.320717,-0.233457,0.914293,-0.081892],[0,-1,-1,0],[0,9E9,9E9,9E9,9E9,9E9]],v150,z20,custom_tool1\WObj:=WObj0;
MoveJ [[424.57,176.97,315.36],[0.320717,-0.233457,0.914293,-0.081892],[0,-1,-1,0],[0,9E9,9E9,9E9,9E9,9E9]],v150,z20,custom_tool1\WObj:=WObj0;
MoveJ [[25,450,138.8],[-0.174713,0.907209,0.375778,0.072368],[0,-1,-1,0],[0,9E9,9E9,9E9,9E9,9E9]],v150,z20,custom_tool1\WObj:=WObj0;
MoveL [[25,550,38.8],[-0.174713,0.907209,0.375778,0.072368],[0,-1,-1,0],[0,9E9,9E9,9E9,9E9,9E9]],v150,z20,custom_tool1\WObj:=WObj0;
IF TestDI(Stavbar_opt) THEN
WaitDI Stavbar_opt, 0;
ENDIF
WaitTime 1.5;
SetDO Stavbar_Gripper_open, 0;
SetDO Stavbar_Gripper_close, 1;
WaitTime 1;
MoveL [[25,450,138.8],[-0.174713,0.907209,0.375778,0.072368],[0,-1,-1,0],[0,9E9,9E9,9E9,9E9,9E9]],v150,z20,custom_tool1\WObj:=WObj0;
MoveJ [[424.57,176.97,315.36],[0.320717,-0.233457,0.914293,-0.081892],[0,-1,-1,0],[0,9E9,9E9,9E9,9E9,9E9]],v150,z20,custom_tool1\WObj:=WObj0;
MoveJ [[424.57,176.97,315.36],[0.320717,-0.233457,0.914293,-0.081892],[0,-1,-1,0],[0,9E9,9E9,9E9,9E9,9E9]],v150,z20,custom_tool1\WObj:=WObj0;
MoveJ [[382.11,-281.05,135.5],[0,0.999743,-0.022669,0],[0,-1,-1,0],[0,9E9,9E9,9E9,9E9,9E9]],v150,z20,custom_tool1\WObj:=WObj0;
MoveL [[382.11,-281.05,35.5],[0,0.999743,-0.022669,0],[0,-1,-1,0],[0,9E9,9E9,9E9,9E9,9E9]],v150,z20,custom_tool1\WObj:=WObj0;
WaitTime 1.5;
SetDO Stavbar_Gripper_close, 0;
SetDO Stavbar_Gripper_open, 1;
WaitTime 1;
SetDO Stavbar_Gripper_open, 0;
MoveL [[382.11,-281.05,135.5],[0,0.999743,-0.022669,0],[0,-1,-1,0],[0,9E9,9E9,9E9,9E9,9E9]],v150,z20,custom_tool1\WObj:=WObj0;
MoveJ [[424.57,176.97,315.36],[0.320717,-0.233457,0.914293,-0.081892],[0,-1,-1,0],[0,9E9,9E9,9E9,9E9,9E9]],v150,z20,custom_tool1\WObj:=WObj0;
MoveJ [[424.57,176.97,315.36],[0.320717,-0.233457,0.914293,-0.081892],[0,-1,-1,0],[0,9E9,9E9,9E9,9E9,9E9]],v150,z20,custom_tool1\WObj:=WObj0;
MoveJ [[25,450,138.8],[-0.174713,0.907209,0.375778,0.072368],[0,-1,-1,0],[0,9E9,9E9,9E9,9E9,9E9]],v150,z20,custom_tool1\WObj:=WObj0;
MoveL [[25,550,38.8],[-0.174713,0.907209,0.375778,0.072368],[0,-1,-1,0],[0,9E9,9E9,9E9,9E9,9E9]],v150,z20,custom_tool1\WObj:=WObj0;
IF TestDI(Stavbar_opt) THEN
WaitDI Stavbar_opt, 0;
ENDIF
WaitTime 1.5;
SetDO Stavbar_Gripper_open, 0;
SetDO Stavbar_Gripper_close, 1;
WaitTime 1;
MoveL [[25,450,138.8],[-0.174713,0.907209,0.375778,0.072368],[0,-1,-1,0],[0,9E9,9E9,9E9,9E9,9E9]],v150,z20,custom_tool1\WObj:=WObj0;
MoveJ [[424.57,176.97,315.36],[0.320717,-0.233457,0.914293,-0.081892],[0,-1,-1,0],[0,9E9,9E9,9E9,9E9,9E9]],v150,z20,custom_tool1\WObj:=WObj0;
MoveJ [[211.46,532.74,158.5],[0,0.648673,0.761067,0],[0,-1,-1,0],[0,9E9,9E9,9E9,9E9,9E9]],v150,z20,custom_tool1\WObj:=WObj0;
MoveL [[211.46,532.74,58.5],[0,0.648673,0.761067,0],[0,-1,-1,0],[0,9E9,9E9,9E9,9E9,9E9]],v150,z20,custom_tool1\WObj:=WObj0;
WaitTime 1.5;
SetDO Stavbar_Gripper_close, 0;
SetDO Stavbar_Gripper_open, 1;
WaitTime 1;
SetDO Stavbar_Gripper_open, 0;
MoveL [[211.46,532.74,158.5],[0,0.648673,0.761067,0],[0,-1,-1,0],[0,9E9,9E9,9E9,9E9,9E9]],v150,z20,custom_tool1\WObj:=WObj0;
MoveJ [[424.57,176.97,315.36],[0.320717,-0.233457,0.914293,-0.081892],[0,-1,-1,0],[0,9E9,9E9,9E9,9E9,9E9]],v150,z20,custom_tool1\WObj:=WObj0;
MoveJ [[25,450,138.8],[-0.174713,0.907209,0.375778,0.072368],[0,-1,-1,0],[0,9E9,9E9,9E9,9E9,9E9]],v150,z20,custom_tool1\WObj:=WObj0;
MoveL [[25,550,38.8],[-0.174713,0.907209,0.375778,0.072368],[0,-1,-1,0],[0,9E9,9E9,9E9,9E9,9E9]],v150,z20,custom_tool1\WObj:=WObj0;
IF TestDI(Stavbar_opt) THEN
WaitDI Stavbar_opt, 0;
ENDIF
WaitTime 1.5;
SetDO Stavbar_Gripper_open, 0;
SetDO Stavbar_Gripper_close, 1;
WaitTime 1;
MoveL [[25,450,138.8],[-0.174713,0.907209,0.375778,0.072368],[0,-1,-1,0],[0,9E9,9E9,9E9,9E9,9E9]],v150,z20,custom_tool1\WObj:=WObj0;
MoveJ [[424.57,176.97,315.36],[0.320717,-0.233457,0.914293,-0.081892],[0,-1,-1,0],[0,9E9,9E9,9E9,9E9,9E9]],v150,z20,custom_tool1\WObj:=WObj0;
MoveJ [[294.94,468.43,158.5],[0,0.67233,0.740252,0],[0,-1,-1,0],[0,9E9,9E9,9E9,9E9,9E9]],v150,z20,custom_tool1\WObj:=WObj0;
MoveL [[294.94,468.43,58.5],[0,0.67233,0.740252,0],[0,-1,-1,0],[0,9E9,9E9,9E9,9E9,9E9]],v150,z20,custom_tool1\WObj:=WObj0;
WaitTime 1.5;
SetDO Stavbar_Gripper_close, 0;
SetDO Stavbar_Gripper_open, 1;
WaitTime 1;
SetDO Stavbar_Gripper_open, 0;
MoveL [[294.94,468.43,158.5],[0,0.67233,0.740252,0],[0,-1,-1,0],[0,9E9,9E9,9E9,9E9,9E9]],v150,z20,custom_tool1\WObj:=WObj0;
MoveJ [[424.57,176.97,315.36],[0.320717,-0.233457,0.914293,-0.081892],[0,-1,-1,0],[0,9E9,9E9,9E9,9E9,9E9]],v150,z20,custom_tool1\WObj:=WObj0;
MoveJ [[25,450,138.8],[-0.174713,0.907209,0.375778,0.072368],[0,-1,-1,0],[0,9E9,9E9,9E9,9E9,9E9]],v150,z20,custom_tool1\WObj:=WObj0;
MoveL [[25,550,38.8],[-0.174713,0.907209,0.375778,0.072368],[0,-1,-1,0],[0,9E9,9E9,9E9,9E9,9E9]],v150,z20,custom_tool1\WObj:=WObj0;
IF TestDI(Stavbar_opt) THEN
WaitDI Stavbar_opt, 0;
ENDIF
WaitTime 1.5;
SetDO Stavbar_Gripper_open, 0;
SetDO Stavbar_Gripper_close, 1;
WaitTime 1;
MoveL [[25,450,138.8],[-0.174713,0.907209,0.375778,0.072368],[0,-1,-1,0],[0,9E9,9E9,9E9,9E9,9E9]],v150,z20,custom_tool1\WObj:=WObj0;
MoveJ [[424.57,176.97,315.36],[0.320717,-0.233457,0.914293,-0.081892],[0,-1,-1,0],[0,9E9,9E9,9E9,9E9,9E9]],v150,z20,custom_tool1\WObj:=WObj0;
MoveJ [[373.51,398.24,158.5],[0,0.702834,0.711354,0],[0,-1,-1,0],[0,9E9,9E9,9E9,9E9,9E9]],v150,z20,custom_tool1\WObj:=WObj0;
MoveL [[373.51,398.24,58.5],[0,0.702834,0.711354,0],[0,-1,-1,0],[0,9E9,9E9,9E9,9E9,9E9]],v150,z20,custom_tool1\WObj:=WObj0;
WaitTime 1.5;
SetDO Stavbar_Gripper_close, 0;
SetDO Stavbar_Gripper_open, 1;
WaitTime 1;
SetDO Stavbar_Gripper_open, 0;
MoveL [[373.51,398.24,158.5],[0,0.702834,0.711354,0],[0,-1,-1,0],[0,9E9,9E9,9E9,9E9,9E9]],v150,z20,custom_tool1\WObj:=WObj0;
MoveJ [[424.57,176.97,315.36],[0.320717,-0.233457,0.914293,-0.081892],[0,-1,-1,0],[0,9E9,9E9,9E9,9E9,9E9]],v150,z20,custom_tool1\WObj:=WObj0;
MoveJ [[25,450,138.8],[-0.174713,0.907209,0.375778,0.072368],[0,-1,-1,0],[0,9E9,9E9,9E9,9E9,9E9]],v150,z20,custom_tool1\WObj:=WObj0;
MoveL [[25,550,38.8],[-0.174713,0.907209,0.375778,0.072368],[0,-1,-1,0],[0,9E9,9E9,9E9,9E9,9E9]],v150,z20,custom_tool1\WObj:=WObj0;
IF TestDI(Stavbar_opt) THEN
WaitDI Stavbar_opt, 0;
ENDIF
WaitTime 1.5;
SetDO Stavbar_Gripper_open, 0;
SetDO Stavbar_Gripper_close, 1;
WaitTime 1;
MoveL [[25,450,138.8],[-0.174713,0.907209,0.375778,0.072368],[0,-1,-1,0],[0,9E9,9E9,9E9,9E9,9E9]],v150,z20,custom_tool1\WObj:=WObj0;
MoveJ [[424.57,176.97,315.36],[0.320717,-0.233457,0.914293,-0.081892],[0,-1,-1,0],[0,9E9,9E9,9E9,9E9,9E9]],v150,z20,custom_tool1\WObj:=WObj0;
MoveJ [[444.72,320.63,158.5],[0,0.743151,0.669124,0],[0,-1,-1,0],[0,9E9,9E9,9E9,9E9,9E9]],v150,z20,custom_tool1\WObj:=WObj0;
MoveL [[444.72,320.63,58.5],[0,0.743151,0.669124,0],[0,-1,-1,0],[0,9E9,9E9,9E9,9E9,9E9]],v150,z20,custom_tool1\WObj:=WObj0;
WaitTime 1.5;
SetDO Stavbar_Gripper_close, 0;
SetDO Stavbar_Gripper_open, 1;
WaitTime 1;
SetDO Stavbar_Gripper_open, 0;
MoveL [[444.72,320.63,158.5],[0,0.743151,0.669124,0],[0,-1,-1,0],[0,9E9,9E9,9E9,9E9,9E9]],v150,z20,custom_tool1\WObj:=WObj0;
MoveJ [[424.57,176.97,315.36],[0.320717,-0.233457,0.914293,-0.081892],[0,-1,-1,0],[0,9E9,9E9,9E9,9E9,9E9]],v150,z20,custom_tool1\WObj:=WObj0;
MoveJ [[25,450,138.8],[-0.174713,0.907209,0.375778,0.072368],[0,-1,-1,0],[0,9E9,9E9,9E9,9E9,9E9]],v150,z20,custom_tool1\WObj:=WObj0;
MoveL [[25,550,38.8],[-0.174713,0.907209,0.375778,0.072368],[0,-1,-1,0],[0,9E9,9E9,9E9,9E9,9E9]],v150,z20,custom_tool1\WObj:=WObj0;
IF TestDI(Stavbar_opt) THEN
WaitDI Stavbar_opt, 0;
ENDIF
WaitTime 1.5;
SetDO Stavbar_Gripper_open, 0;
SetDO Stavbar_Gripper_close, 1;
WaitTime 1;
MoveL [[25,450,138.8],[-0.174713,0.907209,0.375778,0.072368],[0,-1,-1,0],[0,9E9,9E9,9E9,9E9,9E9]],v150,z20,custom_tool1\WObj:=WObj0;
MoveJ [[424.57,176.97,315.36],[0.320717,-0.233457,0.914293,-0.081892],[0,-1,-1,0],[0,9E9,9E9,9E9,9E9,9E9]],v150,z20,custom_tool1\WObj:=WObj0;
MoveJ [[504.31,233.85,158.5],[0,0.796804,0.604237,0],[0,-1,-1,0],[0,9E9,9E9,9E9,9E9,9E9]],v150,z20,custom_tool1\WObj:=WObj0;
MoveL [[504.31,233.85,58.5],[0,0.796804,0.604237,0],[0,-1,-1,0],[0,9E9,9E9,9E9,9E9,9E9]],v150,z20,custom_tool1\WObj:=WObj0;
WaitTime 1.5;
SetDO Stavbar_Gripper_close, 0;
SetDO Stavbar_Gripper_open, 1;
WaitTime 1;
SetDO Stavbar_Gripper_open, 0;
MoveL [[504.31,233.85,158.5],[0,0.796804,0.604237,0],[0,-1,-1,0],[0,9E9,9E9,9E9,9E9,9E9]],v150,z20,custom_tool1\WObj:=WObj0;
MoveJ [[424.57,176.97,315.36],[0.320717,-0.233457,0.914293,-0.081892],[0,-1,-1,0],[0,9E9,9E9,9E9,9E9,9E9]],v150,z20,custom_tool1\WObj:=WObj0;
MoveJ [[25,450,138.8],[-0.174713,0.907209,0.375778,0.072368],[0,-1,-1,0],[0,9E9,9E9,9E9,9E9,9E9]],v150,z20,custom_tool1\WObj:=WObj0;
MoveL [[25,550,38.8],[-0.174713,0.907209,0.375778,0.072368],[0,-1,-1,0],[0,9E9,9E9,9E9,9E9,9E9]],v150,z20,custom_tool1\WObj:=WObj0;
IF TestDI(Stavbar_opt) THEN
WaitDI Stavbar_opt, 0;
ENDIF
WaitTime 1.5;
SetDO Stavbar_Gripper_open, 0;
SetDO Stavbar_Gripper_close, 1;
WaitTime 1;
MoveL [[25,450,138.8],[-0.174713,0.907209,0.375778,0.072368],[0,-1,-1,0],[0,9E9,9E9,9E9,9E9,9E9]],v150,z20,custom_tool1\WObj:=WObj0;
MoveJ [[424.57,176.97,315.36],[0.320717,-0.233457,0.914293,-0.081892],[0,-1,-1,0],[0,9E9,9E9,9E9,9E9,9E9]],v150,z20,custom_tool1\WObj:=WObj0;
MoveJ [[545.02,136.92,158.5],[0,0.864151,0.503233,0],[0,-1,-1,0],[0,9E9,9E9,9E9,9E9,9E9]],v150,z20,custom_tool1\WObj:=WObj0;
MoveL [[545.02,136.92,58.5],[0,0.864151,0.503233,0],[0,-1,-1,0],[0,9E9,9E9,9E9,9E9,9E9]],v150,z20,custom_tool1\WObj:=WObj0;
WaitTime 1.5;
SetDO Stavbar_Gripper_close, 0;
SetDO Stavbar_Gripper_open, 1;
WaitTime 1;
SetDO Stavbar_Gripper_open, 0;
MoveL [[545.02,136.92,158.5],[0,0.864151,0.503233,0],[0,-1,-1,0],[0,9E9,9E9,9E9,9E9,9E9]],v150,z20,custom_tool1\WObj:=WObj0;
MoveJ [[424.57,176.97,315.36],[0.320717,-0.233457,0.914293,-0.081892],[0,-1,-1,0],[0,9E9,9E9,9E9,9E9,9E9]],v150,z20,custom_tool1\WObj:=WObj0;
MoveJ [[25,450,138.8],[-0.174713,0.907209,0.375778,0.072368],[0,-1,-1,0],[0,9E9,9E9,9E9,9E9,9E9]],v150,z20,custom_tool1\WObj:=WObj0;
MoveL [[25,550,38.8],[-0.174713,0.907209,0.375778,0.072368],[0,-1,-1,0],[0,9E9,9E9,9E9,9E9,9E9]],v150,z20,custom_tool1\WObj:=WObj0;
IF TestDI(Stavbar_opt) THEN
WaitDI Stavbar_opt, 0;
ENDIF
WaitTime 1.5;
SetDO Stavbar_Gripper_open, 0;
SetDO Stavbar_Gripper_close, 1;
WaitTime 1;
MoveL [[25,450,138.8],[-0.174713,0.907209,0.375778,0.072368],[0,-1,-1,0],[0,9E9,9E9,9E9,9E9,9E9]],v150,z20,custom_tool1\WObj:=WObj0;
MoveJ [[424.57,176.97,315.36],[0.320717,-0.233457,0.914293,-0.081892],[0,-1,-1,0],[0,9E9,9E9,9E9,9E9,9E9]],v150,z20,custom_tool1\WObj:=WObj0;
MoveJ [[557.21,32.67,158.5],[0,0.932124,0.36214,0],[0,-1,-1,0],[0,9E9,9E9,9E9,9E9,9E9]],v150,z20,custom_tool1\WObj:=WObj0;
MoveL [[557.21,32.67,58.5],[0,0.932124,0.36214,0],[0,-1,-1,0],[0,9E9,9E9,9E9,9E9,9E9]],v150,z20,custom_tool1\WObj:=WObj0;
WaitTime 1.5;
SetDO Stavbar_Gripper_close, 0;
SetDO Stavbar_Gripper_open, 1;
WaitTime 1;
SetDO Stavbar_Gripper_open, 0;
MoveL [[557.21,32.67,158.5],[0,0.932124,0.36214,0],[0,-1,-1,0],[0,9E9,9E9,9E9,9E9,9E9]],v150,z20,custom_tool1\WObj:=WObj0;
MoveJ [[424.57,176.97,315.36],[0.320717,-0.233457,0.914293,-0.081892],[0,-1,-1,0],[0,9E9,9E9,9E9,9E9,9E9]],v150,z20,custom_tool1\WObj:=WObj0;
MoveJ [[25,450,138.8],[-0.174713,0.907209,0.375778,0.072368],[0,-1,-1,0],[0,9E9,9E9,9E9,9E9,9E9]],v150,z20,custom_tool1\WObj:=WObj0;
MoveL [[25,550,38.8],[-0.174713,0.907209,0.375778,0.072368],[0,-1,-1,0],[0,9E9,9E9,9E9,9E9,9E9]],v150,z20,custom_tool1\WObj:=WObj0;
IF TestDI(Stavbar_opt) THEN
WaitDI Stavbar_opt, 0;
ENDIF
WaitTime 1.5;
SetDO Stavbar_Gripper_open, 0;
SetDO Stavbar_Gripper_close, 1;
WaitTime 1;
MoveL [[25,450,138.8],[-0.174713,0.907209,0.375778,0.072368],[0,-1,-1,0],[0,9E9,9E9,9E9,9E9,9E9]],v150,z20,custom_tool1\WObj:=WObj0;
MoveJ [[424.57,176.97,315.36],[0.320717,-0.233457,0.914293,-0.081892],[0,-1,-1,0],[0,9E9,9E9,9E9,9E9,9E9]],v150,z20,custom_tool1\WObj:=WObj0;
MoveJ [[424.57,176.97,315.36],[0.320717,-0.233457,0.914293,-0.081892],[0,-1,-1,0],[0,9E9,9E9,9E9,9E9,9E9]],v150,z20,custom_tool1\WObj:=WObj0;
MoveJ [[535.87,-70.09,158.5],[0,0.97719,0.212369,0],[0,-1,-1,0],[0,9E9,9E9,9E9,9E9,9E9]],v150,z20,custom_tool1\WObj:=WObj0;
MoveL [[535.87,-70.09,58.5],[0,0.97719,0.212369,0],[0,-1,-1,0],[0,9E9,9E9,9E9,9E9,9E9]],v150,z20,custom_tool1\WObj:=WObj0;
WaitTime 1.5;
SetDO Stavbar_Gripper_close, 0;
SetDO Stavbar_Gripper_open, 1;
WaitTime 1;
SetDO Stavbar_Gripper_open, 0;
MoveL [[535.87,-70.09,158.5],[0,0.97719,0.212369,0],[0,-1,-1,0],[0,9E9,9E9,9E9,9E9,9E9]],v150,z20,custom_tool1\WObj:=WObj0;
MoveJ [[424.57,176.97,315.36],[0.320717,-0.233457,0.914293,-0.081892],[0,-1,-1,0],[0,9E9,9E9,9E9,9E9,9E9]],v150,z20,custom_tool1\WObj:=WObj0;
MoveJ [[424.57,176.97,315.36],[0.320717,-0.233457,0.914293,-0.081892],[0,-1,-1,0],[0,9E9,9E9,9E9,9E9,9E9]],v150,z20,custom_tool1\WObj:=WObj0;
MoveJ [[25,450,138.8],[-0.174713,0.907209,0.375778,0.072368],[0,-1,-1,0],[0,9E9,9E9,9E9,9E9,9E9]],v150,z20,custom_tool1\WObj:=WObj0;
MoveL [[25,550,38.8],[-0.174713,0.907209,0.375778,0.072368],[0,-1,-1,0],[0,9E9,9E9,9E9,9E9,9E9]],v150,z20,custom_tool1\WObj:=WObj0;
IF TestDI(Stavbar_opt) THEN
WaitDI Stavbar_opt, 0;
ENDIF
WaitTime 1.5;
SetDO Stavbar_Gripper_open, 0;
SetDO Stavbar_Gripper_close, 1;
WaitTime 1;
MoveL [[25,450,138.8],[-0.174713,0.907209,0.375778,0.072368],[0,-1,-1,0],[0,9E9,9E9,9E9,9E9,9E9]],v150,z20,custom_tool1\WObj:=WObj0;
MoveJ [[424.57,176.97,315.36],[0.320717,-0.233457,0.914293,-0.081892],[0,-1,-1,0],[0,9E9,9E9,9E9,9E9,9E9]],v150,z20,custom_tool1\WObj:=WObj0;
MoveJ [[424.57,176.97,315.36],[0.320717,-0.233457,0.914293,-0.081892],[0,-1,-1,0],[0,9E9,9E9,9E9,9E9,9E9]],v150,z20,custom_tool1\WObj:=WObj0;
MoveJ [[486.81,-163.08,158.5],[0,0.995688,0.092763,0],[0,-1,-1,0],[0,9E9,9E9,9E9,9E9,9E9]],v150,z20,custom_tool1\WObj:=WObj0;
MoveL [[486.81,-163.08,58.5],[0,0.995688,0.092763,0],[0,-1,-1,0],[0,9E9,9E9,9E9,9E9,9E9]],v150,z20,custom_tool1\WObj:=WObj0;
WaitTime 1.5;
SetDO Stavbar_Gripper_close, 0;
SetDO Stavbar_Gripper_open, 1;
WaitTime 1;
SetDO Stavbar_Gripper_open, 0;
MoveL [[486.81,-163.08,158.5],[0,0.995688,0.092763,0],[0,-1,-1,0],[0,9E9,9E9,9E9,9E9,9E9]],v150,z20,custom_tool1\WObj:=WObj0;
MoveJ [[424.57,176.97,315.36],[0.320717,-0.233457,0.914293,-0.081892],[0,-1,-1,0],[0,9E9,9E9,9E9,9E9,9E9]],v150,z20,custom_tool1\WObj:=WObj0;
MoveJ [[424.57,176.97,315.36],[0.320717,-0.233457,0.914293,-0.081892],[0,-1,-1,0],[0,9E9,9E9,9E9,9E9,9E9]],v150,z20,custom_tool1\WObj:=WObj0;
MoveJ [[25,450,138.8],[-0.174713,0.907209,0.375778,0.072368],[0,-1,-1,0],[0,9E9,9E9,9E9,9E9,9E9]],v150,z20,custom_tool1\WObj:=WObj0;
MoveL [[25,550,38.8],[-0.174713,0.907209,0.375778,0.072368],[0,-1,-1,0],[0,9E9,9E9,9E9,9E9,9E9]],v150,z20,custom_tool1\WObj:=WObj0;
IF TestDI(Stavbar_opt) THEN
WaitDI Stavbar_opt, 0;
ENDIF
WaitTime 1.5;
SetDO Stavbar_Gripper_open, 0;
SetDO Stavbar_Gripper_close, 1;
WaitTime 1;
MoveL [[25,450,138.8],[-0.174713,0.907209,0.375778,0.072368],[0,-1,-1,0],[0,9E9,9E9,9E9,9E9,9E9]],v150,z20,custom_tool1\WObj:=WObj0;
MoveJ [[424.57,176.97,315.36],[0.320717,-0.233457,0.914293,-0.081892],[0,-1,-1,0],[0,9E9,9E9,9E9,9E9,9E9]],v150,z20,custom_tool1\WObj:=WObj0;
MoveJ [[424.57,176.97,315.36],[0.320717,-0.233457,0.914293,-0.081892],[0,-1,-1,0],[0,9E9,9E9,9E9,9E9,9E9]],v150,z20,custom_tool1\WObj:=WObj0;
MoveJ [[419.9,-244.35,158.5],[0,0.99996,0.008965,0],[0,-1,-1,0],[0,9E9,9E9,9E9,9E9,9E9]],v150,z20,custom_tool1\WObj:=WObj0;
MoveL [[419.9,-244.35,58.5],[0,0.99996,0.008965,0],[0,-1,-1,0],[0,9E9,9E9,9E9,9E9,9E9]],v150,z20,custom_tool1\WObj:=WObj0;
WaitTime 1.5;
SetDO Stavbar_Gripper_close, 0;
SetDO Stavbar_Gripper_open, 1;
WaitTime 1;
SetDO Stavbar_Gripper_open, 0;
MoveL [[419.9,-244.35,158.5],[0,0.99996,0.008965,0],[0,-1,-1,0],[0,9E9,9E9,9E9,9E9,9E9]],v150,z20,custom_tool1\WObj:=WObj0;
MoveJ [[424.57,176.97,315.36],[0.320717,-0.233457,0.914293,-0.081892],[0,-1,-1,0],[0,9E9,9E9,9E9,9E9,9E9]],v150,z20,custom_tool1\WObj:=WObj0;
MoveJ [[424.57,176.97,315.36],[0.320717,-0.233457,0.914293,-0.081892],[0,-1,-1,0],[0,9E9,9E9,9E9,9E9,9E9]],v150,z20,custom_tool1\WObj:=WObj0;
MoveJ [[25,450,138.8],[-0.174713,0.907209,0.375778,0.072368],[0,-1,-1,0],[0,9E9,9E9,9E9,9E9,9E9]],v150,z20,custom_tool1\WObj:=WObj0;
MoveJ [[-63,450,138.8],[-0.174713,0.907209,0.375778,0.072368],[0,-1,-1,0],[0,9E9,9E9,9E9,9E9,9E9]],v150,z20,custom_tool1\WObj:=WObj0;
MoveL [[-63,550,38.8],[-0.174713,0.907209,0.375778,0.072368],[0,-1,-1,0],[0,9E9,9E9,9E9,9E9,9E9]],v150,z20,custom_tool1\WObj:=WObj0;
IF TestDI(Stavbar_opt) THEN
WaitDI Stavbar_opt, 0;
ENDIF
WaitTime 1.5;
SetDO Stavbar_Gripper_open, 0;
SetDO Stavbar_Gripper_close, 1;
WaitTime 1;
MoveL [[-63,450,138.8],[-0.174713,0.907209,0.375778,0.072368],[0,-1,-1,0],[0,9E9,9E9,9E9,9E9,9E9]],v150,z20,custom_tool1\WObj:=WObj0;
MoveJ [[25,450,138.8],[-0.174713,0.907209,0.375778,0.072368],[0,-1,-1,0],[0,9E9,9E9,9E9,9E9,9E9]],v150,z20,custom_tool1\WObj:=WObj0;
MoveJ [[424.57,176.97,315.36],[0.320717,-0.233457,0.914293,-0.081892],[0,-1,-1,0],[0,9E9,9E9,9E9,9E9,9E9]],v150,z20,custom_tool1\WObj:=WObj0;
MoveJ [[424.57,176.97,315.36],[0.320717,-0.233457,0.914293,-0.081892],[0,-1,-1,0],[0,9E9,9E9,9E9,9E9,9E9]],v150,z20,custom_tool1\WObj:=WObj0;
MoveJ [[370.29,-291.84,158.5],[0,0.999743,-0.022669,0],[0,-1,-1,0],[0,9E9,9E9,9E9,9E9,9E9]],v150,z20,custom_tool1\WObj:=WObj0;
MoveL [[370.29,-291.84,58.5],[0,0.999743,-0.022669,0],[0,-1,-1,0],[0,9E9,9E9,9E9,9E9,9E9]],v150,z20,custom_tool1\WObj:=WObj0;
WaitTime 1.5;
SetDO Stavbar_Gripper_close, 0;
SetDO Stavbar_Gripper_open, 1;
WaitTime 1;
SetDO Stavbar_Gripper_open, 0;
MoveL [[370.29,-291.84,158.5],[0,0.999743,-0.022669,0],[0,-1,-1,0],[0,9E9,9E9,9E9,9E9,9E9]],v150,z20,custom_tool1\WObj:=WObj0;
MoveJ [[424.57,176.97,315.36],[0.320717,-0.233457,0.914293,-0.081892],[0,-1,-1,0],[0,9E9,9E9,9E9,9E9,9E9]],v150,z20,custom_tool1\WObj:=WObj0;
MoveJ [[424.57,176.97,315.36],[0.320717,-0.233457,0.914293,-0.081892],[0,-1,-1,0],[0,9E9,9E9,9E9,9E9,9E9]],v150,z20,custom_tool1\WObj:=WObj0;
MoveJ [[25,450,138.8],[-0.174713,0.907209,0.375778,0.072368],[0,-1,-1,0],[0,9E9,9E9,9E9,9E9,9E9]],v150,z20,custom_tool1\WObj:=WObj0;
MoveJ [[-63,450,138.8],[-0.174713,0.907209,0.375778,0.072368],[0,-1,-1,0],[0,9E9,9E9,9E9,9E9,9E9]],v150,z20,custom_tool1\WObj:=WObj0;
MoveL [[-63,550,38.8],[-0.174713,0.907209,0.375778,0.072368],[0,-1,-1,0],[0,9E9,9E9,9E9,9E9,9E9]],v150,z20,custom_tool1\WObj:=WObj0;
IF TestDI(Stavbar_opt) THEN
WaitDI Stavbar_opt, 0;
ENDIF
WaitTime 1.5;
SetDO Stavbar_Gripper_open, 0;
SetDO Stavbar_Gripper_close, 1;
WaitTime 1;
MoveL [[-63,450,138.8],[-0.174713,0.907209,0.375778,0.072368],[0,-1,-1,0],[0,9E9,9E9,9E9,9E9,9E9]],v150,z20,custom_tool1\WObj:=WObj0;
MoveJ [[25,450,138.8],[-0.174713,0.907209,0.375778,0.072368],[0,-1,-1,0],[0,9E9,9E9,9E9,9E9,9E9]],v150,z20,custom_tool1\WObj:=WObj0;
MoveJ [[424.57,176.97,315.36],[0.320717,-0.233457,0.914293,-0.081892],[0,-1,-1,0],[0,9E9,9E9,9E9,9E9,9E9]],v150,z20,custom_tool1\WObj:=WObj0;
MoveJ [[198.5,542.12,181.5],[0,0.648673,0.761067,0],[0,-1,-1,0],[0,9E9,9E9,9E9,9E9,9E9]],v150,z20,custom_tool1\WObj:=WObj0;
MoveL [[198.5,542.12,81.5],[0,0.648673,0.761067,0],[0,-1,-1,0],[0,9E9,9E9,9E9,9E9,9E9]],v150,z20,custom_tool1\WObj:=WObj0;
WaitTime 1.5;
SetDO Stavbar_Gripper_close, 0;
SetDO Stavbar_Gripper_open, 1;
WaitTime 1;
SetDO Stavbar_Gripper_open, 0;
MoveL [[198.5,542.12,181.5],[0,0.648673,0.761067,0],[0,-1,-1,0],[0,9E9,9E9,9E9,9E9,9E9]],v150,z20,custom_tool1\WObj:=WObj0;
MoveJ [[424.57,176.97,315.36],[0.320717,-0.233457,0.914293,-0.081892],[0,-1,-1,0],[0,9E9,9E9,9E9,9E9,9E9]],v150,z20,custom_tool1\WObj:=WObj0;
MoveJ [[25,450,138.8],[-0.174713,0.907209,0.375778,0.072368],[0,-1,-1,0],[0,9E9,9E9,9E9,9E9,9E9]],v150,z20,custom_tool1\WObj:=WObj0;
MoveL [[25,550,38.8],[-0.174713,0.907209,0.375778,0.072368],[0,-1,-1,0],[0,9E9,9E9,9E9,9E9,9E9]],v150,z20,custom_tool1\WObj:=WObj0;
IF TestDI(Stavbar_opt) THEN
WaitDI Stavbar_opt, 0;
ENDIF
WaitTime 1.5;
SetDO Stavbar_Gripper_open, 0;
SetDO Stavbar_Gripper_close, 1;
WaitTime 1;
MoveL [[25,450,138.8],[-0.174713,0.907209,0.375778,0.072368],[0,-1,-1,0],[0,9E9,9E9,9E9,9E9,9E9]],v150,z20,custom_tool1\WObj:=WObj0;
MoveJ [[424.57,176.97,315.36],[0.320717,-0.233457,0.914293,-0.081892],[0,-1,-1,0],[0,9E9,9E9,9E9,9E9,9E9]],v150,z20,custom_tool1\WObj:=WObj0;
MoveJ [[253.7,501.24,181.5],[0,0.659792,0.751449,0],[0,-1,-1,0],[0,9E9,9E9,9E9,9E9,9E9]],v150,z20,custom_tool1\WObj:=WObj0;
MoveL [[253.7,501.24,81.5],[0,0.659792,0.751449,0],[0,-1,-1,0],[0,9E9,9E9,9E9,9E9,9E9]],v150,z20,custom_tool1\WObj:=WObj0;
WaitTime 1.5;
SetDO Stavbar_Gripper_close, 0;
SetDO Stavbar_Gripper_open, 1;
WaitTime 1;
SetDO Stavbar_Gripper_open, 0;
MoveL [[253.7,501.24,181.5],[0,0.659792,0.751449,0],[0,-1,-1,0],[0,9E9,9E9,9E9,9E9,9E9]],v150,z20,custom_tool1\WObj:=WObj0;
MoveJ [[424.57,176.97,315.36],[0.320717,-0.233457,0.914293,-0.081892],[0,-1,-1,0],[0,9E9,9E9,9E9,9E9,9E9]],v150,z20,custom_tool1\WObj:=WObj0;
MoveJ [[25,450,138.8],[-0.174713,0.907209,0.375778,0.072368],[0,-1,-1,0],[0,9E9,9E9,9E9,9E9,9E9]],v150,z20,custom_tool1\WObj:=WObj0;
MoveL [[25,550,38.8],[-0.174713,0.907209,0.375778,0.072368],[0,-1,-1,0],[0,9E9,9E9,9E9,9E9,9E9]],v150,z20,custom_tool1\WObj:=WObj0;
IF TestDI(Stavbar_opt) THEN
WaitDI Stavbar_opt, 0;
ENDIF
WaitTime 1.5;
SetDO Stavbar_Gripper_open, 0;
SetDO Stavbar_Gripper_close, 1;
WaitTime 1;
MoveL [[25,450,138.8],[-0.174713,0.907209,0.375778,0.072368],[0,-1,-1,0],[0,9E9,9E9,9E9,9E9,9E9]],v150,z20,custom_tool1\WObj:=WObj0;
MoveJ [[424.57,176.97,315.36],[0.320717,-0.233457,0.914293,-0.081892],[0,-1,-1,0],[0,9E9,9E9,9E9,9E9,9E9]],v150,z20,custom_tool1\WObj:=WObj0;
MoveJ [[334.96,434.16,181.5],[0,0.686564,0.727069,0],[0,-1,-1,0],[0,9E9,9E9,9E9,9E9,9E9]],v150,z20,custom_tool1\WObj:=WObj0;
MoveL [[334.96,434.16,81.5],[0,0.686564,0.727069,0],[0,-1,-1,0],[0,9E9,9E9,9E9,9E9,9E9]],v150,z20,custom_tool1\WObj:=WObj0;
WaitTime 1.5;
SetDO Stavbar_Gripper_close, 0;
SetDO Stavbar_Gripper_open, 1;
WaitTime 1;
SetDO Stavbar_Gripper_open, 0;
MoveL [[334.96,434.16,181.5],[0,0.686564,0.727069,0],[0,-1,-1,0],[0,9E9,9E9,9E9,9E9,9E9]],v150,z20,custom_tool1\WObj:=WObj0;
MoveJ [[424.57,176.97,315.36],[0.320717,-0.233457,0.914293,-0.081892],[0,-1,-1,0],[0,9E9,9E9,9E9,9E9,9E9]],v150,z20,custom_tool1\WObj:=WObj0;
MoveJ [[25,450,138.8],[-0.174713,0.907209,0.375778,0.072368],[0,-1,-1,0],[0,9E9,9E9,9E9,9E9,9E9]],v150,z20,custom_tool1\WObj:=WObj0;
MoveL [[25,550,38.8],[-0.174713,0.907209,0.375778,0.072368],[0,-1,-1,0],[0,9E9,9E9,9E9,9E9,9E9]],v150,z20,custom_tool1\WObj:=WObj0;
IF TestDI(Stavbar_opt) THEN
WaitDI Stavbar_opt, 0;
ENDIF
WaitTime 1.5;
SetDO Stavbar_Gripper_open, 0;
SetDO Stavbar_Gripper_close, 1;
WaitTime 1;
MoveL [[25,450,138.8],[-0.174713,0.907209,0.375778,0.072368],[0,-1,-1,0],[0,9E9,9E9,9E9,9E9,9E9]],v150,z20,custom_tool1\WObj:=WObj0;
MoveJ [[424.57,176.97,315.36],[0.320717,-0.233457,0.914293,-0.081892],[0,-1,-1,0],[0,9E9,9E9,9E9,9E9,9E9]],v150,z20,custom_tool1\WObj:=WObj0;
MoveJ [[410.24,360.47,181.5],[0,0.721543,0.69237,0],[0,-1,-1,0],[0,9E9,9E9,9E9,9E9,9E9]],v150,z20,custom_tool1\WObj:=WObj0;
MoveL [[410.24,360.47,81.5],[0,0.721543,0.69237,0],[0,-1,-1,0],[0,9E9,9E9,9E9,9E9,9E9]],v150,z20,custom_tool1\WObj:=WObj0;
WaitTime 1.5;
SetDO Stavbar_Gripper_close, 0;
SetDO Stavbar_Gripper_open, 1;
WaitTime 1;
SetDO Stavbar_Gripper_open, 0;
MoveL [[410.24,360.47,181.5],[0,0.721543,0.69237,0],[0,-1,-1,0],[0,9E9,9E9,9E9,9E9,9E9]],v150,z20,custom_tool1\WObj:=WObj0;
MoveJ [[424.57,176.97,315.36],[0.320717,-0.233457,0.914293,-0.081892],[0,-1,-1,0],[0,9E9,9E9,9E9,9E9,9E9]],v150,z20,custom_tool1\WObj:=WObj0;
MoveJ [[25,450,138.8],[-0.174713,0.907209,0.375778,0.072368],[0,-1,-1,0],[0,9E9,9E9,9E9,9E9,9E9]],v150,z20,custom_tool1\WObj:=WObj0;
MoveL [[25,550,38.8],[-0.174713,0.907209,0.375778,0.072368],[0,-1,-1,0],[0,9E9,9E9,9E9,9E9,9E9]],v150,z20,custom_tool1\WObj:=WObj0;
IF TestDI(Stavbar_opt) THEN
WaitDI Stavbar_opt, 0;
ENDIF
WaitTime 1.5;
SetDO Stavbar_Gripper_open, 0;
SetDO Stavbar_Gripper_close, 1;
WaitTime 1;
MoveL [[25,450,138.8],[-0.174713,0.907209,0.375778,0.072368],[0,-1,-1,0],[0,9E9,9E9,9E9,9E9,9E9]],v150,z20,custom_tool1\WObj:=WObj0;
MoveJ [[424.57,176.97,315.36],[0.320717,-0.233457,0.914293,-0.081892],[0,-1,-1,0],[0,9E9,9E9,9E9,9E9,9E9]],v150,z20,custom_tool1\WObj:=WObj0;
MoveJ [[476.34,278.49,181.5],[0,0.768124,0.640301,0],[0,-1,-1,0],[0,9E9,9E9,9E9,9E9,9E9]],v150,z20,custom_tool1\WObj:=WObj0;
MoveL [[476.34,278.49,81.5],[0,0.768124,0.640301,0],[0,-1,-1,0],[0,9E9,9E9,9E9,9E9,9E9]],v150,z20,custom_tool1\WObj:=WObj0;
WaitTime 1.5;
SetDO Stavbar_Gripper_close, 0;
SetDO Stavbar_Gripper_open, 1;
WaitTime 1;
SetDO Stavbar_Gripper_open, 0;
MoveL [[476.34,278.49,181.5],[0,0.768124,0.640301,0],[0,-1,-1,0],[0,9E9,9E9,9E9,9E9,9E9]],v150,z20,custom_tool1\WObj:=WObj0;
MoveJ [[424.57,176.97,315.36],[0.320717,-0.233457,0.914293,-0.081892],[0,-1,-1,0],[0,9E9,9E9,9E9,9E9,9E9]],v150,z20,custom_tool1\WObj:=WObj0;
MoveJ [[25,450,138.8],[-0.174713,0.907209,0.375778,0.072368],[0,-1,-1,0],[0,9E9,9E9,9E9,9E9,9E9]],v150,z20,custom_tool1\WObj:=WObj0;
MoveL [[25,550,38.8],[-0.174713,0.907209,0.375778,0.072368],[0,-1,-1,0],[0,9E9,9E9,9E9,9E9,9E9]],v150,z20,custom_tool1\WObj:=WObj0;
IF TestDI(Stavbar_opt) THEN
WaitDI Stavbar_opt, 0;
ENDIF
WaitTime 1.5;
SetDO Stavbar_Gripper_open, 0;
SetDO Stavbar_Gripper_close, 1;
WaitTime 1;
MoveL [[25,450,138.8],[-0.174713,0.907209,0.375778,0.072368],[0,-1,-1,0],[0,9E9,9E9,9E9,9E9,9E9]],v150,z20,custom_tool1\WObj:=WObj0;
MoveJ [[424.57,176.97,315.36],[0.320717,-0.233457,0.914293,-0.081892],[0,-1,-1,0],[0,9E9,9E9,9E9,9E9,9E9]],v150,z20,custom_tool1\WObj:=WObj0;
MoveJ [[527.61,186.62,181.5],[0,0.829125,0.559063,0],[0,-1,-1,0],[0,9E9,9E9,9E9,9E9,9E9]],v150,z20,custom_tool1\WObj:=WObj0;
MoveL [[527.61,186.62,81.5],[0,0.829125,0.559063,0],[0,-1,-1,0],[0,9E9,9E9,9E9,9E9,9E9]],v150,z20,custom_tool1\WObj:=WObj0;
WaitTime 1.5;
SetDO Stavbar_Gripper_close, 0;
SetDO Stavbar_Gripper_open, 1;
WaitTime 1;
SetDO Stavbar_Gripper_open, 0;
MoveL [[527.61,186.62,181.5],[0,0.829125,0.559063,0],[0,-1,-1,0],[0,9E9,9E9,9E9,9E9,9E9]],v150,z20,custom_tool1\WObj:=WObj0;
MoveJ [[424.57,176.97,315.36],[0.320717,-0.233457,0.914293,-0.081892],[0,-1,-1,0],[0,9E9,9E9,9E9,9E9,9E9]],v150,z20,custom_tool1\WObj:=WObj0;
MoveJ [[25,450,138.8],[-0.174713,0.907209,0.375778,0.072368],[0,-1,-1,0],[0,9E9,9E9,9E9,9E9,9E9]],v150,z20,custom_tool1\WObj:=WObj0;
MoveL [[25,550,38.8],[-0.174713,0.907209,0.375778,0.072368],[0,-1,-1,0],[0,9E9,9E9,9E9,9E9,9E9]],v150,z20,custom_tool1\WObj:=WObj0;
IF TestDI(Stavbar_opt) THEN
WaitDI Stavbar_opt, 0;
ENDIF
WaitTime 1.5;
SetDO Stavbar_Gripper_open, 0;
SetDO Stavbar_Gripper_close, 1;
WaitTime 1;
MoveL [[25,450,138.8],[-0.174713,0.907209,0.375778,0.072368],[0,-1,-1,0],[0,9E9,9E9,9E9,9E9,9E9]],v150,z20,custom_tool1\WObj:=WObj0;
MoveJ [[424.57,176.97,315.36],[0.320717,-0.233457,0.914293,-0.081892],[0,-1,-1,0],[0,9E9,9E9,9E9,9E9,9E9]],v150,z20,custom_tool1\WObj:=WObj0;
MoveJ [[555.23,85.27,181.5],[0,0.899619,0.436676,0],[0,-1,-1,0],[0,9E9,9E9,9E9,9E9,9E9]],v150,z20,custom_tool1\WObj:=WObj0;
MoveL [[555.23,85.27,81.5],[0,0.899619,0.436676,0],[0,-1,-1,0],[0,9E9,9E9,9E9,9E9,9E9]],v150,z20,custom_tool1\WObj:=WObj0;
WaitTime 1.5;
SetDO Stavbar_Gripper_close, 0;
SetDO Stavbar_Gripper_open, 1;
WaitTime 1;
SetDO Stavbar_Gripper_open, 0;
MoveL [[555.23,85.27,181.5],[0,0.899619,0.436676,0],[0,-1,-1,0],[0,9E9,9E9,9E9,9E9,9E9]],v150,z20,custom_tool1\WObj:=WObj0;
MoveJ [[424.57,176.97,315.36],[0.320717,-0.233457,0.914293,-0.081892],[0,-1,-1,0],[0,9E9,9E9,9E9,9E9,9E9]],v150,z20,custom_tool1\WObj:=WObj0;
MoveJ [[25,450,138.8],[-0.174713,0.907209,0.375778,0.072368],[0,-1,-1,0],[0,9E9,9E9,9E9,9E9,9E9]],v150,z20,custom_tool1\WObj:=WObj0;
MoveL [[25,550,38.8],[-0.174713,0.907209,0.375778,0.072368],[0,-1,-1,0],[0,9E9,9E9,9E9,9E9,9E9]],v150,z20,custom_tool1\WObj:=WObj0;
IF TestDI(Stavbar_opt) THEN
WaitDI Stavbar_opt, 0;
ENDIF
WaitTime 1.5;
SetDO Stavbar_Gripper_open, 0;
SetDO Stavbar_Gripper_close, 1;
WaitTime 1;
MoveL [[25,450,138.8],[-0.174713,0.907209,0.375778,0.072368],[0,-1,-1,0],[0,9E9,9E9,9E9,9E9,9E9]],v150,z20,custom_tool1\WObj:=WObj0;
MoveJ [[424.57,176.97,315.36],[0.320717,-0.233457,0.914293,-0.081892],[0,-1,-1,0],[0,9E9,9E9,9E9,9E9,9E9]],v150,z20,custom_tool1\WObj:=WObj0;
MoveJ [[424.57,176.97,315.36],[0.320717,-0.233457,0.914293,-0.081892],[0,-1,-1,0],[0,9E9,9E9,9E9,9E9,9E9]],v150,z20,custom_tool1\WObj:=WObj0;
MoveJ [[550.59,-19.55,181.5],[0,0.958448,0.285266,0],[0,-1,-1,0],[0,9E9,9E9,9E9,9E9,9E9]],v150,z20,custom_tool1\WObj:=WObj0;
MoveL [[550.59,-19.55,81.5],[0,0.958448,0.285266,0],[0,-1,-1,0],[0,9E9,9E9,9E9,9E9,9E9]],v150,z20,custom_tool1\WObj:=WObj0;
WaitTime 1.5;
SetDO Stavbar_Gripper_close, 0;
SetDO Stavbar_Gripper_open, 1;
WaitTime 1;
SetDO Stavbar_Gripper_open, 0;
MoveL [[550.59,-19.55,181.5],[0,0.958448,0.285266,0],[0,-1,-1,0],[0,9E9,9E9,9E9,9E9,9E9]],v150,z20,custom_tool1\WObj:=WObj0;
MoveJ [[424.57,176.97,315.36],[0.320717,-0.233457,0.914293,-0.081892],[0,-1,-1,0],[0,9E9,9E9,9E9,9E9,9E9]],v150,z20,custom_tool1\WObj:=WObj0;
MoveJ [[424.57,176.97,315.36],[0.320717,-0.233457,0.914293,-0.081892],[0,-1,-1,0],[0,9E9,9E9,9E9,9E9,9E9]],v150,z20,custom_tool1\WObj:=WObj0;
MoveJ [[25,450,138.8],[-0.174713,0.907209,0.375778,0.072368],[0,-1,-1,0],[0,9E9,9E9,9E9,9E9,9E9]],v150,z20,custom_tool1\WObj:=WObj0;
MoveL [[25,550,38.8],[-0.174713,0.907209,0.375778,0.072368],[0,-1,-1,0],[0,9E9,9E9,9E9,9E9,9E9]],v150,z20,custom_tool1\WObj:=WObj0;
IF TestDI(Stavbar_opt) THEN
WaitDI Stavbar_opt, 0;
ENDIF
WaitTime 1.5;
SetDO Stavbar_Gripper_open, 0;
SetDO Stavbar_Gripper_close, 1;
WaitTime 1;
MoveL [[25,450,138.8],[-0.174713,0.907209,0.375778,0.072368],[0,-1,-1,0],[0,9E9,9E9,9E9,9E9,9E9]],v150,z20,custom_tool1\WObj:=WObj0;
MoveJ [[424.57,176.97,315.36],[0.320717,-0.233457,0.914293,-0.081892],[0,-1,-1,0],[0,9E9,9E9,9E9,9E9,9E9]],v150,z20,custom_tool1\WObj:=WObj0;
MoveJ [[424.57,176.97,315.36],[0.320717,-0.233457,0.914293,-0.081892],[0,-1,-1,0],[0,9E9,9E9,9E9,9E9,9E9]],v150,z20,custom_tool1\WObj:=WObj0;
MoveJ [[514.16,-118.07,181.5],[0,0.989029,0.147725,0],[0,-1,-1,0],[0,9E9,9E9,9E9,9E9,9E9]],v150,z20,custom_tool1\WObj:=WObj0;
MoveL [[514.16,-118.07,81.5],[0,0.989029,0.147725,0],[0,-1,-1,0],[0,9E9,9E9,9E9,9E9,9E9]],v150,z20,custom_tool1\WObj:=WObj0;
WaitTime 1.5;
SetDO Stavbar_Gripper_close, 0;
SetDO Stavbar_Gripper_open, 1;
WaitTime 1;
SetDO Stavbar_Gripper_open, 0;
MoveL [[514.16,-118.07,181.5],[0,0.989029,0.147725,0],[0,-1,-1,0],[0,9E9,9E9,9E9,9E9,9E9]],v150,z20,custom_tool1\WObj:=WObj0;
MoveJ [[424.57,176.97,315.36],[0.320717,-0.233457,0.914293,-0.081892],[0,-1,-1,0],[0,9E9,9E9,9E9,9E9,9E9]],v150,z20,custom_tool1\WObj:=WObj0;
MoveJ [[424.57,176.97,315.36],[0.320717,-0.233457,0.914293,-0.081892],[0,-1,-1,0],[0,9E9,9E9,9E9,9E9,9E9]],v150,z20,custom_tool1\WObj:=WObj0;
MoveJ [[25,450,138.8],[-0.174713,0.907209,0.375778,0.072368],[0,-1,-1,0],[0,9E9,9E9,9E9,9E9,9E9]],v150,z20,custom_tool1\WObj:=WObj0;
MoveL [[25,550,38.8],[-0.174713,0.907209,0.375778,0.072368],[0,-1,-1,0],[0,9E9,9E9,9E9,9E9,9E9]],v150,z20,custom_tool1\WObj:=WObj0;
IF TestDI(Stavbar_opt) THEN
WaitDI Stavbar_opt, 0;
ENDIF
WaitTime 1.5;
SetDO Stavbar_Gripper_open, 0;
SetDO Stavbar_Gripper_close, 1;
WaitTime 1;
MoveL [[25,450,138.8],[-0.174713,0.907209,0.375778,0.072368],[0,-1,-1,0],[0,9E9,9E9,9E9,9E9,9E9]],v150,z20,custom_tool1\WObj:=WObj0;
MoveJ [[424.57,176.97,315.36],[0.320717,-0.233457,0.914293,-0.081892],[0,-1,-1,0],[0,9E9,9E9,9E9,9E9,9E9]],v150,z20,custom_tool1\WObj:=WObj0;
MoveJ [[424.57,176.97,315.36],[0.320717,-0.233457,0.914293,-0.081892],[0,-1,-1,0],[0,9E9,9E9,9E9,9E9,9E9]],v150,z20,custom_tool1\WObj:=WObj0;
MoveJ [[455.06,-205.11,181.5],[0,0.998897,0.046957,0],[0,-1,-1,0],[0,9E9,9E9,9E9,9E9,9E9]],v150,z20,custom_tool1\WObj:=WObj0;
MoveL [[455.06,-205.11,81.5],[0,0.998897,0.046957,0],[0,-1,-1,0],[0,9E9,9E9,9E9,9E9,9E9]],v150,z20,custom_tool1\WObj:=WObj0;
WaitTime 1.5;
SetDO Stavbar_Gripper_close, 0;
SetDO Stavbar_Gripper_open, 1;
WaitTime 1;
SetDO Stavbar_Gripper_open, 0;
MoveL [[455.06,-205.11,181.5],[0,0.998897,0.046957,0],[0,-1,-1,0],[0,9E9,9E9,9E9,9E9,9E9]],v150,z20,custom_tool1\WObj:=WObj0;
MoveJ [[424.57,176.97,315.36],[0.320717,-0.233457,0.914293,-0.081892],[0,-1,-1,0],[0,9E9,9E9,9E9,9E9,9E9]],v150,z20,custom_tool1\WObj:=WObj0;
MoveJ [[424.57,176.97,315.36],[0.320717,-0.233457,0.914293,-0.081892],[0,-1,-1,0],[0,9E9,9E9,9E9,9E9,9E9]],v150,z20,custom_tool1\WObj:=WObj0;
MoveJ [[25,450,138.8],[-0.174713,0.907209,0.375778,0.072368],[0,-1,-1,0],[0,9E9,9E9,9E9,9E9,9E9]],v150,z20,custom_tool1\WObj:=WObj0;
MoveL [[25,550,38.8],[-0.174713,0.907209,0.375778,0.072368],[0,-1,-1,0],[0,9E9,9E9,9E9,9E9,9E9]],v150,z20,custom_tool1\WObj:=WObj0;
IF TestDI(Stavbar_opt) THEN
WaitDI Stavbar_opt, 0;
ENDIF
WaitTime 1.5;
SetDO Stavbar_Gripper_open, 0;
SetDO Stavbar_Gripper_close, 1;
WaitTime 1;
MoveL [[25,450,138.8],[-0.174713,0.907209,0.375778,0.072368],[0,-1,-1,0],[0,9E9,9E9,9E9,9E9,9E9]],v150,z20,custom_tool1\WObj:=WObj0;
MoveJ [[424.57,176.97,315.36],[0.320717,-0.233457,0.914293,-0.081892],[0,-1,-1,0],[0,9E9,9E9,9E9,9E9,9E9]],v150,z20,custom_tool1\WObj:=WObj0;
MoveJ [[424.57,176.97,315.36],[0.320717,-0.233457,0.914293,-0.081892],[0,-1,-1,0],[0,9E9,9E9,9E9,9E9,9E9]],v150,z20,custom_tool1\WObj:=WObj0;
MoveJ [[382.11,-281.05,181.5],[0,0.999743,-0.022669,0],[0,-1,-1,0],[0,9E9,9E9,9E9,9E9,9E9]],v150,z20,custom_tool1\WObj:=WObj0;
MoveL [[382.11,-281.05,81.5],[0,0.999743,-0.022669,0],[0,-1,-1,0],[0,9E9,9E9,9E9,9E9,9E9]],v150,z20,custom_tool1\WObj:=WObj0;
WaitTime 1.5;
SetDO Stavbar_Gripper_close, 0;
SetDO Stavbar_Gripper_open, 1;
WaitTime 1;
SetDO Stavbar_Gripper_open, 0;
MoveL [[382.11,-281.05,181.5],[0,0.999743,-0.022669,0],[0,-1,-1,0],[0,9E9,9E9,9E9,9E9,9E9]],v150,z20,custom_tool1\WObj:=WObj0;
MoveJ [[424.57,176.97,315.36],[0.320717,-0.233457,0.914293,-0.081892],[0,-1,-1,0],[0,9E9,9E9,9E9,9E9,9E9]],v150,z20,custom_tool1\WObj:=WObj0;
MoveJ [[424.57,176.97,315.36],[0.320717,-0.233457,0.914293,-0.081892],[0,-1,-1,0],[0,9E9,9E9,9E9,9E9,9E9]],v150,z20,custom_tool1\WObj:=WObj0;
MoveJ [[25,450,138.8],[-0.174713,0.907209,0.375778,0.072368],[0,-1,-1,0],[0,9E9,9E9,9E9,9E9,9E9]],v150,z20,custom_tool1\WObj:=WObj0;
MoveL [[25,550,38.8],[-0.174713,0.907209,0.375778,0.072368],[0,-1,-1,0],[0,9E9,9E9,9E9,9E9,9E9]],v150,z20,custom_tool1\WObj:=WObj0;
IF TestDI(Stavbar_opt) THEN
WaitDI Stavbar_opt, 0;
ENDIF
WaitTime 1.5;
SetDO Stavbar_Gripper_open, 0;
SetDO Stavbar_Gripper_close, 1;
WaitTime 1;
MoveL [[25,450,138.8],[-0.174713,0.907209,0.375778,0.072368],[0,-1,-1,0],[0,9E9,9E9,9E9,9E9,9E9]],v150,z20,custom_tool1\WObj:=WObj0;
MoveJ [[424.57,176.97,315.36],[0.320717,-0.233457,0.914293,-0.081892],[0,-1,-1,0],[0,9E9,9E9,9E9,9E9,9E9]],v150,z20,custom_tool1\WObj:=WObj0;
MoveJ [[211.46,532.74,204.5],[0,0.648673,0.761067,0],[0,-1,-1,0],[0,9E9,9E9,9E9,9E9,9E9]],v150,z20,custom_tool1\WObj:=WObj0;
MoveL [[211.46,532.74,104.5],[0,0.648673,0.761067,0],[0,-1,-1,0],[0,9E9,9E9,9E9,9E9,9E9]],v150,z20,custom_tool1\WObj:=WObj0;
WaitTime 1.5;
SetDO Stavbar_Gripper_close, 0;
SetDO Stavbar_Gripper_open, 1;
WaitTime 1;
SetDO Stavbar_Gripper_open, 0;
MoveL [[211.46,532.74,204.5],[0,0.648673,0.761067,0],[0,-1,-1,0],[0,9E9,9E9,9E9,9E9,9E9]],v150,z20,custom_tool1\WObj:=WObj0;
MoveJ [[424.57,176.97,315.36],[0.320717,-0.233457,0.914293,-0.081892],[0,-1,-1,0],[0,9E9,9E9,9E9,9E9,9E9]],v150,z20,custom_tool1\WObj:=WObj0;
MoveJ [[25,450,138.8],[-0.174713,0.907209,0.375778,0.072368],[0,-1,-1,0],[0,9E9,9E9,9E9,9E9,9E9]],v150,z20,custom_tool1\WObj:=WObj0;
MoveL [[25,550,38.8],[-0.174713,0.907209,0.375778,0.072368],[0,-1,-1,0],[0,9E9,9E9,9E9,9E9,9E9]],v150,z20,custom_tool1\WObj:=WObj0;
IF TestDI(Stavbar_opt) THEN
WaitDI Stavbar_opt, 0;
ENDIF
WaitTime 1.5;
SetDO Stavbar_Gripper_open, 0;
SetDO Stavbar_Gripper_close, 1;
WaitTime 1;
MoveL [[25,450,138.8],[-0.174713,0.907209,0.375778,0.072368],[0,-1,-1,0],[0,9E9,9E9,9E9,9E9,9E9]],v150,z20,custom_tool1\WObj:=WObj0;
MoveJ [[424.57,176.97,315.36],[0.320717,-0.233457,0.914293,-0.081892],[0,-1,-1,0],[0,9E9,9E9,9E9,9E9,9E9]],v150,z20,custom_tool1\WObj:=WObj0;
MoveJ [[294.94,468.43,204.5],[0,0.67233,0.740252,0],[0,-1,-1,0],[0,9E9,9E9,9E9,9E9,9E9]],v150,z20,custom_tool1\WObj:=WObj0;
MoveL [[294.94,468.43,104.5],[0,0.67233,0.740252,0],[0,-1,-1,0],[0,9E9,9E9,9E9,9E9,9E9]],v150,z20,custom_tool1\WObj:=WObj0;
WaitTime 1.5;
SetDO Stavbar_Gripper_close, 0;
SetDO Stavbar_Gripper_open, 1;
WaitTime 1;
SetDO Stavbar_Gripper_open, 0;
MoveL [[294.94,468.43,204.5],[0,0.67233,0.740252,0],[0,-1,-1,0],[0,9E9,9E9,9E9,9E9,9E9]],v150,z20,custom_tool1\WObj:=WObj0;
MoveJ [[424.57,176.97,315.36],[0.320717,-0.233457,0.914293,-0.081892],[0,-1,-1,0],[0,9E9,9E9,9E9,9E9,9E9]],v150,z20,custom_tool1\WObj:=WObj0;
MoveJ [[25,450,138.8],[-0.174713,0.907209,0.375778,0.072368],[0,-1,-1,0],[0,9E9,9E9,9E9,9E9,9E9]],v150,z20,custom_tool1\WObj:=WObj0;
MoveL [[25,550,38.8],[-0.174713,0.907209,0.375778,0.072368],[0,-1,-1,0],[0,9E9,9E9,9E9,9E9,9E9]],v150,z20,custom_tool1\WObj:=WObj0;
IF TestDI(Stavbar_opt) THEN
WaitDI Stavbar_opt, 0;
ENDIF
WaitTime 1.5;
SetDO Stavbar_Gripper_open, 0;
SetDO Stavbar_Gripper_close, 1;
WaitTime 1;
MoveL [[25,450,138.8],[-0.174713,0.907209,0.375778,0.072368],[0,-1,-1,0],[0,9E9,9E9,9E9,9E9,9E9]],v150,z20,custom_tool1\WObj:=WObj0;
MoveJ [[424.57,176.97,315.36],[0.320717,-0.233457,0.914293,-0.081892],[0,-1,-1,0],[0,9E9,9E9,9E9,9E9,9E9]],v150,z20,custom_tool1\WObj:=WObj0;
MoveJ [[373.51,398.24,204.5],[0,0.702834,0.711354,0],[0,-1,-1,0],[0,9E9,9E9,9E9,9E9,9E9]],v150,z20,custom_tool1\WObj:=WObj0;
MoveL [[373.51,398.24,104.5],[0,0.702834,0.711354,0],[0,-1,-1,0],[0,9E9,9E9,9E9,9E9,9E9]],v150,z20,custom_tool1\WObj:=WObj0;
WaitTime 1.5;
SetDO Stavbar_Gripper_close, 0;
SetDO Stavbar_Gripper_open, 1;
WaitTime 1;
SetDO Stavbar_Gripper_open, 0;
MoveL [[373.51,398.24,204.5],[0,0.702834,0.711354,0],[0,-1,-1,0],[0,9E9,9E9,9E9,9E9,9E9]],v150,z20,custom_tool1\WObj:=WObj0;
MoveJ [[424.57,176.97,315.36],[0.320717,-0.233457,0.914293,-0.081892],[0,-1,-1,0],[0,9E9,9E9,9E9,9E9,9E9]],v150,z20,custom_tool1\WObj:=WObj0;
MoveJ [[25,450,138.8],[-0.174713,0.907209,0.375778,0.072368],[0,-1,-1,0],[0,9E9,9E9,9E9,9E9,9E9]],v150,z20,custom_tool1\WObj:=WObj0;
MoveL [[25,550,38.8],[-0.174713,0.907209,0.375778,0.072368],[0,-1,-1,0],[0,9E9,9E9,9E9,9E9,9E9]],v150,z20,custom_tool1\WObj:=WObj0;
IF TestDI(Stavbar_opt) THEN
WaitDI Stavbar_opt, 0;
ENDIF
WaitTime 1.5;
SetDO Stavbar_Gripper_open, 0;
SetDO Stavbar_Gripper_close, 1;
WaitTime 1;
MoveL [[25,450,138.8],[-0.174713,0.907209,0.375778,0.072368],[0,-1,-1,0],[0,9E9,9E9,9E9,9E9,9E9]],v150,z20,custom_tool1\WObj:=WObj0;
MoveJ [[424.57,176.97,315.36],[0.320717,-0.233457,0.914293,-0.081892],[0,-1,-1,0],[0,9E9,9E9,9E9,9E9,9E9]],v150,z20,custom_tool1\WObj:=WObj0;
MoveJ [[444.72,320.63,204.5],[0,0.743151,0.669124,0],[0,-1,-1,0],[0,9E9,9E9,9E9,9E9,9E9]],v150,z20,custom_tool1\WObj:=WObj0;
MoveL [[444.72,320.63,104.5],[0,0.743151,0.669124,0],[0,-1,-1,0],[0,9E9,9E9,9E9,9E9,9E9]],v150,z20,custom_tool1\WObj:=WObj0;
WaitTime 1.5;
SetDO Stavbar_Gripper_close, 0;
SetDO Stavbar_Gripper_open, 1;
WaitTime 1;
SetDO Stavbar_Gripper_open, 0;
MoveL [[444.72,320.63,204.5],[0,0.743151,0.669124,0],[0,-1,-1,0],[0,9E9,9E9,9E9,9E9,9E9]],v150,z20,custom_tool1\WObj:=WObj0;
MoveJ [[424.57,176.97,315.36],[0.320717,-0.233457,0.914293,-0.081892],[0,-1,-1,0],[0,9E9,9E9,9E9,9E9,9E9]],v150,z20,custom_tool1\WObj:=WObj0;
MoveJ [[25,450,138.8],[-0.174713,0.907209,0.375778,0.072368],[0,-1,-1,0],[0,9E9,9E9,9E9,9E9,9E9]],v150,z20,custom_tool1\WObj:=WObj0;
MoveL [[25,550,38.8],[-0.174713,0.907209,0.375778,0.072368],[0,-1,-1,0],[0,9E9,9E9,9E9,9E9,9E9]],v150,z20,custom_tool1\WObj:=WObj0;
IF TestDI(Stavbar_opt) THEN
WaitDI Stavbar_opt, 0;
ENDIF
WaitTime 1.5;
SetDO Stavbar_Gripper_open, 0;
SetDO Stavbar_Gripper_close, 1;
WaitTime 1;
MoveL [[25,450,138.8],[-0.174713,0.907209,0.375778,0.072368],[0,-1,-1,0],[0,9E9,9E9,9E9,9E9,9E9]],v150,z20,custom_tool1\WObj:=WObj0;
MoveJ [[424.57,176.97,315.36],[0.320717,-0.233457,0.914293,-0.081892],[0,-1,-1,0],[0,9E9,9E9,9E9,9E9,9E9]],v150,z20,custom_tool1\WObj:=WObj0;
MoveJ [[504.31,233.85,204.5],[0,0.796804,0.604237,0],[0,-1,-1,0],[0,9E9,9E9,9E9,9E9,9E9]],v150,z20,custom_tool1\WObj:=WObj0;
MoveL [[504.31,233.85,104.5],[0,0.796804,0.604237,0],[0,-1,-1,0],[0,9E9,9E9,9E9,9E9,9E9]],v150,z20,custom_tool1\WObj:=WObj0;
WaitTime 1.5;
SetDO Stavbar_Gripper_close, 0;
SetDO Stavbar_Gripper_open, 1;
WaitTime 1;
SetDO Stavbar_Gripper_open, 0;
MoveL [[504.31,233.85,204.5],[0,0.796804,0.604237,0],[0,-1,-1,0],[0,9E9,9E9,9E9,9E9,9E9]],v150,z20,custom_tool1\WObj:=WObj0;
MoveJ [[424.57,176.97,315.36],[0.320717,-0.233457,0.914293,-0.081892],[0,-1,-1,0],[0,9E9,9E9,9E9,9E9,9E9]],v150,z20,custom_tool1\WObj:=WObj0;
MoveJ [[25,450,138.8],[-0.174713,0.907209,0.375778,0.072368],[0,-1,-1,0],[0,9E9,9E9,9E9,9E9,9E9]],v150,z20,custom_tool1\WObj:=WObj0;
MoveL [[25,550,38.8],[-0.174713,0.907209,0.375778,0.072368],[0,-1,-1,0],[0,9E9,9E9,9E9,9E9,9E9]],v150,z20,custom_tool1\WObj:=WObj0;
IF TestDI(Stavbar_opt) THEN
WaitDI Stavbar_opt, 0;
ENDIF
WaitTime 1.5;
SetDO Stavbar_Gripper_open, 0;
SetDO Stavbar_Gripper_close, 1;
WaitTime 1;
MoveL [[25,450,138.8],[-0.174713,0.907209,0.375778,0.072368],[0,-1,-1,0],[0,9E9,9E9,9E9,9E9,9E9]],v150,z20,custom_tool1\WObj:=WObj0;
MoveJ [[424.57,176.97,315.36],[0.320717,-0.233457,0.914293,-0.081892],[0,-1,-1,0],[0,9E9,9E9,9E9,9E9,9E9]],v150,z20,custom_tool1\WObj:=WObj0;
MoveJ [[545.02,136.92,204.5],[0,0.864151,0.503233,0],[0,-1,-1,0],[0,9E9,9E9,9E9,9E9,9E9]],v150,z20,custom_tool1\WObj:=WObj0;
MoveL [[545.02,136.92,104.5],[0,0.864151,0.503233,0],[0,-1,-1,0],[0,9E9,9E9,9E9,9E9,9E9]],v150,z20,custom_tool1\WObj:=WObj0;
WaitTime 1.5;
SetDO Stavbar_Gripper_close, 0;
SetDO Stavbar_Gripper_open, 1;
WaitTime 1;
SetDO Stavbar_Gripper_open, 0;
MoveL [[545.02,136.92,204.5],[0,0.864151,0.503233,0],[0,-1,-1,0],[0,9E9,9E9,9E9,9E9,9E9]],v150,z20,custom_tool1\WObj:=WObj0;
MoveJ [[424.57,176.97,315.36],[0.320717,-0.233457,0.914293,-0.081892],[0,-1,-1,0],[0,9E9,9E9,9E9,9E9,9E9]],v150,z20,custom_tool1\WObj:=WObj0;
MoveJ [[25,450,138.8],[-0.174713,0.907209,0.375778,0.072368],[0,-1,-1,0],[0,9E9,9E9,9E9,9E9,9E9]],v150,z20,custom_tool1\WObj:=WObj0;
MoveL [[25,550,38.8],[-0.174713,0.907209,0.375778,0.072368],[0,-1,-1,0],[0,9E9,9E9,9E9,9E9,9E9]],v150,z20,custom_tool1\WObj:=WObj0;
IF TestDI(Stavbar_opt) THEN
WaitDI Stavbar_opt, 0;
ENDIF
WaitTime 1.5;
SetDO Stavbar_Gripper_open, 0;
SetDO Stavbar_Gripper_close, 1;
WaitTime 1;
MoveL [[25,450,138.8],[-0.174713,0.907209,0.375778,0.072368],[0,-1,-1,0],[0,9E9,9E9,9E9,9E9,9E9]],v150,z20,custom_tool1\WObj:=WObj0;
MoveJ [[424.57,176.97,315.36],[0.320717,-0.233457,0.914293,-0.081892],[0,-1,-1,0],[0,9E9,9E9,9E9,9E9,9E9]],v150,z20,custom_tool1\WObj:=WObj0;
MoveJ [[557.21,32.67,204.5],[0,0.932124,0.36214,0],[0,-1,-1,0],[0,9E9,9E9,9E9,9E9,9E9]],v150,z20,custom_tool1\WObj:=WObj0;
MoveL [[557.21,32.67,104.5],[0,0.932124,0.36214,0],[0,-1,-1,0],[0,9E9,9E9,9E9,9E9,9E9]],v150,z20,custom_tool1\WObj:=WObj0;
WaitTime 1.5;
SetDO Stavbar_Gripper_close, 0;
SetDO Stavbar_Gripper_open, 1;
WaitTime 1;
SetDO Stavbar_Gripper_open, 0;
MoveL [[557.21,32.67,204.5],[0,0.932124,0.36214,0],[0,-1,-1,0],[0,9E9,9E9,9E9,9E9,9E9]],v150,z20,custom_tool1\WObj:=WObj0;
MoveJ [[424.57,176.97,315.36],[0.320717,-0.233457,0.914293,-0.081892],[0,-1,-1,0],[0,9E9,9E9,9E9,9E9,9E9]],v150,z20,custom_tool1\WObj:=WObj0;
MoveJ [[25,450,138.8],[-0.174713,0.907209,0.375778,0.072368],[0,-1,-1,0],[0,9E9,9E9,9E9,9E9,9E9]],v150,z20,custom_tool1\WObj:=WObj0;
MoveL [[25,550,38.8],[-0.174713,0.907209,0.375778,0.072368],[0,-1,-1,0],[0,9E9,9E9,9E9,9E9,9E9]],v150,z20,custom_tool1\WObj:=WObj0;
IF TestDI(Stavbar_opt) THEN
WaitDI Stavbar_opt, 0;
ENDIF
WaitTime 1.5;
SetDO Stavbar_Gripper_open, 0;
SetDO Stavbar_Gripper_close, 1;
WaitTime 1;
MoveL [[25,450,138.8],[-0.174713,0.907209,0.375778,0.072368],[0,-1,-1,0],[0,9E9,9E9,9E9,9E9,9E9]],v150,z20,custom_tool1\WObj:=WObj0;
MoveJ [[424.57,176.97,315.36],[0.320717,-0.233457,0.914293,-0.081892],[0,-1,-1,0],[0,9E9,9E9,9E9,9E9,9E9]],v150,z20,custom_tool1\WObj:=WObj0;
MoveJ [[424.57,176.97,315.36],[0.320717,-0.233457,0.914293,-0.081892],[0,-1,-1,0],[0,9E9,9E9,9E9,9E9,9E9]],v150,z20,custom_tool1\WObj:=WObj0;
MoveJ [[535.87,-70.09,204.5],[0,0.97719,0.212369,0],[0,-1,-1,0],[0,9E9,9E9,9E9,9E9,9E9]],v150,z20,custom_tool1\WObj:=WObj0;
MoveL [[535.87,-70.09,104.5],[0,0.97719,0.212369,0],[0,-1,-1,0],[0,9E9,9E9,9E9,9E9,9E9]],v150,z20,custom_tool1\WObj:=WObj0;
WaitTime 1.5;
SetDO Stavbar_Gripper_close, 0;
SetDO Stavbar_Gripper_open, 1;
WaitTime 1;
SetDO Stavbar_Gripper_open, 0;
MoveL [[535.87,-70.09,204.5],[0,0.97719,0.212369,0],[0,-1,-1,0],[0,9E9,9E9,9E9,9E9,9E9]],v150,z20,custom_tool1\WObj:=WObj0;
MoveJ [[424.57,176.97,315.36],[0.320717,-0.233457,0.914293,-0.081892],[0,-1,-1,0],[0,9E9,9E9,9E9,9E9,9E9]],v150,z20,custom_tool1\WObj:=WObj0;
MoveJ [[424.57,176.97,315.36],[0.320717,-0.233457,0.914293,-0.081892],[0,-1,-1,0],[0,9E9,9E9,9E9,9E9,9E9]],v150,z20,custom_tool1\WObj:=WObj0;
MoveJ [[25,450,138.8],[-0.174713,0.907209,0.375778,0.072368],[0,-1,-1,0],[0,9E9,9E9,9E9,9E9,9E9]],v150,z20,custom_tool1\WObj:=WObj0;
MoveL [[25,550,38.8],[-0.174713,0.907209,0.375778,0.072368],[0,-1,-1,0],[0,9E9,9E9,9E9,9E9,9E9]],v150,z20,custom_tool1\WObj:=WObj0;
IF TestDI(Stavbar_opt) THEN
WaitDI Stavbar_opt, 0;
ENDIF
WaitTime 1.5;
SetDO Stavbar_Gripper_open, 0;
SetDO Stavbar_Gripper_close, 1;
WaitTime 1;
MoveL [[25,450,138.8],[-0.174713,0.907209,0.375778,0.072368],[0,-1,-1,0],[0,9E9,9E9,9E9,9E9,9E9]],v150,z20,custom_tool1\WObj:=WObj0;
MoveJ [[424.57,176.97,315.36],[0.320717,-0.233457,0.914293,-0.081892],[0,-1,-1,0],[0,9E9,9E9,9E9,9E9,9E9]],v150,z20,custom_tool1\WObj:=WObj0;
MoveJ [[424.57,176.97,315.36],[0.320717,-0.233457,0.914293,-0.081892],[0,-1,-1,0],[0,9E9,9E9,9E9,9E9,9E9]],v150,z20,custom_tool1\WObj:=WObj0;
MoveJ [[486.81,-163.08,204.5],[0,0.995688,0.092763,0],[0,-1,-1,0],[0,9E9,9E9,9E9,9E9,9E9]],v150,z20,custom_tool1\WObj:=WObj0;
MoveL [[486.81,-163.08,104.5],[0,0.995688,0.092763,0],[0,-1,-1,0],[0,9E9,9E9,9E9,9E9,9E9]],v150,z20,custom_tool1\WObj:=WObj0;
WaitTime 1.5;
SetDO Stavbar_Gripper_close, 0;
SetDO Stavbar_Gripper_open, 1;
WaitTime 1;
SetDO Stavbar_Gripper_open, 0;
MoveL [[486.81,-163.08,204.5],[0,0.995688,0.092763,0],[0,-1,-1,0],[0,9E9,9E9,9E9,9E9,9E9]],v150,z20,custom_tool1\WObj:=WObj0;
MoveJ [[424.57,176.97,315.36],[0.320717,-0.233457,0.914293,-0.081892],[0,-1,-1,0],[0,9E9,9E9,9E9,9E9,9E9]],v150,z20,custom_tool1\WObj:=WObj0;
MoveJ [[424.57,176.97,315.36],[0.320717,-0.233457,0.914293,-0.081892],[0,-1,-1,0],[0,9E9,9E9,9E9,9E9,9E9]],v150,z20,custom_tool1\WObj:=WObj0;
MoveJ [[25,450,138.8],[-0.174713,0.907209,0.375778,0.072368],[0,-1,-1,0],[0,9E9,9E9,9E9,9E9,9E9]],v150,z20,custom_tool1\WObj:=WObj0;
MoveL [[25,550,38.8],[-0.174713,0.907209,0.375778,0.072368],[0,-1,-1,0],[0,9E9,9E9,9E9,9E9,9E9]],v150,z20,custom_tool1\WObj:=WObj0;
IF TestDI(Stavbar_opt) THEN
WaitDI Stavbar_opt, 0;
ENDIF
WaitTime 1.5;
SetDO Stavbar_Gripper_open, 0;
SetDO Stavbar_Gripper_close, 1;
WaitTime 1;
MoveL [[25,450,138.8],[-0.174713,0.907209,0.375778,0.072368],[0,-1,-1,0],[0,9E9,9E9,9E9,9E9,9E9]],v150,z20,custom_tool1\WObj:=WObj0;
MoveJ [[424.57,176.97,315.36],[0.320717,-0.233457,0.914293,-0.081892],[0,-1,-1,0],[0,9E9,9E9,9E9,9E9,9E9]],v150,z20,custom_tool1\WObj:=WObj0;
MoveJ [[424.57,176.97,315.36],[0.320717,-0.233457,0.914293,-0.081892],[0,-1,-1,0],[0,9E9,9E9,9E9,9E9,9E9]],v150,z20,custom_tool1\WObj:=WObj0;
MoveJ [[419.9,-244.35,204.5],[0,0.99996,0.008965,0],[0,-1,-1,0],[0,9E9,9E9,9E9,9E9,9E9]],v150,z20,custom_tool1\WObj:=WObj0;
MoveL [[419.9,-244.35,104.5],[0,0.99996,0.008965,0],[0,-1,-1,0],[0,9E9,9E9,9E9,9E9,9E9]],v150,z20,custom_tool1\WObj:=WObj0;
WaitTime 1.5;
SetDO Stavbar_Gripper_close, 0;
SetDO Stavbar_Gripper_open, 1;
WaitTime 1;
SetDO Stavbar_Gripper_open, 0;
MoveL [[419.9,-244.35,204.5],[0,0.99996,0.008965,0],[0,-1,-1,0],[0,9E9,9E9,9E9,9E9,9E9]],v150,z20,custom_tool1\WObj:=WObj0;
MoveJ [[424.57,176.97,315.36],[0.320717,-0.233457,0.914293,-0.081892],[0,-1,-1,0],[0,9E9,9E9,9E9,9E9,9E9]],v150,z20,custom_tool1\WObj:=WObj0;
MoveJ [[424.57,176.97,315.36],[0.320717,-0.233457,0.914293,-0.081892],[0,-1,-1,0],[0,9E9,9E9,9E9,9E9,9E9]],v150,z20,custom_tool1\WObj:=WObj0;
MoveJ [[25,450,138.8],[-0.174713,0.907209,0.375778,0.072368],[0,-1,-1,0],[0,9E9,9E9,9E9,9E9,9E9]],v150,z20,custom_tool1\WObj:=WObj0;
MoveJ [[-63,450,138.8],[-0.174713,0.907209,0.375778,0.072368],[0,-1,-1,0],[0,9E9,9E9,9E9,9E9,9E9]],v150,z20,custom_tool1\WObj:=WObj0;
MoveL [[-63,550,38.8],[-0.174713,0.907209,0.375778,0.072368],[0,-1,-1,0],[0,9E9,9E9,9E9,9E9,9E9]],v150,z20,custom_tool1\WObj:=WObj0;
IF TestDI(Stavbar_opt) THEN
WaitDI Stavbar_opt, 0;
ENDIF
WaitTime 1.5;
SetDO Stavbar_Gripper_open, 0;
SetDO Stavbar_Gripper_close, 1;
WaitTime 1;
MoveL [[-63,450,138.8],[-0.174713,0.907209,0.375778,0.072368],[0,-1,-1,0],[0,9E9,9E9,9E9,9E9,9E9]],v150,z20,custom_tool1\WObj:=WObj0;
MoveJ [[25,450,138.8],[-0.174713,0.907209,0.375778,0.072368],[0,-1,-1,0],[0,9E9,9E9,9E9,9E9,9E9]],v150,z20,custom_tool1\WObj:=WObj0;
MoveJ [[424.57,176.97,315.36],[0.320717,-0.233457,0.914293,-0.081892],[0,-1,-1,0],[0,9E9,9E9,9E9,9E9,9E9]],v150,z20,custom_tool1\WObj:=WObj0;
MoveJ [[424.57,176.97,315.36],[0.320717,-0.233457,0.914293,-0.081892],[0,-1,-1,0],[0,9E9,9E9,9E9,9E9,9E9]],v150,z20,custom_tool1\WObj:=WObj0;
MoveJ [[370.29,-291.84,204.5],[0,0.999743,-0.022669,0],[0,-1,-1,0],[0,9E9,9E9,9E9,9E9,9E9]],v150,z20,custom_tool1\WObj:=WObj0;
MoveL [[370.29,-291.84,104.5],[0,0.999743,-0.022669,0],[0,-1,-1,0],[0,9E9,9E9,9E9,9E9,9E9]],v150,z20,custom_tool1\WObj:=WObj0;
WaitTime 1.5;
SetDO Stavbar_Gripper_close, 0;
SetDO Stavbar_Gripper_open, 1;
WaitTime 1;
SetDO Stavbar_Gripper_open, 0;
MoveL [[370.29,-291.84,204.5],[0,0.999743,-0.022669,0],[0,-1,-1,0],[0,9E9,9E9,9E9,9E9,9E9]],v150,z20,custom_tool1\WObj:=WObj0;
MoveJ [[424.57,176.97,315.36],[0.320717,-0.233457,0.914293,-0.081892],[0,-1,-1,0],[0,9E9,9E9,9E9,9E9,9E9]],v150,z20,custom_tool1\WObj:=WObj0;
MoveJ [[424.57,176.97,315.36],[0.320717,-0.233457,0.914293,-0.081892],[0,-1,-1,0],[0,9E9,9E9,9E9,9E9,9E9]],v150,z20,custom_tool1\WObj:=WObj0;
MoveJ [[25,450,138.8],[-0.174713,0.907209,0.375778,0.072368],[0,-1,-1,0],[0,9E9,9E9,9E9,9E9,9E9]],v150,z20,custom_tool1\WObj:=WObj0;
MoveJ [[-63,450,138.8],[-0.174713,0.907209,0.375778,0.072368],[0,-1,-1,0],[0,9E9,9E9,9E9,9E9,9E9]],v150,z20,custom_tool1\WObj:=WObj0;
MoveL [[-63,550,38.8],[-0.174713,0.907209,0.375778,0.072368],[0,-1,-1,0],[0,9E9,9E9,9E9,9E9,9E9]],v150,z20,custom_tool1\WObj:=WObj0;
IF TestDI(Stavbar_opt) THEN
WaitDI Stavbar_opt, 0;
ENDIF
WaitTime 1.5;
SetDO Stavbar_Gripper_open, 0;
SetDO Stavbar_Gripper_close, 1;
WaitTime 1;
MoveL [[-63,450,138.8],[-0.174713,0.907209,0.375778,0.072368],[0,-1,-1,0],[0,9E9,9E9,9E9,9E9,9E9]],v150,z20,custom_tool1\WObj:=WObj0;
MoveJ [[25,450,138.8],[-0.174713,0.907209,0.375778,0.072368],[0,-1,-1,0],[0,9E9,9E9,9E9,9E9,9E9]],v150,z20,custom_tool1\WObj:=WObj0;
MoveJ [[424.57,176.97,315.36],[0.320717,-0.233457,0.914293,-0.081892],[0,-1,-1,0],[0,9E9,9E9,9E9,9E9,9E9]],v150,z20,custom_tool1\WObj:=WObj0;
MoveJ [[198.5,542.12,227.5],[0,0.648673,0.761067,0],[0,-1,-1,0],[0,9E9,9E9,9E9,9E9,9E9]],v150,z20,custom_tool1\WObj:=WObj0;
MoveL [[198.5,542.12,127.5],[0,0.648673,0.761067,0],[0,-1,-1,0],[0,9E9,9E9,9E9,9E9,9E9]],v150,z20,custom_tool1\WObj:=WObj0;
WaitTime 1.5;
SetDO Stavbar_Gripper_close, 0;
SetDO Stavbar_Gripper_open, 1;
WaitTime 1;
SetDO Stavbar_Gripper_open, 0;
MoveL [[198.5,542.12,227.5],[0,0.648673,0.761067,0],[0,-1,-1,0],[0,9E9,9E9,9E9,9E9,9E9]],v150,z20,custom_tool1\WObj:=WObj0;
MoveJ [[424.57,176.97,315.36],[0.320717,-0.233457,0.914293,-0.081892],[0,-1,-1,0],[0,9E9,9E9,9E9,9E9,9E9]],v150,z20,custom_tool1\WObj:=WObj0;
MoveJ [[25,450,138.8],[-0.174713,0.907209,0.375778,0.072368],[0,-1,-1,0],[0,9E9,9E9,9E9,9E9,9E9]],v150,z20,custom_tool1\WObj:=WObj0;
MoveL [[25,550,38.8],[-0.174713,0.907209,0.375778,0.072368],[0,-1,-1,0],[0,9E9,9E9,9E9,9E9,9E9]],v150,z20,custom_tool1\WObj:=WObj0;
IF TestDI(Stavbar_opt) THEN
WaitDI Stavbar_opt, 0;
ENDIF
WaitTime 1.5;
SetDO Stavbar_Gripper_open, 0;
SetDO Stavbar_Gripper_close, 1;
WaitTime 1;
MoveL [[25,450,138.8],[-0.174713,0.907209,0.375778,0.072368],[0,-1,-1,0],[0,9E9,9E9,9E9,9E9,9E9]],v150,z20,custom_tool1\WObj:=WObj0;
MoveJ [[424.57,176.97,315.36],[0.320717,-0.233457,0.914293,-0.081892],[0,-1,-1,0],[0,9E9,9E9,9E9,9E9,9E9]],v150,z20,custom_tool1\WObj:=WObj0;
MoveJ [[253.7,501.24,227.5],[0,0.659792,0.751449,0],[0,-1,-1,0],[0,9E9,9E9,9E9,9E9,9E9]],v150,z20,custom_tool1\WObj:=WObj0;
MoveL [[253.7,501.24,127.5],[0,0.659792,0.751449,0],[0,-1,-1,0],[0,9E9,9E9,9E9,9E9,9E9]],v150,z20,custom_tool1\WObj:=WObj0;
WaitTime 1.5;
SetDO Stavbar_Gripper_close, 0;
SetDO Stavbar_Gripper_open, 1;
WaitTime 1;
SetDO Stavbar_Gripper_open, 0;
MoveL [[253.7,501.24,227.5],[0,0.659792,0.751449,0],[0,-1,-1,0],[0,9E9,9E9,9E9,9E9,9E9]],v150,z20,custom_tool1\WObj:=WObj0;
MoveJ [[424.57,176.97,315.36],[0.320717,-0.233457,0.914293,-0.081892],[0,-1,-1,0],[0,9E9,9E9,9E9,9E9,9E9]],v150,z20,custom_tool1\WObj:=WObj0;
MoveJ [[25,450,138.8],[-0.174713,0.907209,0.375778,0.072368],[0,-1,-1,0],[0,9E9,9E9,9E9,9E9,9E9]],v150,z20,custom_tool1\WObj:=WObj0;
MoveL [[25,550,38.8],[-0.174713,0.907209,0.375778,0.072368],[0,-1,-1,0],[0,9E9,9E9,9E9,9E9,9E9]],v150,z20,custom_tool1\WObj:=WObj0;
IF TestDI(Stavbar_opt) THEN
WaitDI Stavbar_opt, 0;
ENDIF
WaitTime 1.5;
SetDO Stavbar_Gripper_open, 0;
SetDO Stavbar_Gripper_close, 1;
WaitTime 1;
MoveL [[25,450,138.8],[-0.174713,0.907209,0.375778,0.072368],[0,-1,-1,0],[0,9E9,9E9,9E9,9E9,9E9]],v150,z20,custom_tool1\WObj:=WObj0;
MoveJ [[424.57,176.97,315.36],[0.320717,-0.233457,0.914293,-0.081892],[0,-1,-1,0],[0,9E9,9E9,9E9,9E9,9E9]],v150,z20,custom_tool1\WObj:=WObj0;
MoveJ [[334.96,434.16,227.5],[0,0.686564,0.727069,0],[0,-1,-1,0],[0,9E9,9E9,9E9,9E9,9E9]],v150,z20,custom_tool1\WObj:=WObj0;
MoveL [[334.96,434.16,127.5],[0,0.686564,0.727069,0],[0,-1,-1,0],[0,9E9,9E9,9E9,9E9,9E9]],v150,z20,custom_tool1\WObj:=WObj0;
WaitTime 1.5;
SetDO Stavbar_Gripper_close, 0;
SetDO Stavbar_Gripper_open, 1;
WaitTime 1;
SetDO Stavbar_Gripper_open, 0;
MoveL [[334.96,434.16,227.5],[0,0.686564,0.727069,0],[0,-1,-1,0],[0,9E9,9E9,9E9,9E9,9E9]],v150,z20,custom_tool1\WObj:=WObj0;
MoveJ [[424.57,176.97,315.36],[0.320717,-0.233457,0.914293,-0.081892],[0,-1,-1,0],[0,9E9,9E9,9E9,9E9,9E9]],v150,z20,custom_tool1\WObj:=WObj0;
MoveJ [[25,450,138.8],[-0.174713,0.907209,0.375778,0.072368],[0,-1,-1,0],[0,9E9,9E9,9E9,9E9,9E9]],v150,z20,custom_tool1\WObj:=WObj0;
MoveL [[25,550,38.8],[-0.174713,0.907209,0.375778,0.072368],[0,-1,-1,0],[0,9E9,9E9,9E9,9E9,9E9]],v150,z20,custom_tool1\WObj:=WObj0;
IF TestDI(Stavbar_opt) THEN
WaitDI Stavbar_opt, 0;
ENDIF
WaitTime 1.5;
SetDO Stavbar_Gripper_open, 0;
SetDO Stavbar_Gripper_close, 1;
WaitTime 1;
MoveL [[25,450,138.8],[-0.174713,0.907209,0.375778,0.072368],[0,-1,-1,0],[0,9E9,9E9,9E9,9E9,9E9]],v150,z20,custom_tool1\WObj:=WObj0;
MoveJ [[424.57,176.97,315.36],[0.320717,-0.233457,0.914293,-0.081892],[0,-1,-1,0],[0,9E9,9E9,9E9,9E9,9E9]],v150,z20,custom_tool1\WObj:=WObj0;
MoveJ [[410.24,360.47,227.5],[0,0.721543,0.69237,0],[0,-1,-1,0],[0,9E9,9E9,9E9,9E9,9E9]],v150,z20,custom_tool1\WObj:=WObj0;
MoveL [[410.24,360.47,127.5],[0,0.721543,0.69237,0],[0,-1,-1,0],[0,9E9,9E9,9E9,9E9,9E9]],v150,z20,custom_tool1\WObj:=WObj0;
WaitTime 1.5;
SetDO Stavbar_Gripper_close, 0;
SetDO Stavbar_Gripper_open, 1;
WaitTime 1;
SetDO Stavbar_Gripper_open, 0;
MoveL [[410.24,360.47,227.5],[0,0.721543,0.69237,0],[0,-1,-1,0],[0,9E9,9E9,9E9,9E9,9E9]],v150,z20,custom_tool1\WObj:=WObj0;
MoveJ [[424.57,176.97,315.36],[0.320717,-0.233457,0.914293,-0.081892],[0,-1,-1,0],[0,9E9,9E9,9E9,9E9,9E9]],v150,z20,custom_tool1\WObj:=WObj0;
MoveJ [[25,450,138.8],[-0.174713,0.907209,0.375778,0.072368],[0,-1,-1,0],[0,9E9,9E9,9E9,9E9,9E9]],v150,z20,custom_tool1\WObj:=WObj0;
MoveL [[25,550,38.8],[-0.174713,0.907209,0.375778,0.072368],[0,-1,-1,0],[0,9E9,9E9,9E9,9E9,9E9]],v150,z20,custom_tool1\WObj:=WObj0;
IF TestDI(Stavbar_opt) THEN
WaitDI Stavbar_opt, 0;
ENDIF
WaitTime 1.5;
SetDO Stavbar_Gripper_open, 0;
SetDO Stavbar_Gripper_close, 1;
WaitTime 1;
MoveL [[25,450,138.8],[-0.174713,0.907209,0.375778,0.072368],[0,-1,-1,0],[0,9E9,9E9,9E9,9E9,9E9]],v150,z20,custom_tool1\WObj:=WObj0;
MoveJ [[424.57,176.97,315.36],[0.320717,-0.233457,0.914293,-0.081892],[0,-1,-1,0],[0,9E9,9E9,9E9,9E9,9E9]],v150,z20,custom_tool1\WObj:=WObj0;
MoveJ [[476.34,278.49,227.5],[0,0.768124,0.640301,0],[0,-1,-1,0],[0,9E9,9E9,9E9,9E9,9E9]],v150,z20,custom_tool1\WObj:=WObj0;
MoveL [[476.34,278.49,127.5],[0,0.768124,0.640301,0],[0,-1,-1,0],[0,9E9,9E9,9E9,9E9,9E9]],v150,z20,custom_tool1\WObj:=WObj0;
WaitTime 1.5;
SetDO Stavbar_Gripper_close, 0;
SetDO Stavbar_Gripper_open, 1;
WaitTime 1;
SetDO Stavbar_Gripper_open, 0;
MoveL [[476.34,278.49,227.5],[0,0.768124,0.640301,0],[0,-1,-1,0],[0,9E9,9E9,9E9,9E9,9E9]],v150,z20,custom_tool1\WObj:=WObj0;
MoveJ [[424.57,176.97,315.36],[0.320717,-0.233457,0.914293,-0.081892],[0,-1,-1,0],[0,9E9,9E9,9E9,9E9,9E9]],v150,z20,custom_tool1\WObj:=WObj0;
MoveJ [[25,450,138.8],[-0.174713,0.907209,0.375778,0.072368],[0,-1,-1,0],[0,9E9,9E9,9E9,9E9,9E9]],v150,z20,custom_tool1\WObj:=WObj0;
MoveL [[25,550,38.8],[-0.174713,0.907209,0.375778,0.072368],[0,-1,-1,0],[0,9E9,9E9,9E9,9E9,9E9]],v150,z20,custom_tool1\WObj:=WObj0;
IF TestDI(Stavbar_opt) THEN
WaitDI Stavbar_opt, 0;
ENDIF
WaitTime 1.5;
SetDO Stavbar_Gripper_open, 0;
SetDO Stavbar_Gripper_close, 1;
WaitTime 1;
MoveL [[25,450,138.8],[-0.174713,0.907209,0.375778,0.072368],[0,-1,-1,0],[0,9E9,9E9,9E9,9E9,9E9]],v150,z20,custom_tool1\WObj:=WObj0;
MoveJ [[424.57,176.97,315.36],[0.320717,-0.233457,0.914293,-0.081892],[0,-1,-1,0],[0,9E9,9E9,9E9,9E9,9E9]],v150,z20,custom_tool1\WObj:=WObj0;
MoveJ [[527.61,186.62,227.5],[0,0.829125,0.559063,0],[0,-1,-1,0],[0,9E9,9E9,9E9,9E9,9E9]],v150,z20,custom_tool1\WObj:=WObj0;
MoveL [[527.61,186.62,127.5],[0,0.829125,0.559063,0],[0,-1,-1,0],[0,9E9,9E9,9E9,9E9,9E9]],v150,z20,custom_tool1\WObj:=WObj0;
WaitTime 1.5;
SetDO Stavbar_Gripper_close, 0;
SetDO Stavbar_Gripper_open, 1;
WaitTime 1;
SetDO Stavbar_Gripper_open, 0;
MoveL [[527.61,186.62,227.5],[0,0.829125,0.559063,0],[0,-1,-1,0],[0,9E9,9E9,9E9,9E9,9E9]],v150,z20,custom_tool1\WObj:=WObj0;
MoveJ [[424.57,176.97,315.36],[0.320717,-0.233457,0.914293,-0.081892],[0,-1,-1,0],[0,9E9,9E9,9E9,9E9,9E9]],v150,z20,custom_tool1\WObj:=WObj0;
MoveJ [[25,450,138.8],[-0.174713,0.907209,0.375778,0.072368],[0,-1,-1,0],[0,9E9,9E9,9E9,9E9,9E9]],v150,z20,custom_tool1\WObj:=WObj0;
MoveL [[25,550,38.8],[-0.174713,0.907209,0.375778,0.072368],[0,-1,-1,0],[0,9E9,9E9,9E9,9E9,9E9]],v150,z20,custom_tool1\WObj:=WObj0;
IF TestDI(Stavbar_opt) THEN
WaitDI Stavbar_opt, 0;
ENDIF
WaitTime 1.5;
SetDO Stavbar_Gripper_open, 0;
SetDO Stavbar_Gripper_close, 1;
WaitTime 1;
MoveL [[25,450,138.8],[-0.174713,0.907209,0.375778,0.072368],[0,-1,-1,0],[0,9E9,9E9,9E9,9E9,9E9]],v150,z20,custom_tool1\WObj:=WObj0;
MoveJ [[424.57,176.97,315.36],[0.320717,-0.233457,0.914293,-0.081892],[0,-1,-1,0],[0,9E9,9E9,9E9,9E9,9E9]],v150,z20,custom_tool1\WObj:=WObj0;
MoveJ [[555.23,85.27,227.5],[0,0.899619,0.436676,0],[0,-1,-1,0],[0,9E9,9E9,9E9,9E9,9E9]],v150,z20,custom_tool1\WObj:=WObj0;
MoveL [[555.23,85.27,127.5],[0,0.899619,0.436676,0],[0,-1,-1,0],[0,9E9,9E9,9E9,9E9,9E9]],v150,z20,custom_tool1\WObj:=WObj0;
WaitTime 1.5;
SetDO Stavbar_Gripper_close, 0;
SetDO Stavbar_Gripper_open, 1;
WaitTime 1;
SetDO Stavbar_Gripper_open, 0;
MoveL [[555.23,85.27,227.5],[0,0.899619,0.436676,0],[0,-1,-1,0],[0,9E9,9E9,9E9,9E9,9E9]],v150,z20,custom_tool1\WObj:=WObj0;
MoveJ [[424.57,176.97,315.36],[0.320717,-0.233457,0.914293,-0.081892],[0,-1,-1,0],[0,9E9,9E9,9E9,9E9,9E9]],v150,z20,custom_tool1\WObj:=WObj0;
MoveJ [[25,450,138.8],[-0.174713,0.907209,0.375778,0.072368],[0,-1,-1,0],[0,9E9,9E9,9E9,9E9,9E9]],v150,z20,custom_tool1\WObj:=WObj0;
MoveL [[25,550,38.8],[-0.174713,0.907209,0.375778,0.072368],[0,-1,-1,0],[0,9E9,9E9,9E9,9E9,9E9]],v150,z20,custom_tool1\WObj:=WObj0;
IF TestDI(Stavbar_opt) THEN
WaitDI Stavbar_opt, 0;
ENDIF
WaitTime 1.5;
SetDO Stavbar_Gripper_open, 0;
SetDO Stavbar_Gripper_close, 1;
WaitTime 1;
MoveL [[25,450,138.8],[-0.174713,0.907209,0.375778,0.072368],[0,-1,-1,0],[0,9E9,9E9,9E9,9E9,9E9]],v150,z20,custom_tool1\WObj:=WObj0;
MoveJ [[424.57,176.97,315.36],[0.320717,-0.233457,0.914293,-0.081892],[0,-1,-1,0],[0,9E9,9E9,9E9,9E9,9E9]],v150,z20,custom_tool1\WObj:=WObj0;
MoveJ [[424.57,176.97,315.36],[0.320717,-0.233457,0.914293,-0.081892],[0,-1,-1,0],[0,9E9,9E9,9E9,9E9,9E9]],v150,z20,custom_tool1\WObj:=WObj0;
MoveJ [[550.59,-19.55,227.5],[0,0.958448,0.285266,0],[0,-1,-1,0],[0,9E9,9E9,9E9,9E9,9E9]],v150,z20,custom_tool1\WObj:=WObj0;
MoveL [[550.59,-19.55,127.5],[0,0.958448,0.285266,0],[0,-1,-1,0],[0,9E9,9E9,9E9,9E9,9E9]],v150,z20,custom_tool1\WObj:=WObj0;
WaitTime 1.5;
SetDO Stavbar_Gripper_close, 0;
SetDO Stavbar_Gripper_open, 1;
WaitTime 1;
SetDO Stavbar_Gripper_open, 0;
MoveL [[550.59,-19.55,227.5],[0,0.958448,0.285266,0],[0,-1,-1,0],[0,9E9,9E9,9E9,9E9,9E9]],v150,z20,custom_tool1\WObj:=WObj0;
MoveJ [[424.57,176.97,315.36],[0.320717,-0.233457,0.914293,-0.081892],[0,-1,-1,0],[0,9E9,9E9,9E9,9E9,9E9]],v150,z20,custom_tool1\WObj:=WObj0;
MoveJ [[424.57,176.97,315.36],[0.320717,-0.233457,0.914293,-0.081892],[0,-1,-1,0],[0,9E9,9E9,9E9,9E9,9E9]],v150,z20,custom_tool1\WObj:=WObj0;
MoveJ [[25,450,138.8],[-0.174713,0.907209,0.375778,0.072368],[0,-1,-1,0],[0,9E9,9E9,9E9,9E9,9E9]],v150,z20,custom_tool1\WObj:=WObj0;
MoveL [[25,550,38.8],[-0.174713,0.907209,0.375778,0.072368],[0,-1,-1,0],[0,9E9,9E9,9E9,9E9,9E9]],v150,z20,custom_tool1\WObj:=WObj0;
IF TestDI(Stavbar_opt) THEN
WaitDI Stavbar_opt, 0;
ENDIF
WaitTime 1.5;
SetDO Stavbar_Gripper_open, 0;
SetDO Stavbar_Gripper_close, 1;
WaitTime 1;
MoveL [[25,450,138.8],[-0.174713,0.907209,0.375778,0.072368],[0,-1,-1,0],[0,9E9,9E9,9E9,9E9,9E9]],v150,z20,custom_tool1\WObj:=WObj0;
MoveJ [[424.57,176.97,315.36],[0.320717,-0.233457,0.914293,-0.081892],[0,-1,-1,0],[0,9E9,9E9,9E9,9E9,9E9]],v150,z20,custom_tool1\WObj:=WObj0;
MoveJ [[424.57,176.97,315.36],[0.320717,-0.233457,0.914293,-0.081892],[0,-1,-1,0],[0,9E9,9E9,9E9,9E9,9E9]],v150,z20,custom_tool1\WObj:=WObj0;
MoveJ [[514.16,-118.07,227.5],[0,0.989029,0.147725,0],[0,-1,-1,0],[0,9E9,9E9,9E9,9E9,9E9]],v150,z20,custom_tool1\WObj:=WObj0;
MoveL [[514.16,-118.07,127.5],[0,0.989029,0.147725,0],[0,-1,-1,0],[0,9E9,9E9,9E9,9E9,9E9]],v150,z20,custom_tool1\WObj:=WObj0;
WaitTime 1.5;
SetDO Stavbar_Gripper_close, 0;
SetDO Stavbar_Gripper_open, 1;
WaitTime 1;
SetDO Stavbar_Gripper_open, 0;
MoveL [[514.16,-118.07,227.5],[0,0.989029,0.147725,0],[0,-1,-1,0],[0,9E9,9E9,9E9,9E9,9E9]],v150,z20,custom_tool1\WObj:=WObj0;
MoveJ [[424.57,176.97,315.36],[0.320717,-0.233457,0.914293,-0.081892],[0,-1,-1,0],[0,9E9,9E9,9E9,9E9,9E9]],v150,z20,custom_tool1\WObj:=WObj0;
MoveJ [[424.57,176.97,315.36],[0.320717,-0.233457,0.914293,-0.081892],[0,-1,-1,0],[0,9E9,9E9,9E9,9E9,9E9]],v150,z20,custom_tool1\WObj:=WObj0;
MoveJ [[25,450,138.8],[-0.174713,0.907209,0.375778,0.072368],[0,-1,-1,0],[0,9E9,9E9,9E9,9E9,9E9]],v150,z20,custom_tool1\WObj:=WObj0;
MoveL [[25,550,38.8],[-0.174713,0.907209,0.375778,0.072368],[0,-1,-1,0],[0,9E9,9E9,9E9,9E9,9E9]],v150,z20,custom_tool1\WObj:=WObj0;
IF TestDI(Stavbar_opt) THEN
WaitDI Stavbar_opt, 0;
ENDIF
WaitTime 1.5;
SetDO Stavbar_Gripper_open, 0;
SetDO Stavbar_Gripper_close, 1;
WaitTime 1;
MoveL [[25,450,138.8],[-0.174713,0.907209,0.375778,0.072368],[0,-1,-1,0],[0,9E9,9E9,9E9,9E9,9E9]],v150,z20,custom_tool1\WObj:=WObj0;
MoveJ [[424.57,176.97,315.36],[0.320717,-0.233457,0.914293,-0.081892],[0,-1,-1,0],[0,9E9,9E9,9E9,9E9,9E9]],v150,z20,custom_tool1\WObj:=WObj0;
MoveJ [[424.57,176.97,315.36],[0.320717,-0.233457,0.914293,-0.081892],[0,-1,-1,0],[0,9E9,9E9,9E9,9E9,9E9]],v150,z20,custom_tool1\WObj:=WObj0;
MoveJ [[455.06,-205.11,227.5],[0,0.998897,0.046957,0],[0,-1,-1,0],[0,9E9,9E9,9E9,9E9,9E9]],v150,z20,custom_tool1\WObj:=WObj0;
MoveL [[455.06,-205.11,127.5],[0,0.998897,0.046957,0],[0,-1,-1,0],[0,9E9,9E9,9E9,9E9,9E9]],v150,z20,custom_tool1\WObj:=WObj0;
WaitTime 1.5;
SetDO Stavbar_Gripper_close, 0;
SetDO Stavbar_Gripper_open, 1;
WaitTime 1;
SetDO Stavbar_Gripper_open, 0;
MoveL [[455.06,-205.11,227.5],[0,0.998897,0.046957,0],[0,-1,-1,0],[0,9E9,9E9,9E9,9E9,9E9]],v150,z20,custom_tool1\WObj:=WObj0;
MoveJ [[424.57,176.97,315.36],[0.320717,-0.233457,0.914293,-0.081892],[0,-1,-1,0],[0,9E9,9E9,9E9,9E9,9E9]],v150,z20,custom_tool1\WObj:=WObj0;
MoveJ [[424.57,176.97,315.36],[0.320717,-0.233457,0.914293,-0.081892],[0,-1,-1,0],[0,9E9,9E9,9E9,9E9,9E9]],v150,z20,custom_tool1\WObj:=WObj0;
MoveJ [[25,450,138.8],[-0.174713,0.907209,0.375778,0.072368],[0,-1,-1,0],[0,9E9,9E9,9E9,9E9,9E9]],v150,z20,custom_tool1\WObj:=WObj0;
MoveL [[25,550,38.8],[-0.174713,0.907209,0.375778,0.072368],[0,-1,-1,0],[0,9E9,9E9,9E9,9E9,9E9]],v150,z20,custom_tool1\WObj:=WObj0;
IF TestDI(Stavbar_opt) THEN
WaitDI Stavbar_opt, 0;
ENDIF
WaitTime 1.5;
SetDO Stavbar_Gripper_open, 0;
SetDO Stavbar_Gripper_close, 1;
WaitTime 1;
MoveL [[25,450,138.8],[-0.174713,0.907209,0.375778,0.072368],[0,-1,-1,0],[0,9E9,9E9,9E9,9E9,9E9]],v150,z20,custom_tool1\WObj:=WObj0;
MoveJ [[424.57,176.97,315.36],[0.320717,-0.233457,0.914293,-0.081892],[0,-1,-1,0],[0,9E9,9E9,9E9,9E9,9E9]],v150,z20,custom_tool1\WObj:=WObj0;
MoveJ [[424.57,176.97,315.36],[0.320717,-0.233457,0.914293,-0.081892],[0,-1,-1,0],[0,9E9,9E9,9E9,9E9,9E9]],v150,z20,custom_tool1\WObj:=WObj0;
MoveJ [[382.11,-281.05,227.5],[0,0.999743,-0.022669,0],[0,-1,-1,0],[0,9E9,9E9,9E9,9E9,9E9]],v150,z20,custom_tool1\WObj:=WObj0;
MoveL [[382.11,-281.05,127.5],[0,0.999743,-0.022669,0],[0,-1,-1,0],[0,9E9,9E9,9E9,9E9,9E9]],v150,z20,custom_tool1\WObj:=WObj0;
WaitTime 1.5;
SetDO Stavbar_Gripper_close, 0;
SetDO Stavbar_Gripper_open, 1;
WaitTime 1;
SetDO Stavbar_Gripper_open, 0;
MoveL [[382.11,-281.05,227.5],[0,0.999743,-0.022669,0],[0,-1,-1,0],[0,9E9,9E9,9E9,9E9,9E9]],v150,z20,custom_tool1\WObj:=WObj0;
MoveJ [[424.57,176.97,315.36],[0.320717,-0.233457,0.914293,-0.081892],[0,-1,-1,0],[0,9E9,9E9,9E9,9E9,9E9]],v150,z20,custom_tool1\WObj:=WObj0;
MoveJ [[424.57,176.97,315.36],[0.320717,-0.233457,0.914293,-0.081892],[0,-1,-1,0],[0,9E9,9E9,9E9,9E9,9E9]],v150,z20,custom_tool1\WObj:=WObj0;
MoveJ [[25,450,138.8],[-0.174713,0.907209,0.375778,0.072368],[0,-1,-1,0],[0,9E9,9E9,9E9,9E9,9E9]],v150,z20,custom_tool1\WObj:=WObj0;
MoveL [[25,550,38.8],[-0.174713,0.907209,0.375778,0.072368],[0,-1,-1,0],[0,9E9,9E9,9E9,9E9,9E9]],v150,z20,custom_tool1\WObj:=WObj0;
IF TestDI(Stavbar_opt) THEN
WaitDI Stavbar_opt, 0;
ENDIF
WaitTime 1.5;
SetDO Stavbar_Gripper_open, 0;
SetDO Stavbar_Gripper_close, 1;
WaitTime 1;
MoveL [[25,450,138.8],[-0.174713,0.907209,0.375778,0.072368],[0,-1,-1,0],[0,9E9,9E9,9E9,9E9,9E9]],v150,z20,custom_tool1\WObj:=WObj0;
MoveJ [[424.57,176.97,315.36],[0.320717,-0.233457,0.914293,-0.081892],[0,-1,-1,0],[0,9E9,9E9,9E9,9E9,9E9]],v150,z20,custom_tool1\WObj:=WObj0;
MoveJ [[211.46,532.74,250.5],[0,0.648673,0.761067,0],[0,-1,-1,0],[0,9E9,9E9,9E9,9E9,9E9]],v150,z20,custom_tool1\WObj:=WObj0;
MoveL [[211.46,532.74,150.5],[0,0.648673,0.761067,0],[0,-1,-1,0],[0,9E9,9E9,9E9,9E9,9E9]],v150,z20,custom_tool1\WObj:=WObj0;
WaitTime 1.5;
SetDO Stavbar_Gripper_close, 0;
SetDO Stavbar_Gripper_open, 1;
WaitTime 1;
SetDO Stavbar_Gripper_open, 0;
MoveL [[211.46,532.74,250.5],[0,0.648673,0.761067,0],[0,-1,-1,0],[0,9E9,9E9,9E9,9E9,9E9]],v150,z20,custom_tool1\WObj:=WObj0;
MoveJ [[424.57,176.97,315.36],[0.320717,-0.233457,0.914293,-0.081892],[0,-1,-1,0],[0,9E9,9E9,9E9,9E9,9E9]],v150,z20,custom_tool1\WObj:=WObj0;
MoveJ [[25,450,138.8],[-0.174713,0.907209,0.375778,0.072368],[0,-1,-1,0],[0,9E9,9E9,9E9,9E9,9E9]],v150,z20,custom_tool1\WObj:=WObj0;
MoveL [[25,550,38.8],[-0.174713,0.907209,0.375778,0.072368],[0,-1,-1,0],[0,9E9,9E9,9E9,9E9,9E9]],v150,z20,custom_tool1\WObj:=WObj0;
IF TestDI(Stavbar_opt) THEN
WaitDI Stavbar_opt, 0;
ENDIF
WaitTime 1.5;
SetDO Stavbar_Gripper_open, 0;
SetDO Stavbar_Gripper_close, 1;
WaitTime 1;
MoveL [[25,450,138.8],[-0.174713,0.907209,0.375778,0.072368],[0,-1,-1,0],[0,9E9,9E9,9E9,9E9,9E9]],v150,z20,custom_tool1\WObj:=WObj0;
MoveJ [[424.57,176.97,315.36],[0.320717,-0.233457,0.914293,-0.081892],[0,-1,-1,0],[0,9E9,9E9,9E9,9E9,9E9]],v150,z20,custom_tool1\WObj:=WObj0;
MoveJ [[294.94,468.43,250.5],[0,0.67233,0.740252,0],[0,-1,-1,0],[0,9E9,9E9,9E9,9E9,9E9]],v150,z20,custom_tool1\WObj:=WObj0;
MoveL [[294.94,468.43,150.5],[0,0.67233,0.740252,0],[0,-1,-1,0],[0,9E9,9E9,9E9,9E9,9E9]],v150,z20,custom_tool1\WObj:=WObj0;
WaitTime 1.5;
SetDO Stavbar_Gripper_close, 0;
SetDO Stavbar_Gripper_open, 1;
WaitTime 1;
SetDO Stavbar_Gripper_open, 0;
MoveL [[294.94,468.43,250.5],[0,0.67233,0.740252,0],[0,-1,-1,0],[0,9E9,9E9,9E9,9E9,9E9]],v150,z20,custom_tool1\WObj:=WObj0;
