MODULE MainModule
VAR speeddata Work:= [100,20,5000,1000];
PERS tooldata custom_tool1 := [TRUE, [[-144.18,-154.4,34.77], [0.707107,0.5,-0.5,0]], [0.1,[0.10,0.00,0.00],[1,0,0,0],0,0,0]];
PROC Main()
ConfL \Off;
ConfJ \Off;
SetDO Stavbar_Gripper_close, 0;
SetDO Stavbar_Gripper_open, 1;
MoveJ [[25,450,138.8],[-0.174713,0.907209,0.375778,0.072368],[0,-1,-1,0],[0,9E9,9E9,9E9,9E9,9E9]],v150,z20,custom_tool1\WObj:=WObj0;
MoveL [[25,550,38.8],[-0.174713,0.907209,0.375778,0.072368],[0,-1,-1,0],[0,9E9,9E9,9E9,9E9,9E9]],v150,z20,custom_tool1\WObj:=WObj0;
IF TestDI(Stavbar_opt) THEN
WaitDI Stavbar_opt, 0;
ENDIF
WaitTime 1.5;
SetDO Stavbar_Gripper_open, 0;
SetDO Stavbar_Gripper_close, 1;
WaitTime 1;
MoveL [[25,450,138.8],[-0.174713,0.907209,0.375778,0.072368],[0,-1,-1,0],[0,9E9,9E9,9E9,9E9,9E9]],v150,z20,custom_tool1\WObj:=WObj0;
MoveJ [[424.57,176.97,302.86],[0.320717,-0.233457,0.914293,-0.081892],[0,-1,-1,0],[0,9E9,9E9,9E9,9E9,9E9]],v150,z20,custom_tool1\WObj:=WObj0;
MoveJ [[244.84,420.56,112.5],[0,0.69938,0.71475,0],[0,-1,-1,0],[0,9E9,9E9,9E9,9E9,9E9]],v150,z20,custom_tool1\WObj:=WObj0;
MoveL [[244.84,420.56,12.5],[0,0.69938,0.71475,0],[0,-1,-1,0],[0,9E9,9E9,9E9,9E9,9E9]],v150,z20,custom_tool1\WObj:=WObj0;
WaitTime 1.5;
SetDO Stavbar_Gripper_close, 0;
SetDO Stavbar_Gripper_open, 1;
WaitTime 1;
SetDO Stavbar_Gripper_open, 0;
MoveL [[244.84,420.56,112.5],[0,0.69938,0.71475,0],[0,-1,-1,0],[0,9E9,9E9,9E9,9E9,9E9]],v150,z20,custom_tool1\WObj:=WObj0;
MoveJ [[424.57,176.97,302.86],[0.320717,-0.233457,0.914293,-0.081892],[0,-1,-1,0],[0,9E9,9E9,9E9,9E9,9E9]],v150,z20,custom_tool1\WObj:=WObj0;
MoveJ [[25,450,138.8],[-0.174713,0.907209,0.375778,0.072368],[0,-1,-1,0],[0,9E9,9E9,9E9,9E9,9E9]],v150,z20,custom_tool1\WObj:=WObj0;
MoveL [[25,550,38.8],[-0.174713,0.907209,0.375778,0.072368],[0,-1,-1,0],[0,9E9,9E9,9E9,9E9,9E9]],v150,z20,custom_tool1\WObj:=WObj0;
IF TestDI(Stavbar_opt) THEN
WaitDI Stavbar_opt, 0;
ENDIF
WaitTime 1.5;
SetDO Stavbar_Gripper_open, 0;
SetDO Stavbar_Gripper_close, 1;
WaitTime 1;
MoveL [[25,450,138.8],[-0.174713,0.907209,0.375778,0.072368],[0,-1,-1,0],[0,9E9,9E9,9E9,9E9,9E9]],v150,z20,custom_tool1\WObj:=WObj0;
MoveJ [[424.57,176.97,302.86],[0.320717,-0.233457,0.914293,-0.081892],[0,-1,-1,0],[0,9E9,9E9,9E9,9E9,9E9]],v150,z20,custom_tool1\WObj:=WObj0;
MoveJ [[312.7,345.73,112.5],[0,0.750517,0.660852,0],[0,-1,-1,0],[0,9E9,9E9,9E9,9E9,9E9]],v150,z20,custom_tool1\WObj:=WObj0;
MoveL [[312.7,345.73,12.5],[0,0.750517,0.660852,0],[0,-1,-1,0],[0,9E9,9E9,9E9,9E9,9E9]],v150,z20,custom_tool1\WObj:=WObj0;
WaitTime 1.5;
SetDO Stavbar_Gripper_close, 0;
SetDO Stavbar_Gripper_open, 1;
WaitTime 1;
SetDO Stavbar_Gripper_open, 0;
MoveL [[312.7,345.73,112.5],[0,0.750517,0.660852,0],[0,-1,-1,0],[0,9E9,9E9,9E9,9E9,9E9]],v150,z20,custom_tool1\WObj:=WObj0;
MoveJ [[424.57,176.97,302.86],[0.320717,-0.233457,0.914293,-0.081892],[0,-1,-1,0],[0,9E9,9E9,9E9,9E9,9E9]],v150,z20,custom_tool1\WObj:=WObj0;
MoveJ [[25,450,138.8],[-0.174713,0.907209,0.375778,0.072368],[0,-1,-1,0],[0,9E9,9E9,9E9,9E9,9E9]],v150,z20,custom_tool1\WObj:=WObj0;
MoveL [[25,550,38.8],[-0.174713,0.907209,0.375778,0.072368],[0,-1,-1,0],[0,9E9,9E9,9E9,9E9,9E9]],v150,z20,custom_tool1\WObj:=WObj0;
IF TestDI(Stavbar_opt) THEN
WaitDI Stavbar_opt, 0;
ENDIF
WaitTime 1.5;
SetDO Stavbar_Gripper_open, 0;
SetDO Stavbar_Gripper_close, 1;
WaitTime 1;
MoveL [[25,450,138.8],[-0.174713,0.907209,0.375778,0.072368],[0,-1,-1,0],[0,9E9,9E9,9E9,9E9,9E9]],v150,z20,custom_tool1\WObj:=WObj0;
MoveJ [[424.57,176.97,302.86],[0.320717,-0.233457,0.914293,-0.081892],[0,-1,-1,0],[0,9E9,9E9,9E9,9E9,9E9]],v150,z20,custom_tool1\WObj:=WObj0;
MoveJ [[366.86,260.53,112.5],[0,0.809896,0.586574,0],[0,-1,-1,0],[0,9E9,9E9,9E9,9E9,9E9]],v150,z20,custom_tool1\WObj:=WObj0;
MoveL [[366.86,260.53,12.5],[0,0.809896,0.586574,0],[0,-1,-1,0],[0,9E9,9E9,9E9,9E9,9E9]],v150,z20,custom_tool1\WObj:=WObj0;
WaitTime 1.5;
SetDO Stavbar_Gripper_close, 0;
SetDO Stavbar_Gripper_open, 1;
WaitTime 1;
SetDO Stavbar_Gripper_open, 0;
MoveL [[366.86,260.53,112.5],[0,0.809896,0.586574,0],[0,-1,-1,0],[0,9E9,9E9,9E9,9E9,9E9]],v150,z20,custom_tool1\WObj:=WObj0;
MoveJ [[424.57,176.97,302.86],[0.320717,-0.233457,0.914293,-0.081892],[0,-1,-1,0],[0,9E9,9E9,9E9,9E9,9E9]],v150,z20,custom_tool1\WObj:=WObj0;
MoveJ [[25,450,138.8],[-0.174713,0.907209,0.375778,0.072368],[0,-1,-1,0],[0,9E9,9E9,9E9,9E9,9E9]],v150,z20,custom_tool1\WObj:=WObj0;
MoveL [[25,550,38.8],[-0.174713,0.907209,0.375778,0.072368],[0,-1,-1,0],[0,9E9,9E9,9E9,9E9,9E9]],v150,z20,custom_tool1\WObj:=WObj0;
IF TestDI(Stavbar_opt) THEN
WaitDI Stavbar_opt, 0;
ENDIF
WaitTime 1.5;
SetDO Stavbar_Gripper_open, 0;
SetDO Stavbar_Gripper_close, 1;
WaitTime 1;
MoveL [[25,450,138.8],[-0.174713,0.907209,0.375778,0.072368],[0,-1,-1,0],[0,9E9,9E9,9E9,9E9,9E9]],v150,z20,custom_tool1\WObj:=WObj0;
MoveJ [[424.57,176.97,302.86],[0.320717,-0.233457,0.914293,-0.081892],[0,-1,-1,0],[0,9E9,9E9,9E9,9E9,9E9]],v150,z20,custom_tool1\WObj:=WObj0;
MoveJ [[402.82,166.23,112.5],[0,0.866278,0.499562,0],[0,-1,-1,0],[0,9E9,9E9,9E9,9E9,9E9]],v150,z20,custom_tool1\WObj:=WObj0;
MoveL [[402.82,166.23,12.5],[0,0.866278,0.499562,0],[0,-1,-1,0],[0,9E9,9E9,9E9,9E9,9E9]],v150,z20,custom_tool1\WObj:=WObj0;
WaitTime 1.5;
SetDO Stavbar_Gripper_close, 0;
SetDO Stavbar_Gripper_open, 1;
WaitTime 1;
SetDO Stavbar_Gripper_open, 0;
MoveL [[402.82,166.23,112.5],[0,0.866278,0.499562,0],[0,-1,-1,0],[0,9E9,9E9,9E9,9E9,9E9]],v150,z20,custom_tool1\WObj:=WObj0;
MoveJ [[424.57,176.97,302.86],[0.320717,-0.233457,0.914293,-0.081892],[0,-1,-1,0],[0,9E9,9E9,9E9,9E9,9E9]],v150,z20,custom_tool1\WObj:=WObj0;
MoveJ [[25,450,138.8],[-0.174713,0.907209,0.375778,0.072368],[0,-1,-1,0],[0,9E9,9E9,9E9,9E9,9E9]],v150,z20,custom_tool1\WObj:=WObj0;
MoveL [[25,550,38.8],[-0.174713,0.907209,0.375778,0.072368],[0,-1,-1,0],[0,9E9,9E9,9E9,9E9,9E9]],v150,z20,custom_tool1\WObj:=WObj0;
IF TestDI(Stavbar_opt) THEN
WaitDI Stavbar_opt, 0;
ENDIF
WaitTime 1.5;
SetDO Stavbar_Gripper_open, 0;
SetDO Stavbar_Gripper_close, 1;
WaitTime 1;
MoveL [[25,450,138.8],[-0.174713,0.907209,0.375778,0.072368],[0,-1,-1,0],[0,9E9,9E9,9E9,9E9,9E9]],v150,z20,custom_tool1\WObj:=WObj0;
MoveJ [[424.57,176.97,302.86],[0.320717,-0.233457,0.914293,-0.081892],[0,-1,-1,0],[0,9E9,9E9,9E9,9E9,9E9]],v150,z20,custom_tool1\WObj:=WObj0;
MoveJ [[419.38,66.63,112.5],[0,0.908889,0.417039,0],[0,-1,-1,0],[0,9E9,9E9,9E9,9E9,9E9]],v150,z20,custom_tool1\WObj:=WObj0;
MoveL [[419.38,66.63,12.5],[0,0.908889,0.417039,0],[0,-1,-1,0],[0,9E9,9E9,9E9,9E9,9E9]],v150,z20,custom_tool1\WObj:=WObj0;
WaitTime 1.5;
SetDO Stavbar_Gripper_close, 0;
SetDO Stavbar_Gripper_open, 1;
WaitTime 1;
SetDO Stavbar_Gripper_open, 0;
MoveL [[419.38,66.63,112.5],[0,0.908889,0.417039,0],[0,-1,-1,0],[0,9E9,9E9,9E9,9E9,9E9]],v150,z20,custom_tool1\WObj:=WObj0;
MoveJ [[424.57,176.97,302.86],[0.320717,-0.233457,0.914293,-0.081892],[0,-1,-1,0],[0,9E9,9E9,9E9,9E9,9E9]],v150,z20,custom_tool1\WObj:=WObj0;
MoveJ [[25,450,138.8],[-0.174713,0.907209,0.375778,0.072368],[0,-1,-1,0],[0,9E9,9E9,9E9,9E9,9E9]],v150,z20,custom_tool1\WObj:=WObj0;
MoveL [[25,550,38.8],[-0.174713,0.907209,0.375778,0.072368],[0,-1,-1,0],[0,9E9,9E9,9E9,9E9,9E9]],v150,z20,custom_tool1\WObj:=WObj0;
IF TestDI(Stavbar_opt) THEN
WaitDI Stavbar_opt, 0;
ENDIF
WaitTime 1.5;
SetDO Stavbar_Gripper_open, 0;
SetDO Stavbar_Gripper_close, 1;
WaitTime 1;
MoveL [[25,450,138.8],[-0.174713,0.907209,0.375778,0.072368],[0,-1,-1,0],[0,9E9,9E9,9E9,9E9,9E9]],v150,z20,custom_tool1\WObj:=WObj0;
MoveJ [[424.57,176.97,302.86],[0.320717,-0.233457,0.914293,-0.081892],[0,-1,-1,0],[0,9E9,9E9,9E9,9E9,9E9]],v150,z20,custom_tool1\WObj:=WObj0;
MoveJ [[424.57,176.97,302.86],[0.320717,-0.233457,0.914293,-0.081892],[0,-1,-1,0],[0,9E9,9E9,9E9,9E9,9E9]],v150,z20,custom_tool1\WObj:=WObj0;
MoveJ [[419.35,-34.4,112.5],[0,0.93639,0.350962,0],[0,-1,-1,0],[0,9E9,9E9,9E9,9E9,9E9]],v150,z20,custom_tool1\WObj:=WObj0;
MoveL [[419.35,-34.4,12.5],[0,0.93639,0.350962,0],[0,-1,-1,0],[0,9E9,9E9,9E9,9E9,9E9]],v150,z20,custom_tool1\WObj:=WObj0;
WaitTime 1.5;
SetDO Stavbar_Gripper_close, 0;
SetDO Stavbar_Gripper_open, 1;
WaitTime 1;
SetDO Stavbar_Gripper_open, 0;
MoveL [[419.35,-34.4,112.5],[0,0.93639,0.350962,0],[0,-1,-1,0],[0,9E9,9E9,9E9,9E9,9E9]],v150,z20,custom_tool1\WObj:=WObj0;
MoveJ [[424.57,176.97,302.86],[0.320717,-0.233457,0.914293,-0.081892],[0,-1,-1,0],[0,9E9,9E9,9E9,9E9,9E9]],v150,z20,custom_tool1\WObj:=WObj0;
MoveJ [[424.57,176.97,302.86],[0.320717,-0.233457,0.914293,-0.081892],[0,-1,-1,0],[0,9E9,9E9,9E9,9E9,9E9]],v150,z20,custom_tool1\WObj:=WObj0;
MoveJ [[25,450,138.8],[-0.174713,0.907209,0.375778,0.072368],[0,-1,-1,0],[0,9E9,9E9,9E9,9E9,9E9]],v150,z20,custom_tool1\WObj:=WObj0;
MoveL [[25,550,38.8],[-0.174713,0.907209,0.375778,0.072368],[0,-1,-1,0],[0,9E9,9E9,9E9,9E9,9E9]],v150,z20,custom_tool1\WObj:=WObj0;
IF TestDI(Stavbar_opt) THEN
WaitDI Stavbar_opt, 0;
ENDIF
WaitTime 1.5;
SetDO Stavbar_Gripper_open, 0;
SetDO Stavbar_Gripper_close, 1;
WaitTime 1;
MoveL [[25,450,138.8],[-0.174713,0.907209,0.375778,0.072368],[0,-1,-1,0],[0,9E9,9E9,9E9,9E9,9E9]],v150,z20,custom_tool1\WObj:=WObj0;
MoveJ [[424.57,176.97,302.86],[0.320717,-0.233457,0.914293,-0.081892],[0,-1,-1,0],[0,9E9,9E9,9E9,9E9,9E9]],v150,z20,custom_tool1\WObj:=WObj0;
MoveJ [[424.57,176.97,302.86],[0.320717,-0.233457,0.914293,-0.081892],[0,-1,-1,0],[0,9E9,9E9,9E9,9E9,9E9]],v150,z20,custom_tool1\WObj:=WObj0;
MoveJ [[407,-134.71,112.5],[0,0.953164,0.302455,0],[0,-1,-1,0],[0,9E9,9E9,9E9,9E9,9E9]],v150,z20,custom_tool1\WObj:=WObj0;
MoveL [[407,-134.71,12.5],[0,0.953164,0.302455,0],[0,-1,-1,0],[0,9E9,9E9,9E9,9E9,9E9]],v150,z20,custom_tool1\WObj:=WObj0;
WaitTime 1.5;
SetDO Stavbar_Gripper_close, 0;
SetDO Stavbar_Gripper_open, 1;
WaitTime 1;
SetDO Stavbar_Gripper_open, 0;
MoveL [[407,-134.71,112.5],[0,0.953164,0.302455,0],[0,-1,-1,0],[0,9E9,9E9,9E9,9E9,9E9]],v150,z20,custom_tool1\WObj:=WObj0;
MoveJ [[424.57,176.97,302.86],[0.320717,-0.233457,0.914293,-0.081892],[0,-1,-1,0],[0,9E9,9E9,9E9,9E9,9E9]],v150,z20,custom_tool1\WObj:=WObj0;
MoveJ [[424.57,176.97,302.86],[0.320717,-0.233457,0.914293,-0.081892],[0,-1,-1,0],[0,9E9,9E9,9E9,9E9,9E9]],v150,z20,custom_tool1\WObj:=WObj0;
MoveJ [[25,450,138.8],[-0.174713,0.907209,0.375778,0.072368],[0,-1,-1,0],[0,9E9,9E9,9E9,9E9,9E9]],v150,z20,custom_tool1\WObj:=WObj0;
MoveJ [[-63,450,138.8],[-0.174713,0.907209,0.375778,0.072368],[0,-1,-1,0],[0,9E9,9E9,9E9,9E9,9E9]],v150,z20,custom_tool1\WObj:=WObj0;
MoveL [[-63,550,38.8],[-0.174713,0.907209,0.375778,0.072368],[0,-1,-1,0],[0,9E9,9E9,9E9,9E9,9E9]],v150,z20,custom_tool1\WObj:=WObj0;
IF TestDI(Stavbar_opt) THEN
WaitDI Stavbar_opt, 0;
ENDIF
WaitTime 1.5;
SetDO Stavbar_Gripper_open, 0;
SetDO Stavbar_Gripper_close, 1;
WaitTime 1;
MoveL [[-63,450,138.8],[-0.174713,0.907209,0.375778,0.072368],[0,-1,-1,0],[0,9E9,9E9,9E9,9E9,9E9]],v150,z20,custom_tool1\WObj:=WObj0;
MoveJ [[25,450,138.8],[-0.174713,0.907209,0.375778,0.072368],[0,-1,-1,0],[0,9E9,9E9,9E9,9E9,9E9]],v150,z20,custom_tool1\WObj:=WObj0;
MoveJ [[424.57,176.97,302.86],[0.320717,-0.233457,0.914293,-0.081892],[0,-1,-1,0],[0,9E9,9E9,9E9,9E9,9E9]],v150,z20,custom_tool1\WObj:=WObj0;
MoveJ [[424.57,176.97,302.86],[0.320717,-0.233457,0.914293,-0.081892],[0,-1,-1,0],[0,9E9,9E9,9E9,9E9,9E9]],v150,z20,custom_tool1\WObj:=WObj0;
MoveJ [[394.06,-199.99,112.5],[0,0.958925,0.283659,0],[0,-1,-1,0],[0,9E9,9E9,9E9,9E9,9E9]],v150,z20,custom_tool1\WObj:=WObj0;
MoveL [[394.06,-199.99,12.5],[0,0.958925,0.283659,0],[0,-1,-1,0],[0,9E9,9E9,9E9,9E9,9E9]],v150,z20,custom_tool1\WObj:=WObj0;
WaitTime 1.5;
SetDO Stavbar_Gripper_close, 0;
SetDO Stavbar_Gripper_open, 1;
WaitTime 1;
SetDO Stavbar_Gripper_open, 0;
MoveL [[394.06,-199.99,112.5],[0,0.958925,0.283659,0],[0,-1,-1,0],[0,9E9,9E9,9E9,9E9,9E9]],v150,z20,custom_tool1\WObj:=WObj0;
MoveJ [[424.57,176.97,302.86],[0.320717,-0.233457,0.914293,-0.081892],[0,-1,-1,0],[0,9E9,9E9,9E9,9E9,9E9]],v150,z20,custom_tool1\WObj:=WObj0;
MoveJ [[424.57,176.97,302.86],[0.320717,-0.233457,0.914293,-0.081892],[0,-1,-1,0],[0,9E9,9E9,9E9,9E9,9E9]],v150,z20,custom_tool1\WObj:=WObj0;
MoveJ [[25,450,138.8],[-0.174713,0.907209,0.375778,0.072368],[0,-1,-1,0],[0,9E9,9E9,9E9,9E9,9E9]],v150,z20,custom_tool1\WObj:=WObj0;
MoveJ [[-63,450,138.8],[-0.174713,0.907209,0.375778,0.072368],[0,-1,-1,0],[0,9E9,9E9,9E9,9E9,9E9]],v150,z20,custom_tool1\WObj:=WObj0;
MoveL [[-63,550,38.8],[-0.174713,0.907209,0.375778,0.072368],[0,-1,-1,0],[0,9E9,9E9,9E9,9E9,9E9]],v150,z20,custom_tool1\WObj:=WObj0;
IF TestDI(Stavbar_opt) THEN
WaitDI Stavbar_opt, 0;
ENDIF
WaitTime 1.5;
SetDO Stavbar_Gripper_open, 0;
SetDO Stavbar_Gripper_close, 1;
WaitTime 1;
MoveL [[-63,450,138.8],[-0.174713,0.907209,0.375778,0.072368],[0,-1,-1,0],[0,9E9,9E9,9E9,9E9,9E9]],v150,z20,custom_tool1\WObj:=WObj0;
MoveJ [[25,450,138.8],[-0.174713,0.907209,0.375778,0.072368],[0,-1,-1,0],[0,9E9,9E9,9E9,9E9,9E9]],v150,z20,custom_tool1\WObj:=WObj0;
MoveJ [[424.57,176.97,302.86],[0.320717,-0.233457,0.914293,-0.081892],[0,-1,-1,0],[0,9E9,9E9,9E9,9E9,9E9]],v150,z20,custom_tool1\WObj:=WObj0;
MoveJ [[233.28,431.63,135.5],[0,0.69938,0.71475,0],[0,-1,-1,0],[0,9E9,9E9,9E9,9E9,9E9]],v150,z20,custom_tool1\WObj:=WObj0;
MoveL [[233.28,431.63,35.5],[0,0.69938,0.71475,0],[0,-1,-1,0],[0,9E9,9E9,9E9,9E9,9E9]],v150,z20,custom_tool1\WObj:=WObj0;
WaitTime 1.5;
SetDO Stavbar_Gripper_close, 0;
SetDO Stavbar_Gripper_open, 1;
WaitTime 1;
SetDO Stavbar_Gripper_open, 0;
MoveL [[233.28,431.63,135.5],[0,0.69938,0.71475,0],[0,-1,-1,0],[0,9E9,9E9,9E9,9E9,9E9]],v150,z20,custom_tool1\WObj:=WObj0;
MoveJ [[424.57,176.97,302.86],[0.320717,-0.233457,0.914293,-0.081892],[0,-1,-1,0],[0,9E9,9E9,9E9,9E9,9E9]],v150,z20,custom_tool1\WObj:=WObj0;
MoveJ [[25,450,138.8],[-0.174713,0.907209,0.375778,0.072368],[0,-1,-1,0],[0,9E9,9E9,9E9,9E9,9E9]],v150,z20,custom_tool1\WObj:=WObj0;
MoveL [[25,550,38.8],[-0.174713,0.907209,0.375778,0.072368],[0,-1,-1,0],[0,9E9,9E9,9E9,9E9,9E9]],v150,z20,custom_tool1\WObj:=WObj0;
IF TestDI(Stavbar_opt) THEN
WaitDI Stavbar_opt, 0;
ENDIF
WaitTime 1.5;
SetDO Stavbar_Gripper_open, 0;
SetDO Stavbar_Gripper_close, 1;
WaitTime 1;
MoveL [[25,450,138.8],[-0.174713,0.907209,0.375778,0.072368],[0,-1,-1,0],[0,9E9,9E9,9E9,9E9,9E9]],v150,z20,custom_tool1\WObj:=WObj0;
MoveJ [[424.57,176.97,302.86],[0.320717,-0.233457,0.914293,-0.081892],[0,-1,-1,0],[0,9E9,9E9,9E9,9E9,9E9]],v150,z20,custom_tool1\WObj:=WObj0;
MoveJ [[280.16,384.41,135.5],[0,0.723508,0.690316,0],[0,-1,-1,0],[0,9E9,9E9,9E9,9E9,9E9]],v150,z20,custom_tool1\WObj:=WObj0;
MoveL [[280.16,384.41,35.5],[0,0.723508,0.690316,0],[0,-1,-1,0],[0,9E9,9E9,9E9,9E9,9E9]],v150,z20,custom_tool1\WObj:=WObj0;
WaitTime 1.5;
SetDO Stavbar_Gripper_close, 0;
SetDO Stavbar_Gripper_open, 1;
WaitTime 1;
SetDO Stavbar_Gripper_open, 0;
MoveL [[280.16,384.41,135.5],[0,0.723508,0.690316,0],[0,-1,-1,0],[0,9E9,9E9,9E9,9E9,9E9]],v150,z20,custom_tool1\WObj:=WObj0;
MoveJ [[424.57,176.97,302.86],[0.320717,-0.233457,0.914293,-0.081892],[0,-1,-1,0],[0,9E9,9E9,9E9,9E9,9E9]],v150,z20,custom_tool1\WObj:=WObj0;
MoveJ [[25,450,138.8],[-0.174713,0.907209,0.375778,0.072368],[0,-1,-1,0],[0,9E9,9E9,9E9,9E9,9E9]],v150,z20,custom_tool1\WObj:=WObj0;
MoveL [[25,550,38.8],[-0.174713,0.907209,0.375778,0.072368],[0,-1,-1,0],[0,9E9,9E9,9E9,9E9,9E9]],v150,z20,custom_tool1\WObj:=WObj0;
IF TestDI(Stavbar_opt) THEN
WaitDI Stavbar_opt, 0;
ENDIF
WaitTime 1.5;
SetDO Stavbar_Gripper_open, 0;
SetDO Stavbar_Gripper_close, 1;
WaitTime 1;
MoveL [[25,450,138.8],[-0.174713,0.907209,0.375778,0.072368],[0,-1,-1,0],[0,9E9,9E9,9E9,9E9,9E9]],v150,z20,custom_tool1\WObj:=WObj0;
MoveJ [[424.57,176.97,302.86],[0.320717,-0.233457,0.914293,-0.081892],[0,-1,-1,0],[0,9E9,9E9,9E9,9E9,9E9]],v150,z20,custom_tool1\WObj:=WObj0;
MoveJ [[341.81,304.42,135.5],[0,0.779733,0.626112,0],[0,-1,-1,0],[0,9E9,9E9,9E9,9E9,9E9]],v150,z20,custom_tool1\WObj:=WObj0;
MoveL [[341.81,304.42,35.5],[0,0.779733,0.626112,0],[0,-1,-1,0],[0,9E9,9E9,9E9,9E9,9E9]],v150,z20,custom_tool1\WObj:=WObj0;
WaitTime 1.5;
SetDO Stavbar_Gripper_close, 0;
SetDO Stavbar_Gripper_open, 1;
WaitTime 1;
SetDO Stavbar_Gripper_open, 0;
MoveL [[341.81,304.42,135.5],[0,0.779733,0.626112,0],[0,-1,-1,0],[0,9E9,9E9,9E9,9E9,9E9]],v150,z20,custom_tool1\WObj:=WObj0;
MoveJ [[424.57,176.97,302.86],[0.320717,-0.233457,0.914293,-0.081892],[0,-1,-1,0],[0,9E9,9E9,9E9,9E9,9E9]],v150,z20,custom_tool1\WObj:=WObj0;
MoveJ [[25,450,138.8],[-0.174713,0.907209,0.375778,0.072368],[0,-1,-1,0],[0,9E9,9E9,9E9,9E9,9E9]],v150,z20,custom_tool1\WObj:=WObj0;
MoveL [[25,550,38.8],[-0.174713,0.907209,0.375778,0.072368],[0,-1,-1,0],[0,9E9,9E9,9E9,9E9,9E9]],v150,z20,custom_tool1\WObj:=WObj0;
IF TestDI(Stavbar_opt) THEN
WaitDI Stavbar_opt, 0;
ENDIF
WaitTime 1.5;
SetDO Stavbar_Gripper_open, 0;
SetDO Stavbar_Gripper_close, 1;
WaitTime 1;
MoveL [[25,450,138.8],[-0.174713,0.907209,0.375778,0.072368],[0,-1,-1,0],[0,9E9,9E9,9E9,9E9,9E9]],v150,z20,custom_tool1\WObj:=WObj0;
MoveJ [[424.57,176.97,302.86],[0.320717,-0.233457,0.914293,-0.081892],[0,-1,-1,0],[0,9E9,9E9,9E9,9E9,9E9]],v150,z20,custom_tool1\WObj:=WObj0;
MoveJ [[387.3,214.32,135.5],[0,0.839309,0.543655,0],[0,-1,-1,0],[0,9E9,9E9,9E9,9E9,9E9]],v150,z20,custom_tool1\WObj:=WObj0;
MoveL [[387.3,214.32,35.5],[0,0.839309,0.543655,0],[0,-1,-1,0],[0,9E9,9E9,9E9,9E9,9E9]],v150,z20,custom_tool1\WObj:=WObj0;
WaitTime 1.5;
SetDO Stavbar_Gripper_close, 0;
SetDO Stavbar_Gripper_open, 1;
WaitTime 1;
SetDO Stavbar_Gripper_open, 0;
MoveL [[387.3,214.32,135.5],[0,0.839309,0.543655,0],[0,-1,-1,0],[0,9E9,9E9,9E9,9E9,9E9]],v150,z20,custom_tool1\WObj:=WObj0;
MoveJ [[424.57,176.97,302.86],[0.320717,-0.233457,0.914293,-0.081892],[0,-1,-1,0],[0,9E9,9E9,9E9,9E9,9E9]],v150,z20,custom_tool1\WObj:=WObj0;
MoveJ [[25,450,138.8],[-0.174713,0.907209,0.375778,0.072368],[0,-1,-1,0],[0,9E9,9E9,9E9,9E9,9E9]],v150,z20,custom_tool1\WObj:=WObj0;
MoveL [[25,550,38.8],[-0.174713,0.907209,0.375778,0.072368],[0,-1,-1,0],[0,9E9,9E9,9E9,9E9,9E9]],v150,z20,custom_tool1\WObj:=WObj0;
IF TestDI(Stavbar_opt) THEN
WaitDI Stavbar_opt, 0;
ENDIF
WaitTime 1.5;
SetDO Stavbar_Gripper_open, 0;
SetDO Stavbar_Gripper_close, 1;
WaitTime 1;
MoveL [[25,450,138.8],[-0.174713,0.907209,0.375778,0.072368],[0,-1,-1,0],[0,9E9,9E9,9E9,9E9,9E9]],v150,z20,custom_tool1\WObj:=WObj0;
MoveJ [[424.57,176.97,302.86],[0.320717,-0.233457,0.914293,-0.081892],[0,-1,-1,0],[0,9E9,9E9,9E9,9E9,9E9]],v150,z20,custom_tool1\WObj:=WObj0;
MoveJ [[413.42,116.81,135.5],[0,0.889617,0.456708,0],[0,-1,-1,0],[0,9E9,9E9,9E9,9E9,9E9]],v150,z20,custom_tool1\WObj:=WObj0;
MoveL [[413.42,116.81,35.5],[0,0.889617,0.456708,0],[0,-1,-1,0],[0,9E9,9E9,9E9,9E9,9E9]],v150,z20,custom_tool1\WObj:=WObj0;
WaitTime 1.5;
SetDO Stavbar_Gripper_close, 0;
SetDO Stavbar_Gripper_open, 1;
WaitTime 1;
SetDO Stavbar_Gripper_open, 0;
MoveL [[413.42,116.81,135.5],[0,0.889617,0.456708,0],[0,-1,-1,0],[0,9E9,9E9,9E9,9E9,9E9]],v150,z20,custom_tool1\WObj:=WObj0;
MoveJ [[424.57,176.97,302.86],[0.320717,-0.233457,0.914293,-0.081892],[0,-1,-1,0],[0,9E9,9E9,9E9,9E9,9E9]],v150,z20,custom_tool1\WObj:=WObj0;
MoveJ [[25,450,138.8],[-0.174713,0.907209,0.375778,0.072368],[0,-1,-1,0],[0,9E9,9E9,9E9,9E9,9E9]],v150,z20,custom_tool1\WObj:=WObj0;
MoveL [[25,550,38.8],[-0.174713,0.907209,0.375778,0.072368],[0,-1,-1,0],[0,9E9,9E9,9E9,9E9,9E9]],v150,z20,custom_tool1\WObj:=WObj0;
IF TestDI(Stavbar_opt) THEN
WaitDI Stavbar_opt, 0;
ENDIF
WaitTime 1.5;
SetDO Stavbar_Gripper_open, 0;
SetDO Stavbar_Gripper_close, 1;
WaitTime 1;
MoveL [[25,450,138.8],[-0.174713,0.907209,0.375778,0.072368],[0,-1,-1,0],[0,9E9,9E9,9E9,9E9,9E9]],v150,z20,custom_tool1\WObj:=WObj0;
MoveJ [[424.57,176.97,302.86],[0.320717,-0.233457,0.914293,-0.081892],[0,-1,-1,0],[0,9E9,9E9,9E9,9E9,9E9]],v150,z20,custom_tool1\WObj:=WObj0;
MoveJ [[421.17,16.11,135.5],[0,0.924296,0.381676,0],[0,-1,-1,0],[0,9E9,9E9,9E9,9E9,9E9]],v150,z20,custom_tool1\WObj:=WObj0;
MoveL [[421.17,16.11,35.5],[0,0.924296,0.381676,0],[0,-1,-1,0],[0,9E9,9E9,9E9,9E9,9E9]],v150,z20,custom_tool1\WObj:=WObj0;
WaitTime 1.5;
SetDO Stavbar_Gripper_close, 0;
SetDO Stavbar_Gripper_open, 1;
WaitTime 1;
SetDO Stavbar_Gripper_open, 0;
MoveL [[421.17,16.11,135.5],[0,0.924296,0.381676,0],[0,-1,-1,0],[0,9E9,9E9,9E9,9E9,9E9]],v150,z20,custom_tool1\WObj:=WObj0;
MoveJ [[424.57,176.97,302.86],[0.320717,-0.233457,0.914293,-0.081892],[0,-1,-1,0],[0,9E9,9E9,9E9,9E9,9E9]],v150,z20,custom_tool1\WObj:=WObj0;
MoveJ [[25,450,138.8],[-0.174713,0.907209,0.375778,0.072368],[0,-1,-1,0],[0,9E9,9E9,9E9,9E9,9E9]],v150,z20,custom_tool1\WObj:=WObj0;
MoveL [[25,550,38.8],[-0.174713,0.907209,0.375778,0.072368],[0,-1,-1,0],[0,9E9,9E9,9E9,9E9,9E9]],v150,z20,custom_tool1\WObj:=WObj0;
IF TestDI(Stavbar_opt) THEN
WaitDI Stavbar_opt, 0;
ENDIF
WaitTime 1.5;
SetDO Stavbar_Gripper_open, 0;
SetDO Stavbar_Gripper_close, 1;
WaitTime 1;
MoveL [[25,450,138.8],[-0.174713,0.907209,0.375778,0.072368],[0,-1,-1,0],[0,9E9,9E9,9E9,9E9,9E9]],v150,z20,custom_tool1\WObj:=WObj0;
MoveJ [[424.57,176.97,302.86],[0.320717,-0.233457,0.914293,-0.081892],[0,-1,-1,0],[0,9E9,9E9,9E9,9E9,9E9]],v150,z20,custom_tool1\WObj:=WObj0;
MoveJ [[424.57,176.97,302.86],[0.320717,-0.233457,0.914293,-0.081892],[0,-1,-1,0],[0,9E9,9E9,9E9,9E9,9E9]],v150,z20,custom_tool1\WObj:=WObj0;
MoveJ [[414.46,-84.71,135.5],[0,0.945814,0.324708,0],[0,-1,-1,0],[0,9E9,9E9,9E9,9E9,9E9]],v150,z20,custom_tool1\WObj:=WObj0;
MoveL [[414.46,-84.71,35.5],[0,0.945814,0.324708,0],[0,-1,-1,0],[0,9E9,9E9,9E9,9E9,9E9]],v150,z20,custom_tool1\WObj:=WObj0;
WaitTime 1.5;
SetDO Stavbar_Gripper_close, 0;
SetDO Stavbar_Gripper_open, 1;
WaitTime 1;
SetDO Stavbar_Gripper_open, 0;
MoveL [[414.46,-84.71,135.5],[0,0.945814,0.324708,0],[0,-1,-1,0],[0,9E9,9E9,9E9,9E9,9E9]],v150,z20,custom_tool1\WObj:=WObj0;
MoveJ [[424.57,176.97,302.86],[0.320717,-0.233457,0.914293,-0.081892],[0,-1,-1,0],[0,9E9,9E9,9E9,9E9,9E9]],v150,z20,custom_tool1\WObj:=WObj0;
MoveJ [[424.57,176.97,302.86],[0.320717,-0.233457,0.914293,-0.081892],[0,-1,-1,0],[0,9E9,9E9,9E9,9E9,9E9]],v150,z20,custom_tool1\WObj:=WObj0;
MoveJ [[25,450,138.8],[-0.174713,0.907209,0.375778,0.072368],[0,-1,-1,0],[0,9E9,9E9,9E9,9E9,9E9]],v150,z20,custom_tool1\WObj:=WObj0;
MoveL [[25,550,38.8],[-0.174713,0.907209,0.375778,0.072368],[0,-1,-1,0],[0,9E9,9E9,9E9,9E9,9E9]],v150,z20,custom_tool1\WObj:=WObj0;
IF TestDI(Stavbar_opt) THEN
WaitDI Stavbar_opt, 0;
ENDIF
WaitTime 1.5;
SetDO Stavbar_Gripper_open, 0;
SetDO Stavbar_Gripper_close, 1;
WaitTime 1;
MoveL [[25,450,138.8],[-0.174713,0.907209,0.375778,0.072368],[0,-1,-1,0],[0,9E9,9E9,9E9,9E9,9E9]],v150,z20,custom_tool1\WObj:=WObj0;
MoveJ [[424.57,176.97,302.86],[0.320717,-0.233457,0.914293,-0.081892],[0,-1,-1,0],[0,9E9,9E9,9E9,9E9,9E9]],v150,z20,custom_tool1\WObj:=WObj0;
MoveJ [[424.57,176.97,302.86],[0.320717,-0.233457,0.914293,-0.081892],[0,-1,-1,0],[0,9E9,9E9,9E9,9E9,9E9]],v150,z20,custom_tool1\WObj:=WObj0;
MoveJ [[397.4,-184.34,135.5],[0,0.958925,0.283659,0],[0,-1,-1,0],[0,9E9,9E9,9E9,9E9,9E9]],v150,z20,custom_tool1\WObj:=WObj0;
MoveL [[397.4,-184.34,35.5],[0,0.958925,0.283659,0],[0,-1,-1,0],[0,9E9,9E9,9E9,9E9,9E9]],v150,z20,custom_tool1\WObj:=WObj0;
WaitTime 1.5;
SetDO Stavbar_Gripper_close, 0;
SetDO Stavbar_Gripper_open, 1;
WaitTime 1;
SetDO Stavbar_Gripper_open, 0;
MoveL [[397.4,-184.34,135.5],[0,0.958925,0.283659,0],[0,-1,-1,0],[0,9E9,9E9,9E9,9E9,9E9]],v150,z20,custom_tool1\WObj:=WObj0;
MoveJ [[424.57,176.97,302.86],[0.320717,-0.233457,0.914293,-0.081892],[0,-1,-1,0],[0,9E9,9E9,9E9,9E9,9E9]],v150,z20,custom_tool1\WObj:=WObj0;
MoveJ [[424.57,176.97,302.86],[0.320717,-0.233457,0.914293,-0.081892],[0,-1,-1,0],[0,9E9,9E9,9E9,9E9,9E9]],v150,z20,custom_tool1\WObj:=WObj0;
MoveJ [[25,450,138.8],[-0.174713,0.907209,0.375778,0.072368],[0,-1,-1,0],[0,9E9,9E9,9E9,9E9,9E9]],v150,z20,custom_tool1\WObj:=WObj0;
MoveL [[25,550,38.8],[-0.174713,0.907209,0.375778,0.072368],[0,-1,-1,0],[0,9E9,9E9,9E9,9E9,9E9]],v150,z20,custom_tool1\WObj:=WObj0;
IF TestDI(Stavbar_opt) THEN
WaitDI Stavbar_opt, 0;
ENDIF
WaitTime 1.5;
SetDO Stavbar_Gripper_open, 0;
SetDO Stavbar_Gripper_close, 1;
WaitTime 1;
MoveL [[25,450,138.8],[-0.174713,0.907209,0.375778,0.072368],[0,-1,-1,0],[0,9E9,9E9,9E9,9E9,9E9]],v150,z20,custom_tool1\WObj:=WObj0;
MoveJ [[424.57,176.97,302.86],[0.320717,-0.233457,0.914293,-0.081892],[0,-1,-1,0],[0,9E9,9E9,9E9,9E9,9E9]],v150,z20,custom_tool1\WObj:=WObj0;
MoveJ [[244.84,420.56,158.5],[0,0.69938,0.71475,0],[0,-1,-1,0],[0,9E9,9E9,9E9,9E9,9E9]],v150,z20,custom_tool1\WObj:=WObj0;
MoveL [[244.84,420.56,58.5],[0,0.69938,0.71475,0],[0,-1,-1,0],[0,9E9,9E9,9E9,9E9,9E9]],v150,z20,custom_tool1\WObj:=WObj0;
WaitTime 1.5;
SetDO Stavbar_Gripper_close, 0;
SetDO Stavbar_Gripper_open, 1;
WaitTime 1;
SetDO Stavbar_Gripper_open, 0;
MoveL [[244.84,420.56,158.5],[0,0.69938,0.71475,0],[0,-1,-1,0],[0,9E9,9E9,9E9,9E9,9E9]],v150,z20,custom_tool1\WObj:=WObj0;
MoveJ [[424.57,176.97,302.86],[0.320717,-0.233457,0.914293,-0.081892],[0,-1,-1,0],[0,9E9,9E9,9E9,9E9,9E9]],v150,z20,custom_tool1\WObj:=WObj0;
MoveJ [[25,450,138.8],[-0.174713,0.907209,0.375778,0.072368],[0,-1,-1,0],[0,9E9,9E9,9E9,9E9,9E9]],v150,z20,custom_tool1\WObj:=WObj0;
MoveL [[25,550,38.8],[-0.174713,0.907209,0.375778,0.072368],[0,-1,-1,0],[0,9E9,9E9,9E9,9E9,9E9]],v150,z20,custom_tool1\WObj:=WObj0;
IF TestDI(Stavbar_opt) THEN
WaitDI Stavbar_opt, 0;
ENDIF
WaitTime 1.5;
SetDO Stavbar_Gripper_open, 0;
SetDO Stavbar_Gripper_close, 1;
WaitTime 1;
MoveL [[25,450,138.8],[-0.174713,0.907209,0.375778,0.072368],[0,-1,-1,0],[0,9E9,9E9,9E9,9E9,9E9]],v150,z20,custom_tool1\WObj:=WObj0;
MoveJ [[424.57,176.97,302.86],[0.320717,-0.233457,0.914293,-0.081892],[0,-1,-1,0],[0,9E9,9E9,9E9,9E9,9E9]],v150,z20,custom_tool1\WObj:=WObj0;
MoveJ [[312.7,345.73,158.5],[0,0.750517,0.660852,0],[0,-1,-1,0],[0,9E9,9E9,9E9,9E9,9E9]],v150,z20,custom_tool1\WObj:=WObj0;
MoveL [[312.7,345.73,58.5],[0,0.750517,0.660852,0],[0,-1,-1,0],[0,9E9,9E9,9E9,9E9,9E9]],v150,z20,custom_tool1\WObj:=WObj0;
WaitTime 1.5;
SetDO Stavbar_Gripper_close, 0;
SetDO Stavbar_Gripper_open, 1;
WaitTime 1;
SetDO Stavbar_Gripper_open, 0;
MoveL [[312.7,345.73,158.5],[0,0.750517,0.660852,0],[0,-1,-1,0],[0,9E9,9E9,9E9,9E9,9E9]],v150,z20,custom_tool1\WObj:=WObj0;
MoveJ [[424.57,176.97,302.86],[0.320717,-0.233457,0.914293,-0.081892],[0,-1,-1,0],[0,9E9,9E9,9E9,9E9,9E9]],v150,z20,custom_tool1\WObj:=WObj0;
MoveJ [[25,450,138.8],[-0.174713,0.907209,0.375778,0.072368],[0,-1,-1,0],[0,9E9,9E9,9E9,9E9,9E9]],v150,z20,custom_tool1\WObj:=WObj0;
MoveL [[25,550,38.8],[-0.174713,0.907209,0.375778,0.072368],[0,-1,-1,0],[0,9E9,9E9,9E9,9E9,9E9]],v150,z20,custom_tool1\WObj:=WObj0;
IF TestDI(Stavbar_opt) THEN
WaitDI Stavbar_opt, 0;
ENDIF
WaitTime 1.5;
SetDO Stavbar_Gripper_open, 0;
SetDO Stavbar_Gripper_close, 1;
WaitTime 1;
MoveL [[25,450,138.8],[-0.174713,0.907209,0.375778,0.072368],[0,-1,-1,0],[0,9E9,9E9,9E9,9E9,9E9]],v150,z20,custom_tool1\WObj:=WObj0;
MoveJ [[424.57,176.97,302.86],[0.320717,-0.233457,0.914293,-0.081892],[0,-1,-1,0],[0,9E9,9E9,9E9,9E9,9E9]],v150,z20,custom_tool1\WObj:=WObj0;
MoveJ [[366.86,260.53,158.5],[0,0.809896,0.586574,0],[0,-1,-1,0],[0,9E9,9E9,9E9,9E9,9E9]],v150,z20,custom_tool1\WObj:=WObj0;
MoveL [[366.86,260.53,58.5],[0,0.809896,0.586574,0],[0,-1,-1,0],[0,9E9,9E9,9E9,9E9,9E9]],v150,z20,custom_tool1\WObj:=WObj0;
WaitTime 1.5;
SetDO Stavbar_Gripper_close, 0;
SetDO Stavbar_Gripper_open, 1;
WaitTime 1;
SetDO Stavbar_Gripper_open, 0;
MoveL [[366.86,260.53,158.5],[0,0.809896,0.586574,0],[0,-1,-1,0],[0,9E9,9E9,9E9,9E9,9E9]],v150,z20,custom_tool1\WObj:=WObj0;
MoveJ [[424.57,176.97,302.86],[0.320717,-0.233457,0.914293,-0.081892],[0,-1,-1,0],[0,9E9,9E9,9E9,9E9,9E9]],v150,z20,custom_tool1\WObj:=WObj0;
MoveJ [[25,450,138.8],[-0.174713,0.907209,0.375778,0.072368],[0,-1,-1,0],[0,9E9,9E9,9E9,9E9,9E9]],v150,z20,custom_tool1\WObj:=WObj0;
MoveL [[25,550,38.8],[-0.174713,0.907209,0.375778,0.072368],[0,-1,-1,0],[0,9E9,9E9,9E9,9E9,9E9]],v150,z20,custom_tool1\WObj:=WObj0;
IF TestDI(Stavbar_opt) THEN
WaitDI Stavbar_opt, 0;
ENDIF
WaitTime 1.5;
SetDO Stavbar_Gripper_open, 0;
SetDO Stavbar_Gripper_close, 1;
WaitTime 1;
MoveL [[25,450,138.8],[-0.174713,0.907209,0.375778,0.072368],[0,-1,-1,0],[0,9E9,9E9,9E9,9E9,9E9]],v150,z20,custom_tool1\WObj:=WObj0;
MoveJ [[424.57,176.97,302.86],[0.320717,-0.233457,0.914293,-0.081892],[0,-1,-1,0],[0,9E9,9E9,9E9,9E9,9E9]],v150,z20,custom_tool1\WObj:=WObj0;
MoveJ [[402.82,166.23,158.5],[0,0.866278,0.499562,0],[0,-1,-1,0],[0,9E9,9E9,9E9,9E9,9E9]],v150,z20,custom_tool1\WObj:=WObj0;
MoveL [[402.82,166.23,58.5],[0,0.866278,0.499562,0],[0,-1,-1,0],[0,9E9,9E9,9E9,9E9,9E9]],v150,z20,custom_tool1\WObj:=WObj0;
WaitTime 1.5;
SetDO Stavbar_Gripper_close, 0;
SetDO Stavbar_Gripper_open, 1;
WaitTime 1;
SetDO Stavbar_Gripper_open, 0;
MoveL [[402.82,166.23,158.5],[0,0.866278,0.499562,0],[0,-1,-1,0],[0,9E9,9E9,9E9,9E9,9E9]],v150,z20,custom_tool1\WObj:=WObj0;
MoveJ [[424.57,176.97,302.86],[0.320717,-0.233457,0.914293,-0.081892],[0,-1,-1,0],[0,9E9,9E9,9E9,9E9,9E9]],v150,z20,custom_tool1\WObj:=WObj0;
MoveJ [[25,450,138.8],[-0.174713,0.907209,0.375778,0.072368],[0,-1,-1,0],[0,9E9,9E9,9E9,9E9,9E9]],v150,z20,custom_tool1\WObj:=WObj0;
MoveL [[25,550,38.8],[-0.174713,0.907209,0.375778,0.072368],[0,-1,-1,0],[0,9E9,9E9,9E9,9E9,9E9]],v150,z20,custom_tool1\WObj:=WObj0;
IF TestDI(Stavbar_opt) THEN
WaitDI Stavbar_opt, 0;
ENDIF
WaitTime 1.5;
SetDO Stavbar_Gripper_open, 0;
SetDO Stavbar_Gripper_close, 1;
WaitTime 1;
MoveL [[25,450,138.8],[-0.174713,0.907209,0.375778,0.072368],[0,-1,-1,0],[0,9E9,9E9,9E9,9E9,9E9]],v150,z20,custom_tool1\WObj:=WObj0;
MoveJ [[424.57,176.97,302.86],[0.320717,-0.233457,0.914293,-0.081892],[0,-1,-1,0],[0,9E9,9E9,9E9,9E9,9E9]],v150,z20,custom_tool1\WObj:=WObj0;
MoveJ [[419.38,66.63,158.5],[0,0.908889,0.417039,0],[0,-1,-1,0],[0,9E9,9E9,9E9,9E9,9E9]],v150,z20,custom_tool1\WObj:=WObj0;
MoveL [[419.38,66.63,58.5],[0,0.908889,0.417039,0],[0,-1,-1,0],[0,9E9,9E9,9E9,9E9,9E9]],v150,z20,custom_tool1\WObj:=WObj0;
WaitTime 1.5;
SetDO Stavbar_Gripper_close, 0;
SetDO Stavbar_Gripper_open, 1;
WaitTime 1;
SetDO Stavbar_Gripper_open, 0;
MoveL [[419.38,66.63,158.5],[0,0.908889,0.417039,0],[0,-1,-1,0],[0,9E9,9E9,9E9,9E9,9E9]],v150,z20,custom_tool1\WObj:=WObj0;
MoveJ [[424.57,176.97,302.86],[0.320717,-0.233457,0.914293,-0.081892],[0,-1,-1,0],[0,9E9,9E9,9E9,9E9,9E9]],v150,z20,custom_tool1\WObj:=WObj0;
MoveJ [[25,450,138.8],[-0.174713,0.907209,0.375778,0.072368],[0,-1,-1,0],[0,9E9,9E9,9E9,9E9,9E9]],v150,z20,custom_tool1\WObj:=WObj0;
MoveL [[25,550,38.8],[-0.174713,0.907209,0.375778,0.072368],[0,-1,-1,0],[0,9E9,9E9,9E9,9E9,9E9]],v150,z20,custom_tool1\WObj:=WObj0;
IF TestDI(Stavbar_opt) THEN
WaitDI Stavbar_opt, 0;
ENDIF
WaitTime 1.5;
SetDO Stavbar_Gripper_open, 0;
SetDO Stavbar_Gripper_close, 1;
WaitTime 1;
MoveL [[25,450,138.8],[-0.174713,0.907209,0.375778,0.072368],[0,-1,-1,0],[0,9E9,9E9,9E9,9E9,9E9]],v150,z20,custom_tool1\WObj:=WObj0;
MoveJ [[424.57,176.97,302.86],[0.320717,-0.233457,0.914293,-0.081892],[0,-1,-1,0],[0,9E9,9E9,9E9,9E9,9E9]],v150,z20,custom_tool1\WObj:=WObj0;
MoveJ [[424.57,176.97,302.86],[0.320717,-0.233457,0.914293,-0.081892],[0,-1,-1,0],[0,9E9,9E9,9E9,9E9,9E9]],v150,z20,custom_tool1\WObj:=WObj0;
MoveJ [[419.35,-34.4,158.5],[0,0.93639,0.350962,0],[0,-1,-1,0],[0,9E9,9E9,9E9,9E9,9E9]],v150,z20,custom_tool1\WObj:=WObj0;
MoveL [[419.35,-34.4,58.5],[0,0.93639,0.350962,0],[0,-1,-1,0],[0,9E9,9E9,9E9,9E9,9E9]],v150,z20,custom_tool1\WObj:=WObj0;
WaitTime 1.5;
SetDO Stavbar_Gripper_close, 0;
SetDO Stavbar_Gripper_open, 1;
WaitTime 1;
SetDO Stavbar_Gripper_open, 0;
MoveL [[419.35,-34.4,158.5],[0,0.93639,0.350962,0],[0,-1,-1,0],[0,9E9,9E9,9E9,9E9,9E9]],v150,z20,custom_tool1\WObj:=WObj0;
MoveJ [[424.57,176.97,302.86],[0.320717,-0.233457,0.914293,-0.081892],[0,-1,-1,0],[0,9E9,9E9,9E9,9E9,9E9]],v150,z20,custom_tool1\WObj:=WObj0;
MoveJ [[424.57,176.97,302.86],[0.320717,-0.233457,0.914293,-0.081892],[0,-1,-1,0],[0,9E9,9E9,9E9,9E9,9E9]],v150,z20,custom_tool1\WObj:=WObj0;
MoveJ [[25,450,138.8],[-0.174713,0.907209,0.375778,0.072368],[0,-1,-1,0],[0,9E9,9E9,9E9,9E9,9E9]],v150,z20,custom_tool1\WObj:=WObj0;
MoveL [[25,550,38.8],[-0.174713,0.907209,0.375778,0.072368],[0,-1,-1,0],[0,9E9,9E9,9E9,9E9,9E9]],v150,z20,custom_tool1\WObj:=WObj0;
IF TestDI(Stavbar_opt) THEN
WaitDI Stavbar_opt, 0;
ENDIF
WaitTime 1.5;
SetDO Stavbar_Gripper_open, 0;
SetDO Stavbar_Gripper_close, 1;
WaitTime 1;
MoveL [[25,450,138.8],[-0.174713,0.907209,0.375778,0.072368],[0,-1,-1,0],[0,9E9,9E9,9E9,9E9,9E9]],v150,z20,custom_tool1\WObj:=WObj0;
MoveJ [[424.57,176.97,302.86],[0.320717,-0.233457,0.914293,-0.081892],[0,-1,-1,0],[0,9E9,9E9,9E9,9E9,9E9]],v150,z20,custom_tool1\WObj:=WObj0;
MoveJ [[424.57,176.97,302.86],[0.320717,-0.233457,0.914293,-0.081892],[0,-1,-1,0],[0,9E9,9E9,9E9,9E9,9E9]],v150,z20,custom_tool1\WObj:=WObj0;
MoveJ [[407,-134.71,158.5],[0,0.953164,0.302455,0],[0,-1,-1,0],[0,9E9,9E9,9E9,9E9,9E9]],v150,z20,custom_tool1\WObj:=WObj0;
MoveL [[407,-134.71,58.5],[0,0.953164,0.302455,0],[0,-1,-1,0],[0,9E9,9E9,9E9,9E9,9E9]],v150,z20,custom_tool1\WObj:=WObj0;
WaitTime 1.5;
SetDO Stavbar_Gripper_close, 0;
SetDO Stavbar_Gripper_open, 1;
WaitTime 1;
SetDO Stavbar_Gripper_open, 0;
MoveL [[407,-134.71,158.5],[0,0.953164,0.302455,0],[0,-1,-1,0],[0,9E9,9E9,9E9,9E9,9E9]],v150,z20,custom_tool1\WObj:=WObj0;
MoveJ [[424.57,176.97,302.86],[0.320717,-0.233457,0.914293,-0.081892],[0,-1,-1,0],[0,9E9,9E9,9E9,9E9,9E9]],v150,z20,custom_tool1\WObj:=WObj0;
MoveJ [[424.57,176.97,302.86],[0.320717,-0.233457,0.914293,-0.081892],[0,-1,-1,0],[0,9E9,9E9,9E9,9E9,9E9]],v150,z20,custom_tool1\WObj:=WObj0;
MoveJ [[25,450,138.8],[-0.174713,0.907209,0.375778,0.072368],[0,-1,-1,0],[0,9E9,9E9,9E9,9E9,9E9]],v150,z20,custom_tool1\WObj:=WObj0;
MoveJ [[-63,450,138.8],[-0.174713,0.907209,0.375778,0.072368],[0,-1,-1,0],[0,9E9,9E9,9E9,9E9,9E9]],v150,z20,custom_tool1\WObj:=WObj0;
MoveL [[-63,550,38.8],[-0.174713,0.907209,0.375778,0.072368],[0,-1,-1,0],[0,9E9,9E9,9E9,9E9,9E9]],v150,z20,custom_tool1\WObj:=WObj0;
IF TestDI(Stavbar_opt) THEN
WaitDI Stavbar_opt, 0;
ENDIF
WaitTime 1.5;
SetDO Stavbar_Gripper_open, 0;
SetDO Stavbar_Gripper_close, 1;
WaitTime 1;
MoveL [[-63,450,138.8],[-0.174713,0.907209,0.375778,0.072368],[0,-1,-1,0],[0,9E9,9E9,9E9,9E9,9E9]],v150,z20,custom_tool1\WObj:=WObj0;
MoveJ [[25,450,138.8],[-0.174713,0.907209,0.375778,0.072368],[0,-1,-1,0],[0,9E9,9E9,9E9,9E9,9E9]],v150,z20,custom_tool1\WObj:=WObj0;
MoveJ [[424.57,176.97,302.86],[0.320717,-0.233457,0.914293,-0.081892],[0,-1,-1,0],[0,9E9,9E9,9E9,9E9,9E9]],v150,z20,custom_tool1\WObj:=WObj0;
MoveJ [[424.57,176.97,302.86],[0.320717,-0.233457,0.914293,-0.081892],[0,-1,-1,0],[0,9E9,9E9,9E9,9E9,9E9]],v150,z20,custom_tool1\WObj:=WObj0;
MoveJ [[394.06,-199.99,158.5],[0,0.958925,0.283659,0],[0,-1,-1,0],[0,9E9,9E9,9E9,9E9,9E9]],v150,z20,custom_tool1\WObj:=WObj0;
MoveL [[394.06,-199.99,58.5],[0,0.958925,0.283659,0],[0,-1,-1,0],[0,9E9,9E9,9E9,9E9,9E9]],v150,z20,custom_tool1\WObj:=WObj0;
WaitTime 1.5;
SetDO Stavbar_Gripper_close, 0;
SetDO Stavbar_Gripper_open, 1;
WaitTime 1;
SetDO Stavbar_Gripper_open, 0;
MoveL [[394.06,-199.99,158.5],[0,0.958925,0.283659,0],[0,-1,-1,0],[0,9E9,9E9,9E9,9E9,9E9]],v150,z20,custom_tool1\WObj:=WObj0;
MoveJ [[424.57,176.97,302.86],[0.320717,-0.233457,0.914293,-0.081892],[0,-1,-1,0],[0,9E9,9E9,9E9,9E9,9E9]],v150,z20,custom_tool1\WObj:=WObj0;
MoveJ [[424.57,176.97,302.86],[0.320717,-0.233457,0.914293,-0.081892],[0,-1,-1,0],[0,9E9,9E9,9E9,9E9,9E9]],v150,z20,custom_tool1\WObj:=WObj0;
MoveJ [[25,450,138.8],[-0.174713,0.907209,0.375778,0.072368],[0,-1,-1,0],[0,9E9,9E9,9E9,9E9,9E9]],v150,z20,custom_tool1\WObj:=WObj0;
MoveJ [[-63,450,138.8],[-0.174713,0.907209,0.375778,0.072368],[0,-1,-1,0],[0,9E9,9E9,9E9,9E9,9E9]],v150,z20,custom_tool1\WObj:=WObj0;
MoveL [[-63,550,38.8],[-0.174713,0.907209,0.375778,0.072368],[0,-1,-1,0],[0,9E9,9E9,9E9,9E9,9E9]],v150,z20,custom_tool1\WObj:=WObj0;
IF TestDI(Stavbar_opt) THEN
WaitDI Stavbar_opt, 0;
ENDIF
WaitTime 1.5;
SetDO Stavbar_Gripper_open, 0;
SetDO Stavbar_Gripper_close, 1;
WaitTime 1;
MoveL [[-63,450,138.8],[-0.174713,0.907209,0.375778,0.072368],[0,-1,-1,0],[0,9E9,9E9,9E9,9E9,9E9]],v150,z20,custom_tool1\WObj:=WObj0;
MoveJ [[25,450,138.8],[-0.174713,0.907209,0.375778,0.072368],[0,-1,-1,0],[0,9E9,9E9,9E9,9E9,9E9]],v150,z20,custom_tool1\WObj:=WObj0;
MoveJ [[424.57,176.97,302.86],[0.320717,-0.233457,0.914293,-0.081892],[0,-1,-1,0],[0,9E9,9E9,9E9,9E9,9E9]],v150,z20,custom_tool1\WObj:=WObj0;
MoveJ [[233.28,431.63,181.5],[0,0.69938,0.71475,0],[0,-1,-1,0],[0,9E9,9E9,9E9,9E9,9E9]],v150,z20,custom_tool1\WObj:=WObj0;
MoveL [[233.28,431.63,81.5],[0,0.69938,0.71475,0],[0,-1,-1,0],[0,9E9,9E9,9E9,9E9,9E9]],v150,z20,custom_tool1\WObj:=WObj0;
WaitTime 1.5;
SetDO Stavbar_Gripper_close, 0;
SetDO Stavbar_Gripper_open, 1;
WaitTime 1;
SetDO Stavbar_Gripper_open, 0;
MoveL [[233.28,431.63,181.5],[0,0.69938,0.71475,0],[0,-1,-1,0],[0,9E9,9E9,9E9,9E9,9E9]],v150,z20,custom_tool1\WObj:=WObj0;
MoveJ [[424.57,176.97,302.86],[0.320717,-0.233457,0.914293,-0.081892],[0,-1,-1,0],[0,9E9,9E9,9E9,9E9,9E9]],v150,z20,custom_tool1\WObj:=WObj0;
MoveJ [[25,450,138.8],[-0.174713,0.907209,0.375778,0.072368],[0,-1,-1,0],[0,9E9,9E9,9E9,9E9,9E9]],v150,z20,custom_tool1\WObj:=WObj0;
MoveL [[25,550,38.8],[-0.174713,0.907209,0.375778,0.072368],[0,-1,-1,0],[0,9E9,9E9,9E9,9E9,9E9]],v150,z20,custom_tool1\WObj:=WObj0;
IF TestDI(Stavbar_opt) THEN
WaitDI Stavbar_opt, 0;
ENDIF
WaitTime 1.5;
SetDO Stavbar_Gripper_open, 0;
SetDO Stavbar_Gripper_close, 1;
WaitTime 1;
MoveL [[25,450,138.8],[-0.174713,0.907209,0.375778,0.072368],[0,-1,-1,0],[0,9E9,9E9,9E9,9E9,9E9]],v150,z20,custom_tool1\WObj:=WObj0;
MoveJ [[424.57,176.97,302.86],[0.320717,-0.233457,0.914293,-0.081892],[0,-1,-1,0],[0,9E9,9E9,9E9,9E9,9E9]],v150,z20,custom_tool1\WObj:=WObj0;
MoveJ [[280.16,384.41,181.5],[0,0.723508,0.690316,0],[0,-1,-1,0],[0,9E9,9E9,9E9,9E9,9E9]],v150,z20,custom_tool1\WObj:=WObj0;
MoveL [[280.16,384.41,81.5],[0,0.723508,0.690316,0],[0,-1,-1,0],[0,9E9,9E9,9E9,9E9,9E9]],v150,z20,custom_tool1\WObj:=WObj0;
WaitTime 1.5;
SetDO Stavbar_Gripper_close, 0;
SetDO Stavbar_Gripper_open, 1;
WaitTime 1;
SetDO Stavbar_Gripper_open, 0;
MoveL [[280.16,384.41,181.5],[0,0.723508,0.690316,0],[0,-1,-1,0],[0,9E9,9E9,9E9,9E9,9E9]],v150,z20,custom_tool1\WObj:=WObj0;
MoveJ [[424.57,176.97,302.86],[0.320717,-0.233457,0.914293,-0.081892],[0,-1,-1,0],[0,9E9,9E9,9E9,9E9,9E9]],v150,z20,custom_tool1\WObj:=WObj0;
MoveJ [[25,450,138.8],[-0.174713,0.907209,0.375778,0.072368],[0,-1,-1,0],[0,9E9,9E9,9E9,9E9,9E9]],v150,z20,custom_tool1\WObj:=WObj0;
MoveL [[25,550,38.8],[-0.174713,0.907209,0.375778,0.072368],[0,-1,-1,0],[0,9E9,9E9,9E9,9E9,9E9]],v150,z20,custom_tool1\WObj:=WObj0;
IF TestDI(Stavbar_opt) THEN
WaitDI Stavbar_opt, 0;
ENDIF
WaitTime 1.5;
SetDO Stavbar_Gripper_open, 0;
SetDO Stavbar_Gripper_close, 1;
WaitTime 1;
MoveL [[25,450,138.8],[-0.174713,0.907209,0.375778,0.072368],[0,-1,-1,0],[0,9E9,9E9,9E9,9E9,9E9]],v150,z20,custom_tool1\WObj:=WObj0;
MoveJ [[424.57,176.97,302.86],[0.320717,-0.233457,0.914293,-0.081892],[0,-1,-1,0],[0,9E9,9E9,9E9,9E9,9E9]],v150,z20,custom_tool1\WObj:=WObj0;
MoveJ [[341.81,304.42,181.5],[0,0.779733,0.626112,0],[0,-1,-1,0],[0,9E9,9E9,9E9,9E9,9E9]],v150,z20,custom_tool1\WObj:=WObj0;
MoveL [[341.81,304.42,81.5],[0,0.779733,0.626112,0],[0,-1,-1,0],[0,9E9,9E9,9E9,9E9,9E9]],v150,z20,custom_tool1\WObj:=WObj0;
WaitTime 1.5;
SetDO Stavbar_Gripper_close, 0;
SetDO Stavbar_Gripper_open, 1;
WaitTime 1;
SetDO Stavbar_Gripper_open, 0;
MoveL [[341.81,304.42,181.5],[0,0.779733,0.626112,0],[0,-1,-1,0],[0,9E9,9E9,9E9,9E9,9E9]],v150,z20,custom_tool1\WObj:=WObj0;
MoveJ [[424.57,176.97,302.86],[0.320717,-0.233457,0.914293,-0.081892],[0,-1,-1,0],[0,9E9,9E9,9E9,9E9,9E9]],v150,z20,custom_tool1\WObj:=WObj0;
MoveJ [[25,450,138.8],[-0.174713,0.907209,0.375778,0.072368],[0,-1,-1,0],[0,9E9,9E9,9E9,9E9,9E9]],v150,z20,custom_tool1\WObj:=WObj0;
MoveL [[25,550,38.8],[-0.174713,0.907209,0.375778,0.072368],[0,-1,-1,0],[0,9E9,9E9,9E9,9E9,9E9]],v150,z20,custom_tool1\WObj:=WObj0;
IF TestDI(Stavbar_opt) THEN
WaitDI Stavbar_opt, 0;
ENDIF
WaitTime 1.5;
SetDO Stavbar_Gripper_open, 0;
SetDO Stavbar_Gripper_close, 1;
WaitTime 1;
MoveL [[25,450,138.8],[-0.174713,0.907209,0.375778,0.072368],[0,-1,-1,0],[0,9E9,9E9,9E9,9E9,9E9]],v150,z20,custom_tool1\WObj:=WObj0;
MoveJ [[424.57,176.97,302.86],[0.320717,-0.233457,0.914293,-0.081892],[0,-1,-1,0],[0,9E9,9E9,9E9,9E9,9E9]],v150,z20,custom_tool1\WObj:=WObj0;
MoveJ [[387.3,214.32,181.5],[0,0.839309,0.543655,0],[0,-1,-1,0],[0,9E9,9E9,9E9,9E9,9E9]],v150,z20,custom_tool1\WObj:=WObj0;
MoveL [[387.3,214.32,81.5],[0,0.839309,0.543655,0],[0,-1,-1,0],[0,9E9,9E9,9E9,9E9,9E9]],v150,z20,custom_tool1\WObj:=WObj0;
WaitTime 1.5;
SetDO Stavbar_Gripper_close, 0;
SetDO Stavbar_Gripper_open, 1;
WaitTime 1;
SetDO Stavbar_Gripper_open, 0;
MoveL [[387.3,214.32,181.5],[0,0.839309,0.543655,0],[0,-1,-1,0],[0,9E9,9E9,9E9,9E9,9E9]],v150,z20,custom_tool1\WObj:=WObj0;
MoveJ [[424.57,176.97,302.86],[0.320717,-0.233457,0.914293,-0.081892],[0,-1,-1,0],[0,9E9,9E9,9E9,9E9,9E9]],v150,z20,custom_tool1\WObj:=WObj0;
MoveJ [[25,450,138.8],[-0.174713,0.907209,0.375778,0.072368],[0,-1,-1,0],[0,9E9,9E9,9E9,9E9,9E9]],v150,z20,custom_tool1\WObj:=WObj0;
MoveL [[25,550,38.8],[-0.174713,0.907209,0.375778,0.072368],[0,-1,-1,0],[0,9E9,9E9,9E9,9E9,9E9]],v150,z20,custom_tool1\WObj:=WObj0;
IF TestDI(Stavbar_opt) THEN
WaitDI Stavbar_opt, 0;
ENDIF
WaitTime 1.5;
SetDO Stavbar_Gripper_open, 0;
SetDO Stavbar_Gripper_close, 1;
WaitTime 1;
MoveL [[25,450,138.8],[-0.174713,0.907209,0.375778,0.072368],[0,-1,-1,0],[0,9E9,9E9,9E9,9E9,9E9]],v150,z20,custom_tool1\WObj:=WObj0;
MoveJ [[424.57,176.97,302.86],[0.320717,-0.233457,0.914293,-0.081892],[0,-1,-1,0],[0,9E9,9E9,9E9,9E9,9E9]],v150,z20,custom_tool1\WObj:=WObj0;
MoveJ [[413.42,116.81,181.5],[0,0.889617,0.456708,0],[0,-1,-1,0],[0,9E9,9E9,9E9,9E9,9E9]],v150,z20,custom_tool1\WObj:=WObj0;
MoveL [[413.42,116.81,81.5],[0,0.889617,0.456708,0],[0,-1,-1,0],[0,9E9,9E9,9E9,9E9,9E9]],v150,z20,custom_tool1\WObj:=WObj0;
WaitTime 1.5;
SetDO Stavbar_Gripper_close, 0;
SetDO Stavbar_Gripper_open, 1;
WaitTime 1;
SetDO Stavbar_Gripper_open, 0;
MoveL [[413.42,116.81,181.5],[0,0.889617,0.456708,0],[0,-1,-1,0],[0,9E9,9E9,9E9,9E9,9E9]],v150,z20,custom_tool1\WObj:=WObj0;
MoveJ [[424.57,176.97,302.86],[0.320717,-0.233457,0.914293,-0.081892],[0,-1,-1,0],[0,9E9,9E9,9E9,9E9,9E9]],v150,z20,custom_tool1\WObj:=WObj0;
MoveJ [[25,450,138.8],[-0.174713,0.907209,0.375778,0.072368],[0,-1,-1,0],[0,9E9,9E9,9E9,9E9,9E9]],v150,z20,custom_tool1\WObj:=WObj0;
MoveL [[25,550,38.8],[-0.174713,0.907209,0.375778,0.072368],[0,-1,-1,0],[0,9E9,9E9,9E9,9E9,9E9]],v150,z20,custom_tool1\WObj:=WObj0;
IF TestDI(Stavbar_opt) THEN
WaitDI Stavbar_opt, 0;
ENDIF
WaitTime 1.5;
SetDO Stavbar_Gripper_open, 0;
SetDO Stavbar_Gripper_close, 1;
WaitTime 1;
MoveL [[25,450,138.8],[-0.174713,0.907209,0.375778,0.072368],[0,-1,-1,0],[0,9E9,9E9,9E9,9E9,9E9]],v150,z20,custom_tool1\WObj:=WObj0;
MoveJ [[424.57,176.97,302.86],[0.320717,-0.233457,0.914293,-0.081892],[0,-1,-1,0],[0,9E9,9E9,9E9,9E9,9E9]],v150,z20,custom_tool1\WObj:=WObj0;
MoveJ [[421.17,16.11,181.5],[0,0.924296,0.381676,0],[0,-1,-1,0],[0,9E9,9E9,9E9,9E9,9E9]],v150,z20,custom_tool1\WObj:=WObj0;
MoveL [[421.17,16.11,81.5],[0,0.924296,0.381676,0],[0,-1,-1,0],[0,9E9,9E9,9E9,9E9,9E9]],v150,z20,custom_tool1\WObj:=WObj0;
WaitTime 1.5;
SetDO Stavbar_Gripper_close, 0;
SetDO Stavbar_Gripper_open, 1;
WaitTime 1;
SetDO Stavbar_Gripper_open, 0;
MoveL [[421.17,16.11,181.5],[0,0.924296,0.381676,0],[0,-1,-1,0],[0,9E9,9E9,9E9,9E9,9E9]],v150,z20,custom_tool1\WObj:=WObj0;
MoveJ [[424.57,176.97,302.86],[0.320717,-0.233457,0.914293,-0.081892],[0,-1,-1,0],[0,9E9,9E9,9E9,9E9,9E9]],v150,z20,custom_tool1\WObj:=WObj0;
MoveJ [[25,450,138.8],[-0.174713,0.907209,0.375778,0.072368],[0,-1,-1,0],[0,9E9,9E9,9E9,9E9,9E9]],v150,z20,custom_tool1\WObj:=WObj0;
MoveL [[25,550,38.8],[-0.174713,0.907209,0.375778,0.072368],[0,-1,-1,0],[0,9E9,9E9,9E9,9E9,9E9]],v150,z20,custom_tool1\WObj:=WObj0;
IF TestDI(Stavbar_opt) THEN
WaitDI Stavbar_opt, 0;
ENDIF
WaitTime 1.5;
SetDO Stavbar_Gripper_open, 0;
SetDO Stavbar_Gripper_close, 1;
WaitTime 1;
MoveL [[25,450,138.8],[-0.174713,0.907209,0.375778,0.072368],[0,-1,-1,0],[0,9E9,9E9,9E9,9E9,9E9]],v150,z20,custom_tool1\WObj:=WObj0;
MoveJ [[424.57,176.97,302.86],[0.320717,-0.233457,0.914293,-0.081892],[0,-1,-1,0],[0,9E9,9E9,9E9,9E9,9E9]],v150,z20,custom_tool1\WObj:=WObj0;
MoveJ [[424.57,176.97,302.86],[0.320717,-0.233457,0.914293,-0.081892],[0,-1,-1,0],[0,9E9,9E9,9E9,9E9,9E9]],v150,z20,custom_tool1\WObj:=WObj0;
MoveJ [[414.46,-84.71,181.5],[0,0.945814,0.324708,0],[0,-1,-1,0],[0,9E9,9E9,9E9,9E9,9E9]],v150,z20,custom_tool1\WObj:=WObj0;
MoveL [[414.46,-84.71,81.5],[0,0.945814,0.324708,0],[0,-1,-1,0],[0,9E9,9E9,9E9,9E9,9E9]],v150,z20,custom_tool1\WObj:=WObj0;
WaitTime 1.5;
SetDO Stavbar_Gripper_close, 0;
SetDO Stavbar_Gripper_open, 1;
WaitTime 1;
SetDO Stavbar_Gripper_open, 0;
MoveL [[414.46,-84.71,181.5],[0,0.945814,0.324708,0],[0,-1,-1,0],[0,9E9,9E9,9E9,9E9,9E9]],v150,z20,custom_tool1\WObj:=WObj0;
MoveJ [[424.57,176.97,302.86],[0.320717,-0.233457,0.914293,-0.081892],[0,-1,-1,0],[0,9E9,9E9,9E9,9E9,9E9]],v150,z20,custom_tool1\WObj:=WObj0;
MoveJ [[424.57,176.97,302.86],[0.320717,-0.233457,0.914293,-0.081892],[0,-1,-1,0],[0,9E9,9E9,9E9,9E9,9E9]],v150,z20,custom_tool1\WObj:=WObj0;
MoveJ [[25,450,138.8],[-0.174713,0.907209,0.375778,0.072368],[0,-1,-1,0],[0,9E9,9E9,9E9,9E9,9E9]],v150,z20,custom_tool1\WObj:=WObj0;
MoveL [[25,550,38.8],[-0.174713,0.907209,0.375778,0.072368],[0,-1,-1,0],[0,9E9,9E9,9E9,9E9,9E9]],v150,z20,custom_tool1\WObj:=WObj0;
IF TestDI(Stavbar_opt) THEN
WaitDI Stavbar_opt, 0;
ENDIF
WaitTime 1.5;
SetDO Stavbar_Gripper_open, 0;
SetDO Stavbar_Gripper_close, 1;
WaitTime 1;
MoveL [[25,450,138.8],[-0.174713,0.907209,0.375778,0.072368],[0,-1,-1,0],[0,9E9,9E9,9E9,9E9,9E9]],v150,z20,custom_tool1\WObj:=WObj0;
MoveJ [[424.57,176.97,302.86],[0.320717,-0.233457,0.914293,-0.081892],[0,-1,-1,0],[0,9E9,9E9,9E9,9E9,9E9]],v150,z20,custom_tool1\WObj:=WObj0;
MoveJ [[424.57,176.97,302.86],[0.320717,-0.233457,0.914293,-0.081892],[0,-1,-1,0],[0,9E9,9E9,9E9,9E9,9E9]],v150,z20,custom_tool1\WObj:=WObj0;
MoveJ [[397.4,-184.34,181.5],[0,0.958925,0.283659,0],[0,-1,-1,0],[0,9E9,9E9,9E9,9E9,9E9]],v150,z20,custom_tool1\WObj:=WObj0;
MoveL [[397.4,-184.34,81.5],[0,0.958925,0.283659,0],[0,-1,-1,0],[0,9E9,9E9,9E9,9E9,9E9]],v150,z20,custom_tool1\WObj:=WObj0;
WaitTime 1.5;
SetDO Stavbar_Gripper_close, 0;
SetDO Stavbar_Gripper_open, 1;
WaitTime 1;
SetDO Stavbar_Gripper_open, 0;
MoveL [[397.4,-184.34,181.5],[0,0.958925,0.283659,0],[0,-1,-1,0],[0,9E9,9E9,9E9,9E9,9E9]],v150,z20,custom_tool1\WObj:=WObj0;
MoveJ [[424.57,176.97,302.86],[0.320717,-0.233457,0.914293,-0.081892],[0,-1,-1,0],[0,9E9,9E9,9E9,9E9,9E9]],v150,z20,custom_tool1\WObj:=WObj0;
MoveJ [[424.57,176.97,302.86],[0.320717,-0.233457,0.914293,-0.081892],[0,-1,-1,0],[0,9E9,9E9,9E9,9E9,9E9]],v150,z20,custom_tool1\WObj:=WObj0;
MoveJ [[25,450,138.8],[-0.174713,0.907209,0.375778,0.072368],[0,-1,-1,0],[0,9E9,9E9,9E9,9E9,9E9]],v150,z20,custom_tool1\WObj:=WObj0;
MoveL [[25,550,38.8],[-0.174713,0.907209,0.375778,0.072368],[0,-1,-1,0],[0,9E9,9E9,9E9,9E9,9E9]],v150,z20,custom_tool1\WObj:=WObj0;
IF TestDI(Stavbar_opt) THEN
WaitDI Stavbar_opt, 0;
ENDIF
WaitTime 1.5;
SetDO Stavbar_Gripper_open, 0;
SetDO Stavbar_Gripper_close, 1;
WaitTime 1;
MoveL [[25,450,138.8],[-0.174713,0.907209,0.375778,0.072368],[0,-1,-1,0],[0,9E9,9E9,9E9,9E9,9E9]],v150,z20,custom_tool1\WObj:=WObj0;
MoveJ [[424.57,176.97,302.86],[0.320717,-0.233457,0.914293,-0.081892],[0,-1,-1,0],[0,9E9,9E9,9E9,9E9,9E9]],v150,z20,custom_tool1\WObj:=WObj0;
MoveJ [[244.84,420.56,204.5],[0,0.69938,0.71475,0],[0,-1,-1,0],[0,9E9,9E9,9E9,9E9,9E9]],v150,z20,custom_tool1\WObj:=WObj0;
MoveL [[244.84,420.56,104.5],[0,0.69938,0.71475,0],[0,-1,-1,0],[0,9E9,9E9,9E9,9E9,9E9]],v150,z20,custom_tool1\WObj:=WObj0;
WaitTime 1.5;
SetDO Stavbar_Gripper_close, 0;
SetDO Stavbar_Gripper_open, 1;
WaitTime 1;
SetDO Stavbar_Gripper_open, 0;
MoveL [[244.84,420.56,204.5],[0,0.69938,0.71475,0],[0,-1,-1,0],[0,9E9,9E9,9E9,9E9,9E9]],v150,z20,custom_tool1\WObj:=WObj0;
MoveJ [[424.57,176.97,302.86],[0.320717,-0.233457,0.914293,-0.081892],[0,-1,-1,0],[0,9E9,9E9,9E9,9E9,9E9]],v150,z20,custom_tool1\WObj:=WObj0;
MoveJ [[25,450,138.8],[-0.174713,0.907209,0.375778,0.072368],[0,-1,-1,0],[0,9E9,9E9,9E9,9E9,9E9]],v150,z20,custom_tool1\WObj:=WObj0;
MoveL [[25,550,38.8],[-0.174713,0.907209,0.375778,0.072368],[0,-1,-1,0],[0,9E9,9E9,9E9,9E9,9E9]],v150,z20,custom_tool1\WObj:=WObj0;
IF TestDI(Stavbar_opt) THEN
WaitDI Stavbar_opt, 0;
ENDIF
WaitTime 1.5;
SetDO Stavbar_Gripper_open, 0;
SetDO Stavbar_Gripper_close, 1;
WaitTime 1;
MoveL [[25,450,138.8],[-0.174713,0.907209,0.375778,0.072368],[0,-1,-1,0],[0,9E9,9E9,9E9,9E9,9E9]],v150,z20,custom_tool1\WObj:=WObj0;
MoveJ [[424.57,176.97,302.86],[0.320717,-0.233457,0.914293,-0.081892],[0,-1,-1,0],[0,9E9,9E9,9E9,9E9,9E9]],v150,z20,custom_tool1\WObj:=WObj0;
MoveJ [[312.7,345.73,204.5],[0,0.750517,0.660852,0],[0,-1,-1,0],[0,9E9,9E9,9E9,9E9,9E9]],v150,z20,custom_tool1\WObj:=WObj0;
MoveL [[312.7,345.73,104.5],[0,0.750517,0.660852,0],[0,-1,-1,0],[0,9E9,9E9,9E9,9E9,9E9]],v150,z20,custom_tool1\WObj:=WObj0;
WaitTime 1.5;
SetDO Stavbar_Gripper_close, 0;
SetDO Stavbar_Gripper_open, 1;
WaitTime 1;
SetDO Stavbar_Gripper_open, 0;
MoveL [[312.7,345.73,204.5],[0,0.750517,0.660852,0],[0,-1,-1,0],[0,9E9,9E9,9E9,9E9,9E9]],v150,z20,custom_tool1\WObj:=WObj0;
MoveJ [[424.57,176.97,302.86],[0.320717,-0.233457,0.914293,-0.081892],[0,-1,-1,0],[0,9E9,9E9,9E9,9E9,9E9]],v150,z20,custom_tool1\WObj:=WObj0;
MoveJ [[25,450,138.8],[-0.174713,0.907209,0.375778,0.072368],[0,-1,-1,0],[0,9E9,9E9,9E9,9E9,9E9]],v150,z20,custom_tool1\WObj:=WObj0;
MoveL [[25,550,38.8],[-0.174713,0.907209,0.375778,0.072368],[0,-1,-1,0],[0,9E9,9E9,9E9,9E9,9E9]],v150,z20,custom_tool1\WObj:=WObj0;
IF TestDI(Stavbar_opt) THEN
WaitDI Stavbar_opt, 0;
ENDIF
WaitTime 1.5;
SetDO Stavbar_Gripper_open, 0;
SetDO Stavbar_Gripper_close, 1;
WaitTime 1;
MoveL [[25,450,138.8],[-0.174713,0.907209,0.375778,0.072368],[0,-1,-1,0],[0,9E9,9E9,9E9,9E9,9E9]],v150,z20,custom_tool1\WObj:=WObj0;
MoveJ [[424.57,176.97,302.86],[0.320717,-0.233457,0.914293,-0.081892],[0,-1,-1,0],[0,9E9,9E9,9E9,9E9,9E9]],v150,z20,custom_tool1\WObj:=WObj0;
MoveJ [[366.86,260.53,204.5],[0,0.809896,0.586574,0],[0,-1,-1,0],[0,9E9,9E9,9E9,9E9,9E9]],v150,z20,custom_tool1\WObj:=WObj0;
MoveL [[366.86,260.53,104.5],[0,0.809896,0.586574,0],[0,-1,-1,0],[0,9E9,9E9,9E9,9E9,9E9]],v150,z20,custom_tool1\WObj:=WObj0;
WaitTime 1.5;
SetDO Stavbar_Gripper_close, 0;
SetDO Stavbar_Gripper_open, 1;
WaitTime 1;
SetDO Stavbar_Gripper_open, 0;
MoveL [[366.86,260.53,204.5],[0,0.809896,0.586574,0],[0,-1,-1,0],[0,9E9,9E9,9E9,9E9,9E9]],v150,z20,custom_tool1\WObj:=WObj0;
MoveJ [[424.57,176.97,302.86],[0.320717,-0.233457,0.914293,-0.081892],[0,-1,-1,0],[0,9E9,9E9,9E9,9E9,9E9]],v150,z20,custom_tool1\WObj:=WObj0;
MoveJ [[25,450,138.8],[-0.174713,0.907209,0.375778,0.072368],[0,-1,-1,0],[0,9E9,9E9,9E9,9E9,9E9]],v150,z20,custom_tool1\WObj:=WObj0;
MoveL [[25,550,38.8],[-0.174713,0.907209,0.375778,0.072368],[0,-1,-1,0],[0,9E9,9E9,9E9,9E9,9E9]],v150,z20,custom_tool1\WObj:=WObj0;
IF TestDI(Stavbar_opt) THEN
WaitDI Stavbar_opt, 0;
ENDIF
WaitTime 1.5;
SetDO Stavbar_Gripper_open, 0;
SetDO Stavbar_Gripper_close, 1;
WaitTime 1;
MoveL [[25,450,138.8],[-0.174713,0.907209,0.375778,0.072368],[0,-1,-1,0],[0,9E9,9E9,9E9,9E9,9E9]],v150,z20,custom_tool1\WObj:=WObj0;
MoveJ [[424.57,176.97,302.86],[0.320717,-0.233457,0.914293,-0.081892],[0,-1,-1,0],[0,9E9,9E9,9E9,9E9,9E9]],v150,z20,custom_tool1\WObj:=WObj0;
MoveJ [[402.82,166.23,204.5],[0,0.866278,0.499562,0],[0,-1,-1,0],[0,9E9,9E9,9E9,9E9,9E9]],v150,z20,custom_tool1\WObj:=WObj0;
MoveL [[402.82,166.23,104.5],[0,0.866278,0.499562,0],[0,-1,-1,0],[0,9E9,9E9,9E9,9E9,9E9]],v150,z20,custom_tool1\WObj:=WObj0;
WaitTime 1.5;
SetDO Stavbar_Gripper_close, 0;
SetDO Stavbar_Gripper_open, 1;
WaitTime 1;
SetDO Stavbar_Gripper_open, 0;
MoveL [[402.82,166.23,204.5],[0,0.866278,0.499562,0],[0,-1,-1,0],[0,9E9,9E9,9E9,9E9,9E9]],v150,z20,custom_tool1\WObj:=WObj0;
MoveJ [[424.57,176.97,302.86],[0.320717,-0.233457,0.914293,-0.081892],[0,-1,-1,0],[0,9E9,9E9,9E9,9E9,9E9]],v150,z20,custom_tool1\WObj:=WObj0;
MoveJ [[25,450,138.8],[-0.174713,0.907209,0.375778,0.072368],[0,-1,-1,0],[0,9E9,9E9,9E9,9E9,9E9]],v150,z20,custom_tool1\WObj:=WObj0;
MoveL [[25,550,38.8],[-0.174713,0.907209,0.375778,0.072368],[0,-1,-1,0],[0,9E9,9E9,9E9,9E9,9E9]],v150,z20,custom_tool1\WObj:=WObj0;
IF TestDI(Stavbar_opt) THEN
WaitDI Stavbar_opt, 0;
ENDIF
WaitTime 1.5;
SetDO Stavbar_Gripper_open, 0;
SetDO Stavbar_Gripper_close, 1;
WaitTime 1;
MoveL [[25,450,138.8],[-0.174713,0.907209,0.375778,0.072368],[0,-1,-1,0],[0,9E9,9E9,9E9,9E9,9E9]],v150,z20,custom_tool1\WObj:=WObj0;
MoveJ [[424.57,176.97,302.86],[0.320717,-0.233457,0.914293,-0.081892],[0,-1,-1,0],[0,9E9,9E9,9E9,9E9,9E9]],v150,z20,custom_tool1\WObj:=WObj0;
MoveJ [[419.38,66.63,204.5],[0,0.908889,0.417039,0],[0,-1,-1,0],[0,9E9,9E9,9E9,9E9,9E9]],v150,z20,custom_tool1\WObj:=WObj0;
MoveL [[419.38,66.63,104.5],[0,0.908889,0.417039,0],[0,-1,-1,0],[0,9E9,9E9,9E9,9E9,9E9]],v150,z20,custom_tool1\WObj:=WObj0;
WaitTime 1.5;
SetDO Stavbar_Gripper_close, 0;
SetDO Stavbar_Gripper_open, 1;
WaitTime 1;
SetDO Stavbar_Gripper_open, 0;
MoveL [[419.38,66.63,204.5],[0,0.908889,0.417039,0],[0,-1,-1,0],[0,9E9,9E9,9E9,9E9,9E9]],v150,z20,custom_tool1\WObj:=WObj0;
MoveJ [[424.57,176.97,302.86],[0.320717,-0.233457,0.914293,-0.081892],[0,-1,-1,0],[0,9E9,9E9,9E9,9E9,9E9]],v150,z20,custom_tool1\WObj:=WObj0;
MoveJ [[25,450,138.8],[-0.174713,0.907209,0.375778,0.072368],[0,-1,-1,0],[0,9E9,9E9,9E9,9E9,9E9]],v150,z20,custom_tool1\WObj:=WObj0;
MoveL [[25,550,38.8],[-0.174713,0.907209,0.375778,0.072368],[0,-1,-1,0],[0,9E9,9E9,9E9,9E9,9E9]],v150,z20,custom_tool1\WObj:=WObj0;
IF TestDI(Stavbar_opt) THEN
WaitDI Stavbar_opt, 0;
ENDIF
WaitTime 1.5;
SetDO Stavbar_Gripper_open, 0;
SetDO Stavbar_Gripper_close, 1;
WaitTime 1;
MoveL [[25,450,138.8],[-0.174713,0.907209,0.375778,0.072368],[0,-1,-1,0],[0,9E9,9E9,9E9,9E9,9E9]],v150,z20,custom_tool1\WObj:=WObj0;
MoveJ [[424.57,176.97,302.86],[0.320717,-0.233457,0.914293,-0.081892],[0,-1,-1,0],[0,9E9,9E9,9E9,9E9,9E9]],v150,z20,custom_tool1\WObj:=WObj0;
MoveJ [[424.57,176.97,302.86],[0.320717,-0.233457,0.914293,-0.081892],[0,-1,-1,0],[0,9E9,9E9,9E9,9E9,9E9]],v150,z20,custom_tool1\WObj:=WObj0;
MoveJ [[419.35,-34.4,204.5],[0,0.93639,0.350962,0],[0,-1,-1,0],[0,9E9,9E9,9E9,9E9,9E9]],v150,z20,custom_tool1\WObj:=WObj0;
MoveL [[419.35,-34.4,104.5],[0,0.93639,0.350962,0],[0,-1,-1,0],[0,9E9,9E9,9E9,9E9,9E9]],v150,z20,custom_tool1\WObj:=WObj0;
WaitTime 1.5;
SetDO Stavbar_Gripper_close, 0;
SetDO Stavbar_Gripper_open, 1;
WaitTime 1;
SetDO Stavbar_Gripper_open, 0;
MoveL [[419.35,-34.4,204.5],[0,0.93639,0.350962,0],[0,-1,-1,0],[0,9E9,9E9,9E9,9E9,9E9]],v150,z20,custom_tool1\WObj:=WObj0;
MoveJ [[424.57,176.97,302.86],[0.320717,-0.233457,0.914293,-0.081892],[0,-1,-1,0],[0,9E9,9E9,9E9,9E9,9E9]],v150,z20,custom_tool1\WObj:=WObj0;
MoveJ [[424.57,176.97,302.86],[0.320717,-0.233457,0.914293,-0.081892],[0,-1,-1,0],[0,9E9,9E9,9E9,9E9,9E9]],v150,z20,custom_tool1\WObj:=WObj0;
MoveJ [[25,450,138.8],[-0.174713,0.907209,0.375778,0.072368],[0,-1,-1,0],[0,9E9,9E9,9E9,9E9,9E9]],v150,z20,custom_tool1\WObj:=WObj0;
MoveL [[25,550,38.8],[-0.174713,0.907209,0.375778,0.072368],[0,-1,-1,0],[0,9E9,9E9,9E9,9E9,9E9]],v150,z20,custom_tool1\WObj:=WObj0;
IF TestDI(Stavbar_opt) THEN
WaitDI Stavbar_opt, 0;
ENDIF
WaitTime 1.5;
SetDO Stavbar_Gripper_open, 0;
SetDO Stavbar_Gripper_close, 1;
WaitTime 1;
MoveL [[25,450,138.8],[-0.174713,0.907209,0.375778,0.072368],[0,-1,-1,0],[0,9E9,9E9,9E9,9E9,9E9]],v150,z20,custom_tool1\WObj:=WObj0;
MoveJ [[424.57,176.97,302.86],[0.320717,-0.233457,0.914293,-0.081892],[0,-1,-1,0],[0,9E9,9E9,9E9,9E9,9E9]],v150,z20,custom_tool1\WObj:=WObj0;
MoveJ [[424.57,176.97,302.86],[0.320717,-0.233457,0.914293,-0.081892],[0,-1,-1,0],[0,9E9,9E9,9E9,9E9,9E9]],v150,z20,custom_tool1\WObj:=WObj0;
MoveJ [[407,-134.71,204.5],[0,0.953164,0.302455,0],[0,-1,-1,0],[0,9E9,9E9,9E9,9E9,9E9]],v150,z20,custom_tool1\WObj:=WObj0;
MoveL [[407,-134.71,104.5],[0,0.953164,0.302455,0],[0,-1,-1,0],[0,9E9,9E9,9E9,9E9,9E9]],v150,z20,custom_tool1\WObj:=WObj0;
WaitTime 1.5;
SetDO Stavbar_Gripper_close, 0;
SetDO Stavbar_Gripper_open, 1;
WaitTime 1;
SetDO Stavbar_Gripper_open, 0;
MoveL [[407,-134.71,204.5],[0,0.953164,0.302455,0],[0,-1,-1,0],[0,9E9,9E9,9E9,9E9,9E9]],v150,z20,custom_tool1\WObj:=WObj0;
MoveJ [[424.57,176.97,302.86],[0.320717,-0.233457,0.914293,-0.081892],[0,-1,-1,0],[0,9E9,9E9,9E9,9E9,9E9]],v150,z20,custom_tool1\WObj:=WObj0;
MoveJ [[424.57,176.97,302.86],[0.320717,-0.233457,0.914293,-0.081892],[0,-1,-1,0],[0,9E9,9E9,9E9,9E9,9E9]],v150,z20,custom_tool1\WObj:=WObj0;
MoveJ [[25,450,138.8],[-0.174713,0.907209,0.375778,0.072368],[0,-1,-1,0],[0,9E9,9E9,9E9,9E9,9E9]],v150,z20,custom_tool1\WObj:=WObj0;
MoveJ [[-63,450,138.8],[-0.174713,0.907209,0.375778,0.072368],[0,-1,-1,0],[0,9E9,9E9,9E9,9E9,9E9]],v150,z20,custom_tool1\WObj:=WObj0;
MoveL [[-63,550,38.8],[-0.174713,0.907209,0.375778,0.072368],[0,-1,-1,0],[0,9E9,9E9,9E9,9E9,9E9]],v150,z20,custom_tool1\WObj:=WObj0;
IF TestDI(Stavbar_opt) THEN
WaitDI Stavbar_opt, 0;
ENDIF
WaitTime 1.5;
SetDO Stavbar_Gripper_open, 0;
SetDO Stavbar_Gripper_close, 1;
WaitTime 1;
MoveL [[-63,450,138.8],[-0.174713,0.907209,0.375778,0.072368],[0,-1,-1,0],[0,9E9,9E9,9E9,9E9,9E9]],v150,z20,custom_tool1\WObj:=WObj0;
MoveJ [[25,450,138.8],[-0.174713,0.907209,0.375778,0.072368],[0,-1,-1,0],[0,9E9,9E9,9E9,9E9,9E9]],v150,z20,custom_tool1\WObj:=WObj0;
MoveJ [[424.57,176.97,302.86],[0.320717,-0.233457,0.914293,-0.081892],[0,-1,-1,0],[0,9E9,9E9,9E9,9E9,9E9]],v150,z20,custom_tool1\WObj:=WObj0;
MoveJ [[424.57,176.97,302.86],[0.320717,-0.233457,0.914293,-0.081892],[0,-1,-1,0],[0,9E9,9E9,9E9,9E9,9E9]],v150,z20,custom_tool1\WObj:=WObj0;
MoveJ [[394.06,-199.99,204.5],[0,0.958925,0.283659,0],[0,-1,-1,0],[0,9E9,9E9,9E9,9E9,9E9]],v150,z20,custom_tool1\WObj:=WObj0;
MoveL [[394.06,-199.99,104.5],[0,0.958925,0.283659,0],[0,-1,-1,0],[0,9E9,9E9,9E9,9E9,9E9]],v150,z20,custom_tool1\WObj:=WObj0;
WaitTime 1.5;
SetDO Stavbar_Gripper_close, 0;
SetDO Stavbar_Gripper_open, 1;
WaitTime 1;
SetDO Stavbar_Gripper_open, 0;
MoveL [[394.06,-199.99,204.5],[0,0.958925,0.283659,0],[0,-1,-1,0],[0,9E9,9E9,9E9,9E9,9E9]],v150,z20,custom_tool1\WObj:=WObj0;
MoveJ [[424.57,176.97,302.86],[0.320717,-0.233457,0.914293,-0.081892],[0,-1,-1,0],[0,9E9,9E9,9E9,9E9,9E9]],v150,z20,custom_tool1\WObj:=WObj0;
MoveJ [[424.57,176.97,302.86],[0.320717,-0.233457,0.914293,-0.081892],[0,-1,-1,0],[0,9E9,9E9,9E9,9E9,9E9]],v150,z20,custom_tool1\WObj:=WObj0;
MoveJ [[25,450,138.8],[-0.174713,0.907209,0.375778,0.072368],[0,-1,-1,0],[0,9E9,9E9,9E9,9E9,9E9]],v150,z20,custom_tool1\WObj:=WObj0;
MoveJ [[-63,450,138.8],[-0.174713,0.907209,0.375778,0.072368],[0,-1,-1,0],[0,9E9,9E9,9E9,9E9,9E9]],v150,z20,custom_tool1\WObj:=WObj0;
MoveL [[-63,550,38.8],[-0.174713,0.907209,0.375778,0.072368],[0,-1,-1,0],[0,9E9,9E9,9E9,9E9,9E9]],v150,z20,custom_tool1\WObj:=WObj0;
IF TestDI(Stavbar_opt) THEN
WaitDI Stavbar_opt, 0;
ENDIF
WaitTime 1.5;
SetDO Stavbar_Gripper_open, 0;
SetDO Stavbar_Gripper_close, 1;
WaitTime 1;
MoveL [[-63,450,138.8],[-0.174713,0.907209,0.375778,0.072368],[0,-1,-1,0],[0,9E9,9E9,9E9,9E9,9E9]],v150,z20,custom_tool1\WObj:=WObj0;
MoveJ [[25,450,138.8],[-0.174713,0.907209,0.375778,0.072368],[0,-1,-1,0],[0,9E9,9E9,9E9,9E9,9E9]],v150,z20,custom_tool1\WObj:=WObj0;
MoveJ [[424.57,176.97,302.86],[0.320717,-0.233457,0.914293,-0.081892],[0,-1,-1,0],[0,9E9,9E9,9E9,9E9,9E9]],v150,z20,custom_tool1\WObj:=WObj0;
MoveJ [[233.28,431.63,227.5],[0,0.69938,0.71475,0],[0,-1,-1,0],[0,9E9,9E9,9E9,9E9,9E9]],v150,z20,custom_tool1\WObj:=WObj0;
MoveL [[233.28,431.63,127.5],[0,0.69938,0.71475,0],[0,-1,-1,0],[0,9E9,9E9,9E9,9E9,9E9]],v150,z20,custom_tool1\WObj:=WObj0;
WaitTime 1.5;
SetDO Stavbar_Gripper_close, 0;
SetDO Stavbar_Gripper_open, 1;
WaitTime 1;
SetDO Stavbar_Gripper_open, 0;
MoveL [[233.28,431.63,227.5],[0,0.69938,0.71475,0],[0,-1,-1,0],[0,9E9,9E9,9E9,9E9,9E9]],v150,z20,custom_tool1\WObj:=WObj0;
MoveJ [[424.57,176.97,302.86],[0.320717,-0.233457,0.914293,-0.081892],[0,-1,-1,0],[0,9E9,9E9,9E9,9E9,9E9]],v150,z20,custom_tool1\WObj:=WObj0;
MoveJ [[25,450,138.8],[-0.174713,0.907209,0.375778,0.072368],[0,-1,-1,0],[0,9E9,9E9,9E9,9E9,9E9]],v150,z20,custom_tool1\WObj:=WObj0;
MoveL [[25,550,38.8],[-0.174713,0.907209,0.375778,0.072368],[0,-1,-1,0],[0,9E9,9E9,9E9,9E9,9E9]],v150,z20,custom_tool1\WObj:=WObj0;
IF TestDI(Stavbar_opt) THEN
WaitDI Stavbar_opt, 0;
ENDIF
WaitTime 1.5;
SetDO Stavbar_Gripper_open, 0;
SetDO Stavbar_Gripper_close, 1;
WaitTime 1;
MoveL [[25,450,138.8],[-0.174713,0.907209,0.375778,0.072368],[0,-1,-1,0],[0,9E9,9E9,9E9,9E9,9E9]],v150,z20,custom_tool1\WObj:=WObj0;
MoveJ [[424.57,176.97,302.86],[0.320717,-0.233457,0.914293,-0.081892],[0,-1,-1,0],[0,9E9,9E9,9E9,9E9,9E9]],v150,z20,custom_tool1\WObj:=WObj0;
MoveJ [[280.16,384.41,227.5],[0,0.723508,0.690316,0],[0,-1,-1,0],[0,9E9,9E9,9E9,9E9,9E9]],v150,z20,custom_tool1\WObj:=WObj0;
MoveL [[280.16,384.41,127.5],[0,0.723508,0.690316,0],[0,-1,-1,0],[0,9E9,9E9,9E9,9E9,9E9]],v150,z20,custom_tool1\WObj:=WObj0;
WaitTime 1.5;
SetDO Stavbar_Gripper_close, 0;
SetDO Stavbar_Gripper_open, 1;
WaitTime 1;
SetDO Stavbar_Gripper_open, 0;
MoveL [[280.16,384.41,227.5],[0,0.723508,0.690316,0],[0,-1,-1,0],[0,9E9,9E9,9E9,9E9,9E9]],v150,z20,custom_tool1\WObj:=WObj0;
MoveJ [[424.57,176.97,302.86],[0.320717,-0.233457,0.914293,-0.081892],[0,-1,-1,0],[0,9E9,9E9,9E9,9E9,9E9]],v150,z20,custom_tool1\WObj:=WObj0;
MoveJ [[25,450,138.8],[-0.174713,0.907209,0.375778,0.072368],[0,-1,-1,0],[0,9E9,9E9,9E9,9E9,9E9]],v150,z20,custom_tool1\WObj:=WObj0;
MoveL [[25,550,38.8],[-0.174713,0.907209,0.375778,0.072368],[0,-1,-1,0],[0,9E9,9E9,9E9,9E9,9E9]],v150,z20,custom_tool1\WObj:=WObj0;
IF TestDI(Stavbar_opt) THEN
WaitDI Stavbar_opt, 0;
ENDIF
WaitTime 1.5;
SetDO Stavbar_Gripper_open, 0;
SetDO Stavbar_Gripper_close, 1;
WaitTime 1;
MoveL [[25,450,138.8],[-0.174713,0.907209,0.375778,0.072368],[0,-1,-1,0],[0,9E9,9E9,9E9,9E9,9E9]],v150,z20,custom_tool1\WObj:=WObj0;
MoveJ [[424.57,176.97,302.86],[0.320717,-0.233457,0.914293,-0.081892],[0,-1,-1,0],[0,9E9,9E9,9E9,9E9,9E9]],v150,z20,custom_tool1\WObj:=WObj0;
MoveJ [[341.81,304.42,227.5],[0,0.779733,0.626112,0],[0,-1,-1,0],[0,9E9,9E9,9E9,9E9,9E9]],v150,z20,custom_tool1\WObj:=WObj0;
MoveL [[341.81,304.42,127.5],[0,0.779733,0.626112,0],[0,-1,-1,0],[0,9E9,9E9,9E9,9E9,9E9]],v150,z20,custom_tool1\WObj:=WObj0;
WaitTime 1.5;
SetDO Stavbar_Gripper_close, 0;
SetDO Stavbar_Gripper_open, 1;
WaitTime 1;
SetDO Stavbar_Gripper_open, 0;
MoveL [[341.81,304.42,227.5],[0,0.779733,0.626112,0],[0,-1,-1,0],[0,9E9,9E9,9E9,9E9,9E9]],v150,z20,custom_tool1\WObj:=WObj0;
MoveJ [[424.57,176.97,302.86],[0.320717,-0.233457,0.914293,-0.081892],[0,-1,-1,0],[0,9E9,9E9,9E9,9E9,9E9]],v150,z20,custom_tool1\WObj:=WObj0;
MoveJ [[25,450,138.8],[-0.174713,0.907209,0.375778,0.072368],[0,-1,-1,0],[0,9E9,9E9,9E9,9E9,9E9]],v150,z20,custom_tool1\WObj:=WObj0;
MoveL [[25,550,38.8],[-0.174713,0.907209,0.375778,0.072368],[0,-1,-1,0],[0,9E9,9E9,9E9,9E9,9E9]],v150,z20,custom_tool1\WObj:=WObj0;
IF TestDI(Stavbar_opt) THEN
WaitDI Stavbar_opt, 0;
ENDIF
WaitTime 1.5;
SetDO Stavbar_Gripper_open, 0;
SetDO Stavbar_Gripper_close, 1;
WaitTime 1;
MoveL [[25,450,138.8],[-0.174713,0.907209,0.375778,0.072368],[0,-1,-1,0],[0,9E9,9E9,9E9,9E9,9E9]],v150,z20,custom_tool1\WObj:=WObj0;
MoveJ [[424.57,176.97,302.86],[0.320717,-0.233457,0.914293,-0.081892],[0,-1,-1,0],[0,9E9,9E9,9E9,9E9,9E9]],v150,z20,custom_tool1\WObj:=WObj0;
MoveJ [[387.3,214.32,227.5],[0,0.839309,0.543655,0],[0,-1,-1,0],[0,9E9,9E9,9E9,9E9,9E9]],v150,z20,custom_tool1\WObj:=WObj0;
MoveL [[387.3,214.32,127.5],[0,0.839309,0.543655,0],[0,-1,-1,0],[0,9E9,9E9,9E9,9E9,9E9]],v150,z20,custom_tool1\WObj:=WObj0;
WaitTime 1.5;
SetDO Stavbar_Gripper_close, 0;
SetDO Stavbar_Gripper_open, 1;
WaitTime 1;
SetDO Stavbar_Gripper_open, 0;
MoveL [[387.3,214.32,227.5],[0,0.839309,0.543655,0],[0,-1,-1,0],[0,9E9,9E9,9E9,9E9,9E9]],v150,z20,custom_tool1\WObj:=WObj0;
MoveJ [[424.57,176.97,302.86],[0.320717,-0.233457,0.914293,-0.081892],[0,-1,-1,0],[0,9E9,9E9,9E9,9E9,9E9]],v150,z20,custom_tool1\WObj:=WObj0;
MoveJ [[25,450,138.8],[-0.174713,0.907209,0.375778,0.072368],[0,-1,-1,0],[0,9E9,9E9,9E9,9E9,9E9]],v150,z20,custom_tool1\WObj:=WObj0;
MoveL [[25,550,38.8],[-0.174713,0.907209,0.375778,0.072368],[0,-1,-1,0],[0,9E9,9E9,9E9,9E9,9E9]],v150,z20,custom_tool1\WObj:=WObj0;
IF TestDI(Stavbar_opt) THEN
WaitDI Stavbar_opt, 0;
ENDIF
WaitTime 1.5;
SetDO Stavbar_Gripper_open, 0;
SetDO Stavbar_Gripper_close, 1;
WaitTime 1;
MoveL [[25,450,138.8],[-0.174713,0.907209,0.375778,0.072368],[0,-1,-1,0],[0,9E9,9E9,9E9,9E9,9E9]],v150,z20,custom_tool1\WObj:=WObj0;
MoveJ [[424.57,176.97,302.86],[0.320717,-0.233457,0.914293,-0.081892],[0,-1,-1,0],[0,9E9,9E9,9E9,9E9,9E9]],v150,z20,custom_tool1\WObj:=WObj0;
MoveJ [[413.42,116.81,227.5],[0,0.889617,0.456708,0],[0,-1,-1,0],[0,9E9,9E9,9E9,9E9,9E9]],v150,z20,custom_tool1\WObj:=WObj0;
MoveL [[413.42,116.81,127.5],[0,0.889617,0.456708,0],[0,-1,-1,0],[0,9E9,9E9,9E9,9E9,9E9]],v150,z20,custom_tool1\WObj:=WObj0;
WaitTime 1.5;
SetDO Stavbar_Gripper_close, 0;
SetDO Stavbar_Gripper_open, 1;
WaitTime 1;
SetDO Stavbar_Gripper_open, 0;
MoveL [[413.42,116.81,227.5],[0,0.889617,0.456708,0],[0,-1,-1,0],[0,9E9,9E9,9E9,9E9,9E9]],v150,z20,custom_tool1\WObj:=WObj0;
MoveJ [[424.57,176.97,302.86],[0.320717,-0.233457,0.914293,-0.081892],[0,-1,-1,0],[0,9E9,9E9,9E9,9E9,9E9]],v150,z20,custom_tool1\WObj:=WObj0;
MoveJ [[25,450,138.8],[-0.174713,0.907209,0.375778,0.072368],[0,-1,-1,0],[0,9E9,9E9,9E9,9E9,9E9]],v150,z20,custom_tool1\WObj:=WObj0;
MoveL [[25,550,38.8],[-0.174713,0.907209,0.375778,0.072368],[0,-1,-1,0],[0,9E9,9E9,9E9,9E9,9E9]],v150,z20,custom_tool1\WObj:=WObj0;
IF TestDI(Stavbar_opt) THEN
WaitDI Stavbar_opt, 0;
ENDIF
WaitTime 1.5;
SetDO Stavbar_Gripper_open, 0;
SetDO Stavbar_Gripper_close, 1;
WaitTime 1;
MoveL [[25,450,138.8],[-0.174713,0.907209,0.375778,0.072368],[0,-1,-1,0],[0,9E9,9E9,9E9,9E9,9E9]],v150,z20,custom_tool1\WObj:=WObj0;
MoveJ [[424.57,176.97,302.86],[0.320717,-0.233457,0.914293,-0.081892],[0,-1,-1,0],[0,9E9,9E9,9E9,9E9,9E9]],v150,z20,custom_tool1\WObj:=WObj0;
MoveJ [[421.17,16.11,227.5],[0,0.924296,0.381676,0],[0,-1,-1,0],[0,9E9,9E9,9E9,9E9,9E9]],v150,z20,custom_tool1\WObj:=WObj0;
MoveL [[421.17,16.11,127.5],[0,0.924296,0.381676,0],[0,-1,-1,0],[0,9E9,9E9,9E9,9E9,9E9]],v150,z20,custom_tool1\WObj:=WObj0;
WaitTime 1.5;
SetDO Stavbar_Gripper_close, 0;
SetDO Stavbar_Gripper_open, 1;
WaitTime 1;
SetDO Stavbar_Gripper_open, 0;
MoveL [[421.17,16.11,227.5],[0,0.924296,0.381676,0],[0,-1,-1,0],[0,9E9,9E9,9E9,9E9,9E9]],v150,z20,custom_tool1\WObj:=WObj0;
MoveJ [[424.57,176.97,302.86],[0.320717,-0.233457,0.914293,-0.081892],[0,-1,-1,0],[0,9E9,9E9,9E9,9E9,9E9]],v150,z20,custom_tool1\WObj:=WObj0;
MoveJ [[25,450,138.8],[-0.174713,0.907209,0.375778,0.072368],[0,-1,-1,0],[0,9E9,9E9,9E9,9E9,9E9]],v150,z20,custom_tool1\WObj:=WObj0;
MoveL [[25,550,38.8],[-0.174713,0.907209,0.375778,0.072368],[0,-1,-1,0],[0,9E9,9E9,9E9,9E9,9E9]],v150,z20,custom_tool1\WObj:=WObj0;
IF TestDI(Stavbar_opt) THEN
WaitDI Stavbar_opt, 0;
ENDIF
WaitTime 1.5;
SetDO Stavbar_Gripper_open, 0;
SetDO Stavbar_Gripper_close, 1;
WaitTime 1;
MoveL [[25,450,138.8],[-0.174713,0.907209,0.375778,0.072368],[0,-1,-1,0],[0,9E9,9E9,9E9,9E9,9E9]],v150,z20,custom_tool1\WObj:=WObj0;
MoveJ [[424.57,176.97,302.86],[0.320717,-0.233457,0.914293,-0.081892],[0,-1,-1,0],[0,9E9,9E9,9E9,9E9,9E9]],v150,z20,custom_tool1\WObj:=WObj0;
MoveJ [[424.57,176.97,302.86],[0.320717,-0.233457,0.914293,-0.081892],[0,-1,-1,0],[0,9E9,9E9,9E9,9E9,9E9]],v150,z20,custom_tool1\WObj:=WObj0;
MoveJ [[414.46,-84.71,227.5],[0,0.945814,0.324708,0],[0,-1,-1,0],[0,9E9,9E9,9E9,9E9,9E9]],v150,z20,custom_tool1\WObj:=WObj0;
MoveL [[414.46,-84.71,127.5],[0,0.945814,0.324708,0],[0,-1,-1,0],[0,9E9,9E9,9E9,9E9,9E9]],v150,z20,custom_tool1\WObj:=WObj0;
WaitTime 1.5;
SetDO Stavbar_Gripper_close, 0;
SetDO Stavbar_Gripper_open, 1;
WaitTime 1;
SetDO Stavbar_Gripper_open, 0;
MoveL [[414.46,-84.71,227.5],[0,0.945814,0.324708,0],[0,-1,-1,0],[0,9E9,9E9,9E9,9E9,9E9]],v150,z20,custom_tool1\WObj:=WObj0;
MoveJ [[424.57,176.97,302.86],[0.320717,-0.233457,0.914293,-0.081892],[0,-1,-1,0],[0,9E9,9E9,9E9,9E9,9E9]],v150,z20,custom_tool1\WObj:=WObj0;
MoveJ [[424.57,176.97,302.86],[0.320717,-0.233457,0.914293,-0.081892],[0,-1,-1,0],[0,9E9,9E9,9E9,9E9,9E9]],v150,z20,custom_tool1\WObj:=WObj0;
MoveJ [[25,450,138.8],[-0.174713,0.907209,0.375778,0.072368],[0,-1,-1,0],[0,9E9,9E9,9E9,9E9,9E9]],v150,z20,custom_tool1\WObj:=WObj0;
MoveL [[25,550,38.8],[-0.174713,0.907209,0.375778,0.072368],[0,-1,-1,0],[0,9E9,9E9,9E9,9E9,9E9]],v150,z20,custom_tool1\WObj:=WObj0;
IF TestDI(Stavbar_opt) THEN
WaitDI Stavbar_opt, 0;
ENDIF
WaitTime 1.5;
SetDO Stavbar_Gripper_open, 0;
SetDO Stavbar_Gripper_close, 1;
WaitTime 1;
MoveL [[25,450,138.8],[-0.174713,0.907209,0.375778,0.072368],[0,-1,-1,0],[0,9E9,9E9,9E9,9E9,9E9]],v150,z20,custom_tool1\WObj:=WObj0;
MoveJ [[424.57,176.97,302.86],[0.320717,-0.233457,0.914293,-0.081892],[0,-1,-1,0],[0,9E9,9E9,9E9,9E9,9E9]],v150,z20,custom_tool1\WObj:=WObj0;
MoveJ [[424.57,176.97,302.86],[0.320717,-0.233457,0.914293,-0.081892],[0,-1,-1,0],[0,9E9,9E9,9E9,9E9,9E9]],v150,z20,custom_tool1\WObj:=WObj0;
MoveJ [[397.4,-184.34,227.5],[0,0.958925,0.283659,0],[0,-1,-1,0],[0,9E9,9E9,9E9,9E9,9E9]],v150,z20,custom_tool1\WObj:=WObj0;
MoveL [[397.4,-184.34,127.5],[0,0.958925,0.283659,0],[0,-1,-1,0],[0,9E9,9E9,9E9,9E9,9E9]],v150,z20,custom_tool1\WObj:=WObj0;
WaitTime 1.5;
SetDO Stavbar_Gripper_close, 0;
SetDO Stavbar_Gripper_open, 1;
WaitTime 1;
SetDO Stavbar_Gripper_open, 0;
MoveL [[397.4,-184.34,227.5],[0,0.958925,0.283659,0],[0,-1,-1,0],[0,9E9,9E9,9E9,9E9,9E9]],v150,z20,custom_tool1\WObj:=WObj0;
MoveJ [[424.57,176.97,302.86],[0.320717,-0.233457,0.914293,-0.081892],[0,-1,-1,0],[0,9E9,9E9,9E9,9E9,9E9]],v150,z20,custom_tool1\WObj:=WObj0;
MoveJ [[424.57,176.97,302.86],[0.320717,-0.233457,0.914293,-0.081892],[0,-1,-1,0],[0,9E9,9E9,9E9,9E9,9E9]],v150,z20,custom_tool1\WObj:=WObj0;
MoveJ [[25,450,138.8],[-0.174713,0.907209,0.375778,0.072368],[0,-1,-1,0],[0,9E9,9E9,9E9,9E9,9E9]],v150,z20,custom_tool1\WObj:=WObj0;
MoveL [[25,550,38.8],[-0.174713,0.907209,0.375778,0.072368],[0,-1,-1,0],[0,9E9,9E9,9E9,9E9,9E9]],v150,z20,custom_tool1\WObj:=WObj0;
IF TestDI(Stavbar_opt) THEN
WaitDI Stavbar_opt, 0;
ENDIF
WaitTime 1.5;
SetDO Stavbar_Gripper_open, 0;
SetDO Stavbar_Gripper_close, 1;
WaitTime 1;
MoveL [[25,450,138.8],[-0.174713,0.907209,0.375778,0.072368],[0,-1,-1,0],[0,9E9,9E9,9E9,9E9,9E9]],v150,z20,custom_tool1\WObj:=WObj0;
MoveJ [[424.57,176.97,302.86],[0.320717,-0.233457,0.914293,-0.081892],[0,-1,-1,0],[0,9E9,9E9,9E9,9E9,9E9]],v150,z20,custom_tool1\WObj:=WObj0;
MoveJ [[244.84,420.56,250.5],[0,0.69938,0.71475,0],[0,-1,-1,0],[0,9E9,9E9,9E9,9E9,9E9]],v150,z20,custom_tool1\WObj:=WObj0;
MoveL [[244.84,420.56,150.5],[0,0.69938,0.71475,0],[0,-1,-1,0],[0,9E9,9E9,9E9,9E9,9E9]],v150,z20,custom_tool1\WObj:=WObj0;
WaitTime 1.5;
SetDO Stavbar_Gripper_close, 0;
SetDO Stavbar_Gripper_open, 1;
WaitTime 1;
SetDO Stavbar_Gripper_open, 0;
MoveL [[244.84,420.56,250.5],[0,0.69938,0.71475,0],[0,-1,-1,0],[0,9E9,9E9,9E9,9E9,9E9]],v150,z20,custom_tool1\WObj:=WObj0;
MoveJ [[424.57,176.97,302.86],[0.320717,-0.233457,0.914293,-0.081892],[0,-1,-1,0],[0,9E9,9E9,9E9,9E9,9E9]],v150,z20,custom_tool1\WObj:=WObj0;
MoveJ [[25,450,138.8],[-0.174713,0.907209,0.375778,0.072368],[0,-1,-1,0],[0,9E9,9E9,9E9,9E9,9E9]],v150,z20,custom_tool1\WObj:=WObj0;
MoveL [[25,550,38.8],[-0.174713,0.907209,0.375778,0.072368],[0,-1,-1,0],[0,9E9,9E9,9E9,9E9,9E9]],v150,z20,custom_tool1\WObj:=WObj0;
IF TestDI(Stavbar_opt) THEN
WaitDI Stavbar_opt, 0;
ENDIF
WaitTime 1.5;
SetDO Stavbar_Gripper_open, 0;
SetDO Stavbar_Gripper_close, 1;
WaitTime 1;
MoveL [[25,450,138.8],[-0.174713,0.907209,0.375778,0.072368],[0,-1,-1,0],[0,9E9,9E9,9E9,9E9,9E9]],v150,z20,custom_tool1\WObj:=WObj0;
MoveJ [[424.57,176.97,302.86],[0.320717,-0.233457,0.914293,-0.081892],[0,-1,-1,0],[0,9E9,9E9,9E9,9E9,9E9]],v150,z20,custom_tool1\WObj:=WObj0;
MoveJ [[312.7,345.73,250.5],[0,0.750517,0.660852,0],[0,-1,-1,0],[0,9E9,9E9,9E9,9E9,9E9]],v150,z20,custom_tool1\WObj:=WObj0;
MoveL [[312.7,345.73,150.5],[0,0.750517,0.660852,0],[0,-1,-1,0],[0,9E9,9E9,9E9,9E9,9E9]],v150,z20,custom_tool1\WObj:=WObj0;
WaitTime 1.5;
SetDO Stavbar_Gripper_close, 0;
SetDO Stavbar_Gripper_open, 1;
WaitTime 1;
SetDO Stavbar_Gripper_open, 0;
MoveL [[312.7,345.73,250.5],[0,0.750517,0.660852,0],[0,-1,-1,0],[0,9E9,9E9,9E9,9E9,9E9]],v150,z20,custom_tool1\WObj:=WObj0;
MoveJ [[424.57,176.97,302.86],[0.320717,-0.233457,0.914293,-0.081892],[0,-1,-1,0],[0,9E9,9E9,9E9,9E9,9E9]],v150,z20,custom_tool1\WObj:=WObj0;
MoveJ [[25,450,138.8],[-0.174713,0.907209,0.375778,0.072368],[0,-1,-1,0],[0,9E9,9E9,9E9,9E9,9E9]],v150,z20,custom_tool1\WObj:=WObj0;
MoveL [[25,550,38.8],[-0.174713,0.907209,0.375778,0.072368],[0,-1,-1,0],[0,9E9,9E9,9E9,9E9,9E9]],v150,z20,custom_tool1\WObj:=WObj0;
IF TestDI(Stavbar_opt) THEN
WaitDI Stavbar_opt, 0;
ENDIF
WaitTime 1.5;
SetDO Stavbar_Gripper_open, 0;
SetDO Stavbar_Gripper_close, 1;
WaitTime 1;
MoveL [[25,450,138.8],[-0.174713,0.907209,0.375778,0.072368],[0,-1,-1,0],[0,9E9,9E9,9E9,9E9,9E9]],v150,z20,custom_tool1\WObj:=WObj0;
MoveJ [[424.57,176.97,302.86],[0.320717,-0.233457,0.914293,-0.081892],[0,-1,-1,0],[0,9E9,9E9,9E9,9E9,9E9]],v150,z20,custom_tool1\WObj:=WObj0;
MoveJ [[366.86,260.53,250.5],[0,0.809896,0.586574,0],[0,-1,-1,0],[0,9E9,9E9,9E9,9E9,9E9]],v150,z20,custom_tool1\WObj:=WObj0;
MoveL [[366.86,260.53,150.5],[0,0.809896,0.586574,0],[0,-1,-1,0],[0,9E9,9E9,9E9,9E9,9E9]],v150,z20,custom_tool1\WObj:=WObj0;
WaitTime 1.5;
SetDO Stavbar_Gripper_close, 0;
SetDO Stavbar_Gripper_open, 1;
WaitTime 1;
SetDO Stavbar_Gripper_open, 0;
MoveL [[366.86,260.53,250.5],[0,0.809896,0.586574,0],[0,-1,-1,0],[0,9E9,9E9,9E9,9E9,9E9]],v150,z20,custom_tool1\WObj:=WObj0;
MoveJ [[424.57,176.97,302.86],[0.320717,-0.233457,0.914293,-0.081892],[0,-1,-1,0],[0,9E9,9E9,9E9,9E9,9E9]],v150,z20,custom_tool1\WObj:=WObj0;
MoveJ [[25,450,138.8],[-0.174713,0.907209,0.375778,0.072368],[0,-1,-1,0],[0,9E9,9E9,9E9,9E9,9E9]],v150,z20,custom_tool1\WObj:=WObj0;
MoveL [[25,550,38.8],[-0.174713,0.907209,0.375778,0.072368],[0,-1,-1,0],[0,9E9,9E9,9E9,9E9,9E9]],v150,z20,custom_tool1\WObj:=WObj0;
IF TestDI(Stavbar_opt) THEN
WaitDI Stavbar_opt, 0;
ENDIF
WaitTime 1.5;
SetDO Stavbar_Gripper_open, 0;
SetDO Stavbar_Gripper_close, 1;
WaitTime 1;
MoveL [[25,450,138.8],[-0.174713,0.907209,0.375778,0.072368],[0,-1,-1,0],[0,9E9,9E9,9E9,9E9,9E9]],v150,z20,custom_tool1\WObj:=WObj0;
MoveJ [[424.57,176.97,302.86],[0.320717,-0.233457,0.914293,-0.081892],[0,-1,-1,0],[0,9E9,9E9,9E9,9E9,9E9]],v150,z20,custom_tool1\WObj:=WObj0;
MoveJ [[402.82,166.23,250.5],[0,0.866278,0.499562,0],[0,-1,-1,0],[0,9E9,9E9,9E9,9E9,9E9]],v150,z20,custom_tool1\WObj:=WObj0;
MoveL [[402.82,166.23,150.5],[0,0.866278,0.499562,0],[0,-1,-1,0],[0,9E9,9E9,9E9,9E9,9E9]],v150,z20,custom_tool1\WObj:=WObj0;
WaitTime 1.5;
SetDO Stavbar_Gripper_close, 0;
SetDO Stavbar_Gripper_open, 1;
WaitTime 1;
SetDO Stavbar_Gripper_open, 0;
MoveL [[402.82,166.23,250.5],[0,0.866278,0.499562,0],[0,-1,-1,0],[0,9E9,9E9,9E9,9E9,9E9]],v150,z20,custom_tool1\WObj:=WObj0;
MoveJ [[424.57,176.97,302.86],[0.320717,-0.233457,0.914293,-0.081892],[0,-1,-1,0],[0,9E9,9E9,9E9,9E9,9E9]],v150,z20,custom_tool1\WObj:=WObj0;
MoveJ [[25,450,138.8],[-0.174713,0.907209,0.375778,0.072368],[0,-1,-1,0],[0,9E9,9E9,9E9,9E9,9E9]],v150,z20,custom_tool1\WObj:=WObj0;
MoveL [[25,550,38.8],[-0.174713,0.907209,0.375778,0.072368],[0,-1,-1,0],[0,9E9,9E9,9E9,9E9,9E9]],v150,z20,custom_tool1\WObj:=WObj0;
IF TestDI(Stavbar_opt) THEN
WaitDI Stavbar_opt, 0;
ENDIF
WaitTime 1.5;
SetDO Stavbar_Gripper_open, 0;
SetDO Stavbar_Gripper_close, 1;
WaitTime 1;
MoveL [[25,450,138.8],[-0.174713,0.907209,0.375778,0.072368],[0,-1,-1,0],[0,9E9,9E9,9E9,9E9,9E9]],v150,z20,custom_tool1\WObj:=WObj0;
MoveJ [[424.57,176.97,302.86],[0.320717,-0.233457,0.914293,-0.081892],[0,-1,-1,0],[0,9E9,9E9,9E9,9E9,9E9]],v150,z20,custom_tool1\WObj:=WObj0;
MoveJ [[419.38,66.63,250.5],[0,0.908889,0.417039,0],[0,-1,-1,0],[0,9E9,9E9,9E9,9E9,9E9]],v150,z20,custom_tool1\WObj:=WObj0;
MoveL [[419.38,66.63,150.5],[0,0.908889,0.417039,0],[0,-1,-1,0],[0,9E9,9E9,9E9,9E9,9E9]],v150,z20,custom_tool1\WObj:=WObj0;
WaitTime 1.5;
SetDO Stavbar_Gripper_close, 0;
SetDO Stavbar_Gripper_open, 1;
WaitTime 1;
SetDO Stavbar_Gripper_open, 0;
MoveL [[419.38,66.63,250.5],[0,0.908889,0.417039,0],[0,-1,-1,0],[0,9E9,9E9,9E9,9E9,9E9]],v150,z20,custom_tool1\WObj:=WObj0;
MoveJ [[424.57,176.97,302.86],[0.320717,-0.233457,0.914293,-0.081892],[0,-1,-1,0],[0,9E9,9E9,9E9,9E9,9E9]],v150,z20,custom_tool1\WObj:=WObj0;
MoveJ [[25,450,138.8],[-0.174713,0.907209,0.375778,0.072368],[0,-1,-1,0],[0,9E9,9E9,9E9,9E9,9E9]],v150,z20,custom_tool1\WObj:=WObj0;
MoveL [[25,550,38.8],[-0.174713,0.907209,0.375778,0.072368],[0,-1,-1,0],[0,9E9,9E9,9E9,9E9,9E9]],v150,z20,custom_tool1\WObj:=WObj0;
IF TestDI(Stavbar_opt) THEN
WaitDI Stavbar_opt, 0;
ENDIF
WaitTime 1.5;
SetDO Stavbar_Gripper_open, 0;
SetDO Stavbar_Gripper_close, 1;
WaitTime 1;
MoveL [[25,450,138.8],[-0.174713,0.907209,0.375778,0.072368],[0,-1,-1,0],[0,9E9,9E9,9E9,9E9,9E9]],v150,z20,custom_tool1\WObj:=WObj0;
MoveJ [[424.57,176.97,302.86],[0.320717,-0.233457,0.914293,-0.081892],[0,-1,-1,0],[0,9E9,9E9,9E9,9E9,9E9]],v150,z20,custom_tool1\WObj:=WObj0;
MoveJ [[424.57,176.97,302.86],[0.320717,-0.233457,0.914293,-0.081892],[0,-1,-1,0],[0,9E9,9E9,9E9,9E9,9E9]],v150,z20,custom_tool1\WObj:=WObj0;
MoveJ [[419.35,-34.4,250.5],[0,0.93639,0.350962,0],[0,-1,-1,0],[0,9E9,9E9,9E9,9E9,9E9]],v150,z20,custom_tool1\WObj:=WObj0;
MoveL [[419.35,-34.4,150.5],[0,0.93639,0.350962,0],[0,-1,-1,0],[0,9E9,9E9,9E9,9E9,9E9]],v150,z20,custom_tool1\WObj:=WObj0;
WaitTime 1.5;
SetDO Stavbar_Gripper_close, 0;
SetDO Stavbar_Gripper_open, 1;
WaitTime 1;
SetDO Stavbar_Gripper_open, 0;
MoveL [[419.35,-34.4,250.5],[0,0.93639,0.350962,0],[0,-1,-1,0],[0,9E9,9E9,9E9,9E9,9E9]],v150,z20,custom_tool1\WObj:=WObj0;
MoveJ [[424.57,176.97,302.86],[0.320717,-0.233457,0.914293,-0.081892],[0,-1,-1,0],[0,9E9,9E9,9E9,9E9,9E9]],v150,z20,custom_tool1\WObj:=WObj0;
MoveJ [[424.57,176.97,302.86],[0.320717,-0.233457,0.914293,-0.081892],[0,-1,-1,0],[0,9E9,9E9,9E9,9E9,9E9]],v150,z20,custom_tool1\WObj:=WObj0;
MoveJ [[25,450,138.8],[-0.174713,0.907209,0.375778,0.072368],[0,-1,-1,0],[0,9E9,9E9,9E9,9E9,9E9]],v150,z20,custom_tool1\WObj:=WObj0;
MoveL [[25,550,38.8],[-0.174713,0.907209,0.375778,0.072368],[0,-1,-1,0],[0,9E9,9E9,9E9,9E9,9E9]],v150,z20,custom_tool1\WObj:=WObj0;
IF TestDI(Stavbar_opt) THEN
WaitDI Stavbar_opt, 0;
ENDIF
WaitTime 1.5;
SetDO Stavbar_Gripper_open, 0;
SetDO Stavbar_Gripper_close, 1;
WaitTime 1;
MoveL [[25,450,138.8],[-0.174713,0.907209,0.375778,0.072368],[0,-1,-1,0],[0,9E9,9E9,9E9,9E9,9E9]],v150,z20,custom_tool1\WObj:=WObj0;
MoveJ [[424.57,176.97,302.86],[0.320717,-0.233457,0.914293,-0.081892],[0,-1,-1,0],[0,9E9,9E9,9E9,9E9,9E9]],v150,z20,custom_tool1\WObj:=WObj0;
MoveJ [[424.57,176.97,302.86],[0.320717,-0.233457,0.914293,-0.081892],[0,-1,-1,0],[0,9E9,9E9,9E9,9E9,9E9]],v150,z20,custom_tool1\WObj:=WObj0;
MoveJ [[407,-134.71,250.5],[0,0.953164,0.302455,0],[0,-1,-1,0],[0,9E9,9E9,9E9,9E9,9E9]],v150,z20,custom_tool1\WObj:=WObj0;
MoveL [[407,-134.71,150.5],[0,0.953164,0.302455,0],[0,-1,-1,0],[0,9E9,9E9,9E9,9E9,9E9]],v150,z20,custom_tool1\WObj:=WObj0;
WaitTime 1.5;
SetDO Stavbar_Gripper_close, 0;
SetDO Stavbar_Gripper_open, 1;
WaitTime 1;
SetDO Stavbar_Gripper_open, 0;
MoveL [[407,-134.71,250.5],[0,0.953164,0.302455,0],[0,-1,-1,0],[0,9E9,9E9,9E9,9E9,9E9]],v150,z20,custom_tool1\WObj:=WObj0;
MoveJ [[424.57,176.97,302.86],[0.320717,-0.233457,0.914293,-0.081892],[0,-1,-1,0],[0,9E9,9E9,9E9,9E9,9E9]],v150,z20,custom_tool1\WObj:=WObj0;
MoveJ [[424.57,176.97,302.86],[0.320717,-0.233457,0.914293,-0.081892],[0,-1,-1,0],[0,9E9,9E9,9E9,9E9,9E9]],v150,z20,custom_tool1\WObj:=WObj0;
MoveJ [[25,450,138.8],[-0.174713,0.907209,0.375778,0.072368],[0,-1,-1,0],[0,9E9,9E9,9E9,9E9,9E9]],v150,z20,custom_tool1\WObj:=WObj0;
MoveJ [[-63,450,138.8],[-0.174713,0.907209,0.375778,0.072368],[0,-1,-1,0],[0,9E9,9E9,9E9,9E9,9E9]],v150,z20,custom_tool1\WObj:=WObj0;
MoveL [[-63,550,38.8],[-0.174713,0.907209,0.375778,0.072368],[0,-1,-1,0],[0,9E9,9E9,9E9,9E9,9E9]],v150,z20,custom_tool1\WObj:=WObj0;
IF TestDI(Stavbar_opt) THEN
WaitDI Stavbar_opt, 0;
ENDIF
WaitTime 1.5;
SetDO Stavbar_Gripper_open, 0;
SetDO Stavbar_Gripper_close, 1;
WaitTime 1;
MoveL [[-63,450,138.8],[-0.174713,0.907209,0.375778,0.072368],[0,-1,-1,0],[0,9E9,9E9,9E9,9E9,9E9]],v150,z20,custom_tool1\WObj:=WObj0;
MoveJ [[25,450,138.8],[-0.174713,0.907209,0.375778,0.072368],[0,-1,-1,0],[0,9E9,9E9,9E9,9E9,9E9]],v150,z20,custom_tool1\WObj:=WObj0;
MoveJ [[424.57,176.97,302.86],[0.320717,-0.233457,0.914293,-0.081892],[0,-1,-1,0],[0,9E9,9E9,9E9,9E9,9E9]],v150,z20,custom_tool1\WObj:=WObj0;
MoveJ [[424.57,176.97,302.86],[0.320717,-0.233457,0.914293,-0.081892],[0,-1,-1,0],[0,9E9,9E9,9E9,9E9,9E9]],v150,z20,custom_tool1\WObj:=WObj0;
MoveJ [[394.06,-199.99,250.5],[0,0.958925,0.283659,0],[0,-1,-1,0],[0,9E9,9E9,9E9,9E9,9E9]],v150,z20,custom_tool1\WObj:=WObj0;
MoveL [[394.06,-199.99,150.5],[0,0.958925,0.283659,0],[0,-1,-1,0],[0,9E9,9E9,9E9,9E9,9E9]],v150,z20,custom_tool1\WObj:=WObj0;
WaitTime 1.5;
SetDO Stavbar_Gripper_close, 0;
SetDO Stavbar_Gripper_open, 1;
WaitTime 1;
SetDO Stavbar_Gripper_open, 0;
MoveL [[394.06,-199.99,250.5],[0,0.958925,0.283659,0],[0,-1,-1,0],[0,9E9,9E9,9E9,9E9,9E9]],v150,z20,custom_tool1\WObj:=WObj0;
MoveJ [[424.57,176.97,302.86],[0.320717,-0.233457,0.914293,-0.081892],[0,-1,-1,0],[0,9E9,9E9,9E9,9E9,9E9]],v150,z20,custom_tool1\WObj:=WObj0;
MoveJ [[424.57,176.97,302.86],[0.320717,-0.233457,0.914293,-0.081892],[0,-1,-1,0],[0,9E9,9E9,9E9,9E9,9E9]],v150,z20,custom_tool1\WObj:=WObj0;
MoveJ [[25,450,138.8],[-0.174713,0.907209,0.375778,0.072368],[0,-1,-1,0],[0,9E9,9E9,9E9,9E9,9E9]],v150,z20,custom_tool1\WObj:=WObj0;
MoveJ [[-63,450,138.8],[-0.174713,0.907209,0.375778,0.072368],[0,-1,-1,0],[0,9E9,9E9,9E9,9E9,9E9]],v150,z20,custom_tool1\WObj:=WObj0;
MoveL [[-63,550,38.8],[-0.174713,0.907209,0.375778,0.072368],[0,-1,-1,0],[0,9E9,9E9,9E9,9E9,9E9]],v150,z20,custom_tool1\WObj:=WObj0;
IF TestDI(Stavbar_opt) THEN
WaitDI Stavbar_opt, 0;
ENDIF
WaitTime 1.5;
SetDO Stavbar_Gripper_open, 0;
SetDO Stavbar_Gripper_close, 1;
WaitTime 1;
MoveL [[-63,450,138.8],[-0.174713,0.907209,0.375778,0.072368],[0,-1,-1,0],[0,9E9,9E9,9E9,9E9,9E9]],v150,z20,custom_tool1\WObj:=WObj0;
MoveJ [[25,450,138.8],[-0.174713,0.907209,0.375778,0.072368],[0,-1,-1,0],[0,9E9,9E9,9E9,9E9,9E9]],v150,z20,custom_tool1\WObj:=WObj0;
MoveJ [[424.57,176.97,302.86],[0.320717,-0.233457,0.914293,-0.081892],[0,-1,-1,0],[0,9E9,9E9,9E9,9E9,9E9]],v150,z20,custom_tool1\WObj:=WObj0;
MoveJ [[233.28,431.63,273.5],[0,0.69938,0.71475,0],[0,-1,-1,0],[0,9E9,9E9,9E9,9E9,9E9]],v150,z20,custom_tool1\WObj:=WObj0;
MoveL [[233.28,431.63,173.5],[0,0.69938,0.71475,0],[0,-1,-1,0],[0,9E9,9E9,9E9,9E9,9E9]],v150,z20,custom_tool1\WObj:=WObj0;
WaitTime 1.5;
SetDO Stavbar_Gripper_close, 0;
SetDO Stavbar_Gripper_open, 1;
WaitTime 1;
SetDO Stavbar_Gripper_open, 0;
MoveL [[233.28,431.63,273.5],[0,0.69938,0.71475,0],[0,-1,-1,0],[0,9E9,9E9,9E9,9E9,9E9]],v150,z20,custom_tool1\WObj:=WObj0;
MoveJ [[424.57,176.97,302.86],[0.320717,-0.233457,0.914293,-0.081892],[0,-1,-1,0],[0,9E9,9E9,9E9,9E9,9E9]],v150,z20,custom_tool1\WObj:=WObj0;
MoveJ [[25,450,138.8],[-0.174713,0.907209,0.375778,0.072368],[0,-1,-1,0],[0,9E9,9E9,9E9,9E9,9E9]],v150,z20,custom_tool1\WObj:=WObj0;
MoveL [[25,550,38.8],[-0.174713,0.907209,0.375778,0.072368],[0,-1,-1,0],[0,9E9,9E9,9E9,9E9,9E9]],v150,z20,custom_tool1\WObj:=WObj0;
IF TestDI(Stavbar_opt) THEN
WaitDI Stavbar_opt, 0;
ENDIF
WaitTime 1.5;
SetDO Stavbar_Gripper_open, 0;
SetDO Stavbar_Gripper_close, 1;
WaitTime 1;
MoveL [[25,450,138.8],[-0.174713,0.907209,0.375778,0.072368],[0,-1,-1,0],[0,9E9,9E9,9E9,9E9,9E9]],v150,z20,custom_tool1\WObj:=WObj0;
MoveJ [[424.57,176.97,302.86],[0.320717,-0.233457,0.914293,-0.081892],[0,-1,-1,0],[0,9E9,9E9,9E9,9E9,9E9]],v150,z20,custom_tool1\WObj:=WObj0;
MoveJ [[280.16,384.41,273.5],[0,0.723508,0.690316,0],[0,-1,-1,0],[0,9E9,9E9,9E9,9E9,9E9]],v150,z20,custom_tool1\WObj:=WObj0;
MoveL [[280.16,384.41,173.5],[0,0.723508,0.690316,0],[0,-1,-1,0],[0,9E9,9E9,9E9,9E9,9E9]],v150,z20,custom_tool1\WObj:=WObj0;
WaitTime 1.5;
SetDO Stavbar_Gripper_close, 0;
SetDO Stavbar_Gripper_open, 1;
WaitTime 1;
SetDO Stavbar_Gripper_open, 0;
MoveL [[280.16,384.41,273.5],[0,0.723508,0.690316,0],[0,-1,-1,0],[0,9E9,9E9,9E9,9E9,9E9]],v150,z20,custom_tool1\WObj:=WObj0;
MoveJ [[424.57,176.97,302.86],[0.320717,-0.233457,0.914293,-0.081892],[0,-1,-1,0],[0,9E9,9E9,9E9,9E9,9E9]],v150,z20,custom_tool1\WObj:=WObj0;
MoveJ [[25,450,138.8],[-0.174713,0.907209,0.375778,0.072368],[0,-1,-1,0],[0,9E9,9E9,9E9,9E9,9E9]],v150,z20,custom_tool1\WObj:=WObj0;
MoveL [[25,550,38.8],[-0.174713,0.907209,0.375778,0.072368],[0,-1,-1,0],[0,9E9,9E9,9E9,9E9,9E9]],v150,z20,custom_tool1\WObj:=WObj0;
IF TestDI(Stavbar_opt) THEN
WaitDI Stavbar_opt, 0;
ENDIF
WaitTime 1.5;
SetDO Stavbar_Gripper_open, 0;
SetDO Stavbar_Gripper_close, 1;
WaitTime 1;
MoveL [[25,450,138.8],[-0.174713,0.907209,0.375778,0.072368],[0,-1,-1,0],[0,9E9,9E9,9E9,9E9,9E9]],v150,z20,custom_tool1\WObj:=WObj0;
MoveJ [[424.57,176.97,302.86],[0.320717,-0.233457,0.914293,-0.081892],[0,-1,-1,0],[0,9E9,9E9,9E9,9E9,9E9]],v150,z20,custom_tool1\WObj:=WObj0;
MoveJ [[341.81,304.42,273.5],[0,0.779733,0.626112,0],[0,-1,-1,0],[0,9E9,9E9,9E9,9E9,9E9]],v150,z20,custom_tool1\WObj:=WObj0;
MoveL [[341.81,304.42,173.5],[0,0.779733,0.626112,0],[0,-1,-1,0],[0,9E9,9E9,9E9,9E9,9E9]],v150,z20,custom_tool1\WObj:=WObj0;
WaitTime 1.5;
SetDO Stavbar_Gripper_close, 0;
SetDO Stavbar_Gripper_open, 1;
WaitTime 1;
SetDO Stavbar_Gripper_open, 0;
MoveL [[341.81,304.42,273.5],[0,0.779733,0.626112,0],[0,-1,-1,0],[0,9E9,9E9,9E9,9E9,9E9]],v150,z20,custom_tool1\WObj:=WObj0;
MoveJ [[424.57,176.97,302.86],[0.320717,-0.233457,0.914293,-0.081892],[0,-1,-1,0],[0,9E9,9E9,9E9,9E9,9E9]],v150,z20,custom_tool1\WObj:=WObj0;
MoveJ [[25,450,138.8],[-0.174713,0.907209,0.375778,0.072368],[0,-1,-1,0],[0,9E9,9E9,9E9,9E9,9E9]],v150,z20,custom_tool1\WObj:=WObj0;
MoveL [[25,550,38.8],[-0.174713,0.907209,0.375778,0.072368],[0,-1,-1,0],[0,9E9,9E9,9E9,9E9,9E9]],v150,z20,custom_tool1\WObj:=WObj0;
IF TestDI(Stavbar_opt) THEN
WaitDI Stavbar_opt, 0;
ENDIF
WaitTime 1.5;
SetDO Stavbar_Gripper_open, 0;
SetDO Stavbar_Gripper_close, 1;
WaitTime 1;
MoveL [[25,450,138.8],[-0.174713,0.907209,0.375778,0.072368],[0,-1,-1,0],[0,9E9,9E9,9E9,9E9,9E9]],v150,z20,custom_tool1\WObj:=WObj0;
MoveJ [[424.57,176.97,302.86],[0.320717,-0.233457,0.914293,-0.081892],[0,-1,-1,0],[0,9E9,9E9,9E9,9E9,9E9]],v150,z20,custom_tool1\WObj:=WObj0;
MoveJ [[387.3,214.32,273.5],[0,0.839309,0.543655,0],[0,-1,-1,0],[0,9E9,9E9,9E9,9E9,9E9]],v150,z20,custom_tool1\WObj:=WObj0;
MoveL [[387.3,214.32,173.5],[0,0.839309,0.543655,0],[0,-1,-1,0],[0,9E9,9E9,9E9,9E9,9E9]],v150,z20,custom_tool1\WObj:=WObj0;
WaitTime 1.5;
SetDO Stavbar_Gripper_close, 0;
SetDO Stavbar_Gripper_open, 1;
WaitTime 1;
SetDO Stavbar_Gripper_open, 0;
MoveL [[387.3,214.32,273.5],[0,0.839309,0.543655,0],[0,-1,-1,0],[0,9E9,9E9,9E9,9E9,9E9]],v150,z20,custom_tool1\WObj:=WObj0;
MoveJ [[424.57,176.97,302.86],[0.320717,-0.233457,0.914293,-0.081892],[0,-1,-1,0],[0,9E9,9E9,9E9,9E9,9E9]],v150,z20,custom_tool1\WObj:=WObj0;
MoveJ [[25,450,138.8],[-0.174713,0.907209,0.375778,0.072368],[0,-1,-1,0],[0,9E9,9E9,9E9,9E9,9E9]],v150,z20,custom_tool1\WObj:=WObj0;
MoveL [[25,550,38.8],[-0.174713,0.907209,0.375778,0.072368],[0,-1,-1,0],[0,9E9,9E9,9E9,9E9,9E9]],v150,z20,custom_tool1\WObj:=WObj0;
IF TestDI(Stavbar_opt) THEN
WaitDI Stavbar_opt, 0;
ENDIF
WaitTime 1.5;
SetDO Stavbar_Gripper_open, 0;
SetDO Stavbar_Gripper_close, 1;
WaitTime 1;
MoveL [[25,450,138.8],[-0.174713,0.907209,0.375778,0.072368],[0,-1,-1,0],[0,9E9,9E9,9E9,9E9,9E9]],v150,z20,custom_tool1\WObj:=WObj0;
MoveJ [[424.57,176.97,302.86],[0.320717,-0.233457,0.914293,-0.081892],[0,-1,-1,0],[0,9E9,9E9,9E9,9E9,9E9]],v150,z20,custom_tool1\WObj:=WObj0;
MoveJ [[413.42,116.81,273.5],[0,0.889617,0.456708,0],[0,-1,-1,0],[0,9E9,9E9,9E9,9E9,9E9]],v150,z20,custom_tool1\WObj:=WObj0;
MoveL [[413.42,116.81,173.5],[0,0.889617,0.456708,0],[0,-1,-1,0],[0,9E9,9E9,9E9,9E9,9E9]],v150,z20,custom_tool1\WObj:=WObj0;
WaitTime 1.5;
SetDO Stavbar_Gripper_close, 0;
SetDO Stavbar_Gripper_open, 1;
WaitTime 1;
SetDO Stavbar_Gripper_open, 0;
MoveL [[413.42,116.81,273.5],[0,0.889617,0.456708,0],[0,-1,-1,0],[0,9E9,9E9,9E9,9E9,9E9]],v150,z20,custom_tool1\WObj:=WObj0;
MoveJ [[424.57,176.97,302.86],[0.320717,-0.233457,0.914293,-0.081892],[0,-1,-1,0],[0,9E9,9E9,9E9,9E9,9E9]],v150,z20,custom_tool1\WObj:=WObj0;
MoveJ [[25,450,138.8],[-0.174713,0.907209,0.375778,0.072368],[0,-1,-1,0],[0,9E9,9E9,9E9,9E9,9E9]],v150,z20,custom_tool1\WObj:=WObj0;
MoveL [[25,550,38.8],[-0.174713,0.907209,0.375778,0.072368],[0,-1,-1,0],[0,9E9,9E9,9E9,9E9,9E9]],v150,z20,custom_tool1\WObj:=WObj0;
IF TestDI(Stavbar_opt) THEN
WaitDI Stavbar_opt, 0;
ENDIF
WaitTime 1.5;
SetDO Stavbar_Gripper_open, 0;
SetDO Stavbar_Gripper_close, 1;
WaitTime 1;
MoveL [[25,450,138.8],[-0.174713,0.907209,0.375778,0.072368],[0,-1,-1,0],[0,9E9,9E9,9E9,9E9,9E9]],v150,z20,custom_tool1\WObj:=WObj0;
MoveJ [[424.57,176.97,302.86],[0.320717,-0.233457,0.914293,-0.081892],[0,-1,-1,0],[0,9E9,9E9,9E9,9E9,9E9]],v150,z20,custom_tool1\WObj:=WObj0;
MoveJ [[421.17,16.11,273.5],[0,0.924296,0.381676,0],[0,-1,-1,0],[0,9E9,9E9,9E9,9E9,9E9]],v150,z20,custom_tool1\WObj:=WObj0;
MoveL [[421.17,16.11,173.5],[0,0.924296,0.381676,0],[0,-1,-1,0],[0,9E9,9E9,9E9,9E9,9E9]],v150,z20,custom_tool1\WObj:=WObj0;
WaitTime 1.5;
SetDO Stavbar_Gripper_close, 0;
SetDO Stavbar_Gripper_open, 1;
WaitTime 1;
SetDO Stavbar_Gripper_open, 0;
MoveL [[421.17,16.11,273.5],[0,0.924296,0.381676,0],[0,-1,-1,0],[0,9E9,9E9,9E9,9E9,9E9]],v150,z20,custom_tool1\WObj:=WObj0;
MoveJ [[424.57,176.97,302.86],[0.320717,-0.233457,0.914293,-0.081892],[0,-1,-1,0],[0,9E9,9E9,9E9,9E9,9E9]],v150,z20,custom_tool1\WObj:=WObj0;
MoveJ [[25,450,138.8],[-0.174713,0.907209,0.375778,0.072368],[0,-1,-1,0],[0,9E9,9E9,9E9,9E9,9E9]],v150,z20,custom_tool1\WObj:=WObj0;
MoveL [[25,550,38.8],[-0.174713,0.907209,0.375778,0.072368],[0,-1,-1,0],[0,9E9,9E9,9E9,9E9,9E9]],v150,z20,custom_tool1\WObj:=WObj0;
IF TestDI(Stavbar_opt) THEN
WaitDI Stavbar_opt, 0;
ENDIF
WaitTime 1.5;
SetDO Stavbar_Gripper_open, 0;
SetDO Stavbar_Gripper_close, 1;
WaitTime 1;
MoveL [[25,450,138.8],[-0.174713,0.907209,0.375778,0.072368],[0,-1,-1,0],[0,9E9,9E9,9E9,9E9,9E9]],v150,z20,custom_tool1\WObj:=WObj0;
MoveJ [[424.57,176.97,302.86],[0.320717,-0.233457,0.914293,-0.081892],[0,-1,-1,0],[0,9E9,9E9,9E9,9E9,9E9]],v150,z20,custom_tool1\WObj:=WObj0;
MoveJ [[424.57,176.97,302.86],[0.320717,-0.233457,0.914293,-0.081892],[0,-1,-1,0],[0,9E9,9E9,9E9,9E9,9E9]],v150,z20,custom_tool1\WObj:=WObj0;
MoveJ [[414.46,-84.71,273.5],[0,0.945814,0.324708,0],[0,-1,-1,0],[0,9E9,9E9,9E9,9E9,9E9]],v150,z20,custom_tool1\WObj:=WObj0;
MoveL [[414.46,-84.71,173.5],[0,0.945814,0.324708,0],[0,-1,-1,0],[0,9E9,9E9,9E9,9E9,9E9]],v150,z20,custom_tool1\WObj:=WObj0;
WaitTime 1.5;
SetDO Stavbar_Gripper_close, 0;
SetDO Stavbar_Gripper_open, 1;
WaitTime 1;
SetDO Stavbar_Gripper_open, 0;
MoveL [[414.46,-84.71,273.5],[0,0.945814,0.324708,0],[0,-1,-1,0],[0,9E9,9E9,9E9,9E9,9E9]],v150,z20,custom_tool1\WObj:=WObj0;
MoveJ [[424.57,176.97,302.86],[0.320717,-0.233457,0.914293,-0.081892],[0,-1,-1,0],[0,9E9,9E9,9E9,9E9,9E9]],v150,z20,custom_tool1\WObj:=WObj0;
MoveJ [[424.57,176.97,302.86],[0.320717,-0.233457,0.914293,-0.081892],[0,-1,-1,0],[0,9E9,9E9,9E9,9E9,9E9]],v150,z20,custom_tool1\WObj:=WObj0;
MoveJ [[25,450,138.8],[-0.174713,0.907209,0.375778,0.072368],[0,-1,-1,0],[0,9E9,9E9,9E9,9E9,9E9]],v150,z20,custom_tool1\WObj:=WObj0;
MoveL [[25,550,38.8],[-0.174713,0.907209,0.375778,0.072368],[0,-1,-1,0],[0,9E9,9E9,9E9,9E9,9E9]],v150,z20,custom_tool1\WObj:=WObj0;
IF TestDI(Stavbar_opt) THEN
WaitDI Stavbar_opt, 0;
ENDIF
WaitTime 1.5;
SetDO Stavbar_Gripper_open, 0;
SetDO Stavbar_Gripper_close, 1;
WaitTime 1;
MoveL [[25,450,138.8],[-0.174713,0.907209,0.375778,0.072368],[0,-1,-1,0],[0,9E9,9E9,9E9,9E9,9E9]],v150,z20,custom_tool1\WObj:=WObj0;
MoveJ [[424.57,176.97,302.86],[0.320717,-0.233457,0.914293,-0.081892],[0,-1,-1,0],[0,9E9,9E9,9E9,9E9,9E9]],v150,z20,custom_tool1\WObj:=WObj0;
MoveJ [[424.57,176.97,302.86],[0.320717,-0.233457,0.914293,-0.081892],[0,-1,-1,0],[0,9E9,9E9,9E9,9E9,9E9]],v150,z20,custom_tool1\WObj:=WObj0;
MoveJ [[397.4,-184.34,273.5],[0,0.958925,0.283659,0],[0,-1,-1,0],[0,9E9,9E9,9E9,9E9,9E9]],v150,z20,custom_tool1\WObj:=WObj0;
MoveL [[397.4,-184.34,173.5],[0,0.958925,0.283659,0],[0,-1,-1,0],[0,9E9,9E9,9E9,9E9,9E9]],v150,z20,custom_tool1\WObj:=WObj0;
WaitTime 1.5;
SetDO Stavbar_Gripper_close, 0;
SetDO Stavbar_Gripper_open, 1;
WaitTime 1;
SetDO Stavbar_Gripper_open, 0;
MoveL [[397.4,-184.34,273.5],[0,0.958925,0.283659,0],[0,-1,-1,0],[0,9E9,9E9,9E9,9E9,9E9]],v150,z20,custom_tool1\WObj:=WObj0;
MoveJ [[424.57,176.97,302.86],[0.320717,-0.233457,0.914293,-0.081892],[0,-1,-1,0],[0,9E9,9E9,9E9,9E9,9E9]],v150,z20,custom_tool1\WObj:=WObj0;
MoveJ [[424.57,176.97,302.86],[0.320717,-0.233457,0.914293,-0.081892],[0,-1,-1,0],[0,9E9,9E9,9E9,9E9,9E9]],v150,z20,custom_tool1\WObj:=WObj0;
MoveJ [[25,450,138.8],[-0.174713,0.907209,0.375778,0.072368],[0,-1,-1,0],[0,9E9,9E9,9E9,9E9,9E9]],v150,z20,custom_tool1\WObj:=WObj0;
MoveL [[25,550,38.8],[-0.174713,0.907209,0.375778,0.072368],[0,-1,-1,0],[0,9E9,9E9,9E9,9E9,9E9]],v150,z20,custom_tool1\WObj:=WObj0;
IF TestDI(Stavbar_opt) THEN
WaitDI Stavbar_opt, 0;
ENDIF
WaitTime 1.5;
SetDO Stavbar_Gripper_open, 0;
SetDO Stavbar_Gripper_close, 1;
WaitTime 1;
MoveL [[25,450,138.8],[-0.174713,0.907209,0.375778,0.072368],[0,-1,-1,0],[0,9E9,9E9,9E9,9E9,9E9]],v150,z20,custom_tool1\WObj:=WObj0;
MoveJ [[424.57,176.97,302.86],[0.320717,-0.233457,0.914293,-0.081892],[0,-1,-1,0],[0,9E9,9E9,9E9,9E9,9E9]],v150,z20,custom_tool1\WObj:=WObj0;
MoveJ [[244.84,420.56,296.5],[0,0.69938,0.71475,0],[0,-1,-1,0],[0,9E9,9E9,9E9,9E9,9E9]],v150,z20,custom_tool1\WObj:=WObj0;
MoveL [[244.84,420.56,196.5],[0,0.69938,0.71475,0],[0,-1,-1,0],[0,9E9,9E9,9E9,9E9,9E9]],v150,z20,custom_tool1\WObj:=WObj0;
WaitTime 1.5;
SetDO Stavbar_Gripper_close, 0;
SetDO Stavbar_Gripper_open, 1;
WaitTime 1;
SetDO Stavbar_Gripper_open, 0;
MoveL [[244.84,420.56,296.5],[0,0.69938,0.71475,0],[0,-1,-1,0],[0,9E9,9E9,9E9,9E9,9E9]],v150,z20,custom_tool1\WObj:=WObj0;
MoveJ [[424.57,176.97,302.86],[0.320717,-0.233457,0.914293,-0.081892],[0,-1,-1,0],[0,9E9,9E9,9E9,9E9,9E9]],v150,z20,custom_tool1\WObj:=WObj0;
MoveJ [[25,450,138.8],[-0.174713,0.907209,0.375778,0.072368],[0,-1,-1,0],[0,9E9,9E9,9E9,9E9,9E9]],v150,z20,custom_tool1\WObj:=WObj0;
MoveL [[25,550,38.8],[-0.174713,0.907209,0.375778,0.072368],[0,-1,-1,0],[0,9E9,9E9,9E9,9E9,9E9]],v150,z20,custom_tool1\WObj:=WObj0;
IF TestDI(Stavbar_opt) THEN
WaitDI Stavbar_opt, 0;
ENDIF
WaitTime 1.5;
SetDO Stavbar_Gripper_open, 0;
SetDO Stavbar_Gripper_close, 1;
WaitTime 1;
MoveL [[25,450,138.8],[-0.174713,0.907209,0.375778,0.072368],[0,-1,-1,0],[0,9E9,9E9,9E9,9E9,9E9]],v150,z20,custom_tool1\WObj:=WObj0;
MoveJ [[424.57,176.97,302.86],[0.320717,-0.233457,0.914293,-0.081892],[0,-1,-1,0],[0,9E9,9E9,9E9,9E9,9E9]],v150,z20,custom_tool1\WObj:=WObj0;
MoveJ [[312.7,345.73,296.5],[0,0.750517,0.660852,0],[0,-1,-1,0],[0,9E9,9E9,9E9,9E9,9E9]],v150,z20,custom_tool1\WObj:=WObj0;
MoveL [[312.7,345.73,196.5],[0,0.750517,0.660852,0],[0,-1,-1,0],[0,9E9,9E9,9E9,9E9,9E9]],v150,z20,custom_tool1\WObj:=WObj0;
WaitTime 1.5;
SetDO Stavbar_Gripper_close, 0;
SetDO Stavbar_Gripper_open, 1;
WaitTime 1;
SetDO Stavbar_Gripper_open, 0;
MoveL [[312.7,345.73,296.5],[0,0.750517,0.660852,0],[0,-1,-1,0],[0,9E9,9E9,9E9,9E9,9E9]],v150,z20,custom_tool1\WObj:=WObj0;
MoveJ [[424.57,176.97,302.86],[0.320717,-0.233457,0.914293,-0.081892],[0,-1,-1,0],[0,9E9,9E9,9E9,9E9,9E9]],v150,z20,custom_tool1\WObj:=WObj0;
MoveJ [[25,450,138.8],[-0.174713,0.907209,0.375778,0.072368],[0,-1,-1,0],[0,9E9,9E9,9E9,9E9,9E9]],v150,z20,custom_tool1\WObj:=WObj0;
MoveL [[25,550,38.8],[-0.174713,0.907209,0.375778,0.072368],[0,-1,-1,0],[0,9E9,9E9,9E9,9E9,9E9]],v150,z20,custom_tool1\WObj:=WObj0;
IF TestDI(Stavbar_opt) THEN
WaitDI Stavbar_opt, 0;
ENDIF
WaitTime 1.5;
SetDO Stavbar_Gripper_open, 0;
SetDO Stavbar_Gripper_close, 1;
WaitTime 1;
MoveL [[25,450,138.8],[-0.174713,0.907209,0.375778,0.072368],[0,-1,-1,0],[0,9E9,9E9,9E9,9E9,9E9]],v150,z20,custom_tool1\WObj:=WObj0;
MoveJ [[424.57,176.97,302.86],[0.320717,-0.233457,0.914293,-0.081892],[0,-1,-1,0],[0,9E9,9E9,9E9,9E9,9E9]],v150,z20,custom_tool1\WObj:=WObj0;
MoveJ [[366.86,260.53,296.5],[0,0.809896,0.586574,0],[0,-1,-1,0],[0,9E9,9E9,9E9,9E9,9E9]],v150,z20,custom_tool1\WObj:=WObj0;
MoveL [[366.86,260.53,196.5],[0,0.809896,0.586574,0],[0,-1,-1,0],[0,9E9,9E9,9E9,9E9,9E9]],v150,z20,custom_tool1\WObj:=WObj0;
WaitTime 1.5;
SetDO Stavbar_Gripper_close, 0;
SetDO Stavbar_Gripper_open, 1;
WaitTime 1;
SetDO Stavbar_Gripper_open, 0;
MoveL [[366.86,260.53,296.5],[0,0.809896,0.586574,0],[0,-1,-1,0],[0,9E9,9E9,9E9,9E9,9E9]],v150,z20,custom_tool1\WObj:=WObj0;
MoveJ [[424.57,176.97,302.86],[0.320717,-0.233457,0.914293,-0.081892],[0,-1,-1,0],[0,9E9,9E9,9E9,9E9,9E9]],v150,z20,custom_tool1\WObj:=WObj0;
MoveJ [[25,450,138.8],[-0.174713,0.907209,0.375778,0.072368],[0,-1,-1,0],[0,9E9,9E9,9E9,9E9,9E9]],v150,z20,custom_tool1\WObj:=WObj0;
MoveL [[25,550,38.8],[-0.174713,0.907209,0.375778,0.072368],[0,-1,-1,0],[0,9E9,9E9,9E9,9E9,9E9]],v150,z20,custom_tool1\WObj:=WObj0;
IF TestDI(Stavbar_opt) THEN
WaitDI Stavbar_opt, 0;
ENDIF
WaitTime 1.5;
SetDO Stavbar_Gripper_open, 0;
SetDO Stavbar_Gripper_close, 1;
WaitTime 1;
MoveL [[25,450,138.8],[-0.174713,0.907209,0.375778,0.072368],[0,-1,-1,0],[0,9E9,9E9,9E9,9E9,9E9]],v150,z20,custom_tool1\WObj:=WObj0;
MoveJ [[424.57,176.97,302.86],[0.320717,-0.233457,0.914293,-0.081892],[0,-1,-1,0],[0,9E9,9E9,9E9,9E9,9E9]],v150,z20,custom_tool1\WObj:=WObj0;
MoveJ [[402.82,166.23,296.5],[0,0.866278,0.499562,0],[0,-1,-1,0],[0,9E9,9E9,9E9,9E9,9E9]],v150,z20,custom_tool1\WObj:=WObj0;
MoveL [[402.82,166.23,196.5],[0,0.866278,0.499562,0],[0,-1,-1,0],[0,9E9,9E9,9E9,9E9,9E9]],v150,z20,custom_tool1\WObj:=WObj0;
WaitTime 1.5;
SetDO Stavbar_Gripper_close, 0;
SetDO Stavbar_Gripper_open, 1;
WaitTime 1;
SetDO Stavbar_Gripper_open, 0;
MoveL [[402.82,166.23,296.5],[0,0.866278,0.499562,0],[0,-1,-1,0],[0,9E9,9E9,9E9,9E9,9E9]],v150,z20,custom_tool1\WObj:=WObj0;
MoveJ [[424.57,176.97,302.86],[0.320717,-0.233457,0.914293,-0.081892],[0,-1,-1,0],[0,9E9,9E9,9E9,9E9,9E9]],v150,z20,custom_tool1\WObj:=WObj0;
MoveJ [[25,450,138.8],[-0.174713,0.907209,0.375778,0.072368],[0,-1,-1,0],[0,9E9,9E9,9E9,9E9,9E9]],v150,z20,custom_tool1\WObj:=WObj0;
MoveL [[25,550,38.8],[-0.174713,0.907209,0.375778,0.072368],[0,-1,-1,0],[0,9E9,9E9,9E9,9E9,9E9]],v150,z20,custom_tool1\WObj:=WObj0;
IF TestDI(Stavbar_opt) THEN
WaitDI Stavbar_opt, 0;
ENDIF
WaitTime 1.5;
SetDO Stavbar_Gripper_open, 0;
SetDO Stavbar_Gripper_close, 1;
WaitTime 1;
MoveL [[25,450,138.8],[-0.174713,0.907209,0.375778,0.072368],[0,-1,-1,0],[0,9E9,9E9,9E9,9E9,9E9]],v150,z20,custom_tool1\WObj:=WObj0;
