MODULE MainModule
VAR speeddata Work:= [100,20,5000,1000];
PERS tooldata custom_tool1 := [TRUE, [[-144.18,-154.4,34.77], [0.707107,0.5,-0.5,0]], [0.1,[0.10,0.00,0.00],[1,0,0,0],0,0,0]];
PROC Main()
! vystava_v2.gh [T_ROB1]
! 03/03/2020 13:56:44
! Generated with TACO for ABB
! http://taco.blickfeld7.com
! =====================================
ConfL \Off;
ConfJ \Off;
MoveL [[74.77,469.8,191.7],[0.331007,0,0.943628,0],[0,-1,-1,0],[0,9E9,9E9,9E9,9E9,9E9]],Work,z1,custom_tool1\WObj:=WObj0;
MoveC [[405.97,72.57,217.48],[0.331007,0,0.943628,0],[0,-1,-1,0],[0,9E9,9E9,9E9,9E9,9E9]],[[-4.40,-405.99,214.90],[-0.188751,-0.681449,0.681449,-0.188751],[0,-1,-1,0],[0,9E9,9E9,9E9,9E9,9E9]],Work,z1,custom_tool1\WObj:=WObj0;
MoveC [[405.97,72.57,217.48],[0.331007,0,0.943628,0],[0,-1,-1,0],[0,9E9,9E9,9E9,9E9,9E9]],[[74.77,469.8,191.7],[0.331007,0,0.943628,0],[0,-1,-1,0],[0,9E9,9E9,9E9,9E9,9E9]],Work,z1,custom_tool1\WObj:=WObj0;
ENDPROC
ENDMODULE